(G-CODE GENERATED BY FLATCAM v8.994 - www.flatcam.org - Version Date: 2020/11/7)

(Name: Gerber_TopLayer.GTL_iso_combined_cnc)
(Type: G-code from Geometry)
(Units: MM)

(Created on Friday, 28 March 2025 at 15:41)

(This preprocessor is the default preprocessor used by FlatCAM.)
(It is made to work with MACH3 compatible motion controllers.)

(TOOL DIAMETER: 2.0 mm)
(Feedrate_XY: 350.0 mm/min)
(Feedrate_Z: 60.0 mm/min)
(Feedrate rapids 1500.0 mm/min)

(Z_Cut: -0.5 mm)
(Z_Move: 2.0 mm)
(Z Start: None mm)
(Z End: 15.0 mm)
(X,Y End: None mm)
(Steps per circle: 64)
(Preprocessor Geometry: default)

(X range:   -0.4877 ...   65.5117  mm)
(Y range:   -0.1070 ...   65.8925  mm)

(Spindle Speed: 24000.0 RPM)
G21
G90
G94

G01 F350.00

M5
G00 Z15.0000
G00 X0.0000 Y0.0000
T1
M6    
(MSG, Change to Tool Dia = 2.0000)
M0
G00 Z15.0000

M03 S24000.0
G01 F350.00
G00 X47.8920 Y19.3867
G01 F60.00
G01 Z-0.5000
G01 F350.00
G01 X47.8764 Y19.3556
G01 X47.8659 Y19.3331
G01 X47.8561 Y19.3103
G01 X47.8468 Y19.2873
G01 X47.8381 Y19.2640
G01 X47.8299 Y19.2405
G01 X47.8224 Y19.2169
G01 X47.8154 Y19.1931
G01 X47.8090 Y19.1691
G01 X47.8033 Y19.1449
G01 X47.7981 Y19.1206
G01 X47.7859 Y19.0583
G01 X47.7820 Y19.0339
G01 X47.7787 Y19.0095
G01 X47.7759 Y18.9850
G01 X47.7738 Y18.9604
G01 X47.7723 Y18.9357
G01 X47.7714 Y18.9111
G01 X47.7711 Y18.8864
G01 X47.7711 Y17.6339
G01 X17.2530 Y17.6339
G01 X17.2530 Y25.6022
G01 X17.2527 Y25.6262
G01 X17.2518 Y25.6503
G01 X17.2504 Y25.6743
G01 X17.2483 Y25.6982
G01 X17.2457 Y25.7221
G01 X17.2426 Y25.7460
G01 X17.2388 Y25.7697
G01 X17.2269 Y25.8325
G01 X17.2220 Y25.8561
G01 X17.2165 Y25.8796
G01 X17.2105 Y25.9030
G01 X17.2039 Y25.9262
G01 X17.1968 Y25.9492
G01 X17.1847 Y25.9841
G01 X17.1905 Y26.0041
G01 X17.1967 Y26.0278
G01 X17.2143 Y26.0993
G01 X17.2194 Y26.1233
G01 X17.2239 Y26.1474
G01 X17.2350 Y26.2202
G01 X17.2383 Y26.2446
G01 X17.2410 Y26.2689
G01 X17.2431 Y26.2934
G01 X17.2470 Y26.3669
G01 X17.2479 Y26.3915
G01 X17.2482 Y26.4160
G01 X17.2482 Y38.7350
G01 X17.2479 Y38.7595
G01 X17.2470 Y38.7841
G01 X17.2431 Y38.8576
G01 X17.2410 Y38.8821
G01 X17.2383 Y38.9064
G01 X17.2350 Y38.9308
G01 X17.2239 Y39.0036
G01 X17.2194 Y39.0277
G01 X17.2143 Y39.0517
G01 X17.1967 Y39.1232
G01 X17.1905 Y39.1469
G01 X17.1847 Y39.1669
G01 X17.1968 Y39.2018
G01 X17.2039 Y39.2248
G01 X17.2105 Y39.2480
G01 X17.2165 Y39.2714
G01 X17.2220 Y39.2949
G01 X17.2269 Y39.3185
G01 X17.2388 Y39.3812
G01 X17.2426 Y39.4050
G01 X17.2457 Y39.4288
G01 X17.2483 Y39.4527
G01 X17.2504 Y39.4767
G01 X17.2518 Y39.5007
G01 X17.2527 Y39.5248
G01 X17.2530 Y39.5488
G01 X17.2530 Y48.1520
G01 X47.7711 Y48.1520
G01 X47.7711 Y45.3680
G01 X47.7713 Y45.3439
G01 X47.7722 Y45.3199
G01 X47.7737 Y45.2959
G01 X47.7757 Y45.2719
G01 X47.7783 Y45.2480
G01 X47.7814 Y45.2241
G01 X47.7852 Y45.2004
G01 X47.7895 Y45.1767
G01 X47.8022 Y45.1130
G01 X47.8080 Y45.0885
G01 X47.8143 Y45.0641
G01 X47.8213 Y45.0399
G01 X47.8289 Y45.0159
G01 X47.8393 Y44.9861
G01 X47.8336 Y44.9663
G01 X47.8273 Y44.9425
G01 X47.8097 Y44.8710
G01 X47.8046 Y44.8470
G01 X47.8001 Y44.8228
G01 X47.7890 Y44.7500
G01 X47.7857 Y44.7257
G01 X47.7830 Y44.7013
G01 X47.7809 Y44.6768
G01 X47.7770 Y44.6032
G01 X47.7761 Y44.5787
G01 X47.7758 Y44.5541
G01 X47.7758 Y35.6870
G01 X47.7761 Y35.6625
G01 X47.7770 Y35.6379
G01 X47.7794 Y35.5889
G01 X47.7809 Y35.5644
G01 X47.7830 Y35.5399
G01 X47.7857 Y35.5156
G01 X47.7962 Y35.4427
G01 X47.8001 Y35.4184
G01 X47.8046 Y35.3943
G01 X47.8097 Y35.3703
G01 X47.8153 Y35.3464
G01 X47.8273 Y35.2988
G01 X47.8335 Y35.2751
G01 X47.8404 Y35.2515
G01 X47.8478 Y35.2281
G01 X47.8723 Y35.1587
G01 X47.8808 Y35.1357
G01 X47.8899 Y35.1129
G01 X47.8996 Y35.0903
G01 X47.9098 Y35.0680
G01 X47.9416 Y35.0016
G01 X47.9529 Y34.9798
G01 X47.9647 Y34.9583
G01 X47.9771 Y34.9371
G01 X48.0023 Y34.8950
G01 X48.0152 Y34.8741
G01 X48.0286 Y34.8535
G01 X48.0425 Y34.8333
G01 X48.0568 Y34.8134
G01 X48.1010 Y34.7544
G01 X48.1163 Y34.7353
G01 X48.1321 Y34.7165
G01 X48.1484 Y34.6981
G01 X48.1813 Y34.6617
G01 X48.1980 Y34.6437
G01 X48.2152 Y34.6262
G01 X49.4268 Y33.4146
G01 X49.4268 Y32.7317
G01 X49.4169 Y32.7165
G01 X49.4040 Y32.6957
G01 X49.3636 Y32.6283
G01 X49.3513 Y32.6071
G01 X49.3395 Y32.5856
G01 X49.3282 Y32.5638
G01 X49.3174 Y32.5418
G01 X49.2838 Y32.4708
G01 X49.2736 Y32.4485
G01 X49.2639 Y32.4259
G01 X49.2548 Y32.4031
G01 X49.2198 Y32.3062
G01 X49.2118 Y32.2830
G01 X49.2044 Y32.2596
G01 X49.1976 Y32.2360
G01 X49.1913 Y32.2123
G01 X49.1722 Y32.1361
G01 X49.1666 Y32.1122
G01 X49.1615 Y32.0882
G01 X49.1570 Y32.0641
G01 X49.1531 Y32.0399
G01 X49.1416 Y31.9622
G01 X49.1383 Y31.9379
G01 X49.1356 Y31.9135
G01 X49.1335 Y31.8890
G01 X49.1281 Y31.7861
G01 X49.1272 Y31.7616
G01 X49.1269 Y31.7370
G01 X49.1272 Y31.7125
G01 X49.1281 Y31.6880
G01 X49.1320 Y31.6095
G01 X49.1335 Y31.5851
G01 X49.1356 Y31.5606
G01 X49.1383 Y31.5362
G01 X49.1416 Y31.5119
G01 X49.1531 Y31.4342
G01 X49.1570 Y31.4100
G01 X49.1615 Y31.3859
G01 X49.1666 Y31.3618
G01 X49.1913 Y31.2618
G01 X49.1976 Y31.2381
G01 X49.2044 Y31.2145
G01 X49.2118 Y31.1911
G01 X49.2198 Y31.1679
G01 X49.2548 Y31.0710
G01 X49.2639 Y31.0482
G01 X49.2736 Y31.0256
G01 X49.2838 Y31.0033
G01 X49.3174 Y30.9323
G01 X49.3282 Y30.9103
G01 X49.3395 Y30.8885
G01 X49.3513 Y30.8670
G01 X49.3636 Y30.8458
G01 X49.4040 Y30.7784
G01 X49.4206 Y30.7519
G01 X49.4250 Y29.3381
G01 X49.4056 Y29.3345
G01 X49.3816 Y29.3294
G01 X49.2682 Y29.3014
G01 X49.2445 Y29.2951
G01 X49.2209 Y29.2883
G01 X49.1975 Y29.2809
G01 X49.1743 Y29.2729
G01 X49.0875 Y29.2418
G01 X49.0645 Y29.2333
G01 X49.0417 Y29.2241
G01 X49.0191 Y29.2145
G01 X48.9968 Y29.2043
G01 X48.9134 Y29.1648
G01 X48.8914 Y29.1541
G01 X48.8696 Y29.1428
G01 X48.8481 Y29.1309
G01 X48.8269 Y29.1186
G01 X48.7478 Y29.0711
G01 X48.7269 Y29.0583
G01 X48.7063 Y29.0449
G01 X48.6861 Y29.0310
G01 X48.6662 Y29.0166
G01 X48.5726 Y28.9468
G01 X48.5534 Y28.9315
G01 X48.5346 Y28.9157
G01 X48.4479 Y28.8375
G01 X48.4299 Y28.8208
G01 X48.4124 Y28.8036
G01 X48.3952 Y28.7861
G01 X48.3785 Y28.7681
G01 X48.3166 Y28.6998
G01 X48.3003 Y28.6814
G01 X48.2845 Y28.6626
G01 X48.2692 Y28.6434
G01 X48.2543 Y28.6239
G01 X48.1994 Y28.5498
G01 X48.1850 Y28.5299
G01 X48.1711 Y28.5097
G01 X48.1577 Y28.4891
G01 X48.1449 Y28.4682
G01 X48.0974 Y28.3891
G01 X48.0851 Y28.3679
G01 X48.0732 Y28.3464
G01 X48.0619 Y28.3246
G01 X48.0512 Y28.3026
G01 X48.0117 Y28.2192
G01 X48.0015 Y28.1969
G01 X47.9919 Y28.1743
G01 X47.9827 Y28.1515
G01 X47.9742 Y28.1285
G01 X47.9351 Y28.0185
G01 X47.9277 Y27.9951
G01 X47.9209 Y27.9715
G01 X47.8922 Y27.8583
G01 X47.8866 Y27.8344
G01 X47.8815 Y27.8104
G01 X47.8770 Y27.7863
G01 X47.8731 Y27.7621
G01 X47.8595 Y27.6708
G01 X47.8562 Y27.6465
G01 X47.8535 Y27.6221
G01 X47.8514 Y27.5977
G01 X47.8499 Y27.5732
G01 X47.8454 Y27.4811
G01 X47.8445 Y27.4565
G01 X47.8442 Y27.4320
G01 X47.8445 Y27.4075
G01 X47.8454 Y27.3829
G01 X47.8514 Y27.2663
G01 X47.8535 Y27.2419
G01 X47.8562 Y27.2175
G01 X47.8731 Y27.1019
G01 X47.8770 Y27.0777
G01 X47.8815 Y27.0536
G01 X47.8866 Y27.0296
G01 X47.8920 Y27.0067
G01 X47.8764 Y26.9756
G01 X47.8659 Y26.9531
G01 X47.8561 Y26.9303
G01 X47.8468 Y26.9073
G01 X47.8381 Y26.8840
G01 X47.8299 Y26.8605
G01 X47.8224 Y26.8369
G01 X47.8154 Y26.8131
G01 X47.8090 Y26.7891
G01 X47.8033 Y26.7649
G01 X47.7905 Y26.7025
G01 X47.7859 Y26.6783
G01 X47.7820 Y26.6539
G01 X47.7787 Y26.6295
G01 X47.7759 Y26.6050
G01 X47.7738 Y26.5804
G01 X47.7723 Y26.5557
G01 X47.7714 Y26.5311
G01 X47.7711 Y26.5064
G01 X47.7711 Y20.7366
G01 X47.7713 Y20.7125
G01 X47.7722 Y20.6885
G01 X47.7737 Y20.6645
G01 X47.7757 Y20.6405
G01 X47.7783 Y20.6166
G01 X47.7814 Y20.5928
G01 X47.7852 Y20.5690
G01 X47.7895 Y20.5454
G01 X47.8022 Y20.4816
G01 X47.8080 Y20.4571
G01 X47.8143 Y20.4328
G01 X47.8213 Y20.4086
G01 X47.8289 Y20.3846
G01 X47.8370 Y20.3608
G01 X47.8458 Y20.3372
G01 X47.8552 Y20.3138
G01 X47.8651 Y20.2907
G01 X47.8756 Y20.2679
G01 X47.8916 Y20.2359
G01 X47.8866 Y20.2144
G01 X47.8815 Y20.1904
G01 X47.8770 Y20.1663
G01 X47.8731 Y20.1421
G01 X47.8562 Y20.0265
G01 X47.8535 Y20.0021
G01 X47.8514 Y19.9777
G01 X47.8499 Y19.9532
G01 X47.8454 Y19.8611
G01 X47.8445 Y19.8365
G01 X47.8442 Y19.8120
G01 X47.8445 Y19.7875
G01 X47.8454 Y19.7629
G01 X47.8499 Y19.6708
G01 X47.8514 Y19.6463
G01 X47.8535 Y19.6219
G01 X47.8562 Y19.5975
G01 X47.8731 Y19.4819
G01 X47.8770 Y19.4577
G01 X47.8815 Y19.4336
G01 X47.8866 Y19.4096
G01 X47.8920 Y19.3867
G00 Z2.0000
G00 X5.2412 Y51.4562
G01 F60.00
G01 Z-0.5000
G01 F350.00
G01 X5.1156 Y51.2869
G01 X5.1013 Y51.2671
G01 X5.0601 Y51.2060
G01 X5.0467 Y51.1854
G01 X5.0338 Y51.1645
G01 X3.4446 Y48.5131
G01 X3.4323 Y48.4919
G01 X3.4204 Y48.4704
G01 X3.3973 Y48.4271
G01 X3.3860 Y48.4053
G01 X3.3752 Y48.3832
G01 X2.0535 Y45.5887
G01 X2.0433 Y45.5664
G01 X2.0336 Y45.5439
G01 X2.0149 Y45.4985
G01 X2.0057 Y45.4757
G01 X1.9972 Y45.4527
G01 X0.9558 Y42.5422
G01 X0.9478 Y42.5189
G01 X0.9404 Y42.4955
G01 X0.9261 Y42.4486
G01 X0.9193 Y42.4250
G01 X0.9130 Y42.4013
G01 X0.1619 Y39.4026
G01 X0.1562 Y39.3788
G01 X0.1512 Y39.3547
G01 X0.1416 Y39.3066
G01 X0.1371 Y39.2825
G01 X0.1332 Y39.2582
G01 X-0.3204 Y36.2004
G01 X-0.3237 Y36.1761
G01 X-0.3264 Y36.1517
G01 X-0.3312 Y36.1029
G01 X-0.3333 Y36.0784
G01 X-0.3348 Y36.0539
G01 X-0.4865 Y32.9664
G01 X-0.4874 Y32.9418
G01 X-0.4877 Y32.9173
G01 X-0.4877 Y32.8682
G01 X-0.4874 Y32.8437
G01 X-0.4865 Y32.8191
G01 X-0.3348 Y29.7316
G01 X-0.3333 Y29.7071
G01 X-0.3312 Y29.6826
G01 X-0.3264 Y29.6338
G01 X-0.3237 Y29.6094
G01 X-0.3204 Y29.5851
G01 X0.1332 Y26.5273
G01 X0.1371 Y26.5030
G01 X0.1416 Y26.4789
G01 X0.1512 Y26.4308
G01 X0.1562 Y26.4067
G01 X0.1619 Y26.3829
G01 X0.9130 Y23.3842
G01 X0.9193 Y23.3605
G01 X0.9261 Y23.3369
G01 X0.9404 Y23.2900
G01 X0.9478 Y23.2666
G01 X0.9558 Y23.2433
G01 X1.9972 Y20.3328
G01 X2.0057 Y20.3098
G01 X2.0149 Y20.2870
G01 X2.0336 Y20.2416
G01 X2.0433 Y20.2191
G01 X2.0535 Y20.1968
G01 X3.3752 Y17.4023
G01 X3.3860 Y17.3802
G01 X3.3973 Y17.3584
G01 X3.4204 Y17.3151
G01 X3.4323 Y17.2936
G01 X3.4446 Y17.2724
G01 X5.0338 Y14.6210
G01 X5.0467 Y14.6001
G01 X5.0601 Y14.5795
G01 X5.0874 Y14.5387
G01 X5.1013 Y14.5184
G01 X5.1156 Y14.4986
G01 X6.9571 Y12.0156
G01 X6.9720 Y11.9961
G01 X6.9873 Y11.9769
G01 X7.0185 Y11.9390
G01 X7.0343 Y11.9202
G01 X7.0505 Y11.9018
G01 X9.1265 Y9.6113
G01 X9.1432 Y9.5934
G01 X9.1603 Y9.5758
G01 X9.1950 Y9.5411
G01 X9.2126 Y9.5239
G01 X9.2306 Y9.5072
G01 X11.5211 Y7.4313
G01 X11.5395 Y7.4150
G01 X11.5582 Y7.3992
G01 X11.5962 Y7.3681
G01 X11.6153 Y7.3527
G01 X11.6349 Y7.3379
G01 X14.1178 Y5.4964
G01 X14.1377 Y5.4820
G01 X14.1579 Y5.4681
G01 X14.1988 Y5.4409
G01 X14.2193 Y5.4275
G01 X14.2402 Y5.4146
G01 X16.8917 Y3.8254
G01 X16.9129 Y3.8130
G01 X16.9344 Y3.8012
G01 X16.9777 Y3.7780
G01 X16.9995 Y3.7667
G01 X17.0215 Y3.7560
G01 X19.8160 Y2.4343
G01 X19.8383 Y2.4241
G01 X19.8609 Y2.4144
G01 X19.9062 Y2.3956
G01 X19.9290 Y2.3865
G01 X19.9520 Y2.3779
G01 X22.8626 Y1.3365
G01 X22.8858 Y1.3285
G01 X22.9092 Y1.3211
G01 X22.9562 Y1.3069
G01 X22.9798 Y1.3000
G01 X23.0035 Y1.2938
G01 X26.0021 Y0.5427
G01 X26.0260 Y0.5370
G01 X26.0500 Y0.5319
G01 X26.0982 Y0.5223
G01 X26.1223 Y0.5178
G01 X26.1465 Y0.5139
G01 X29.2043 Y0.0604
G01 X29.2286 Y0.0571
G01 X29.2530 Y0.0544
G01 X29.3019 Y0.0495
G01 X29.3263 Y0.0474
G01 X29.3508 Y0.0459
G01 X32.4384 Y-0.1058
G01 X32.4629 Y-0.1067
G01 X32.4875 Y-0.1070
G01 X32.5365 Y-0.1070
G01 X32.5611 Y-0.1067
G01 X32.5856 Y-0.1058
G01 X35.6732 Y0.0459
G01 X35.6977 Y0.0474
G01 X35.7221 Y0.0495
G01 X35.7710 Y0.0544
G01 X35.7954 Y0.0571
G01 X35.8197 Y0.0604
G01 X38.8775 Y0.5139
G01 X38.9017 Y0.5178
G01 X38.9258 Y0.5223
G01 X38.9740 Y0.5319
G01 X38.9980 Y0.5370
G01 X39.0219 Y0.5427
G01 X42.0205 Y1.2938
G01 X42.0442 Y1.3000
G01 X42.0678 Y1.3069
G01 X42.1148 Y1.3211
G01 X42.1382 Y1.3285
G01 X42.1614 Y1.3365
G01 X45.0720 Y2.3779
G01 X45.0950 Y2.3865
G01 X45.1178 Y2.3956
G01 X45.1631 Y2.4144
G01 X45.1857 Y2.4241
G01 X45.2080 Y2.4343
G01 X48.0025 Y3.7560
G01 X48.0245 Y3.7667
G01 X48.0463 Y3.7780
G01 X48.0896 Y3.8012
G01 X48.1111 Y3.8130
G01 X48.1323 Y3.8254
G01 X50.7838 Y5.4146
G01 X50.8047 Y5.4275
G01 X50.8252 Y5.4409
G01 X50.8661 Y5.4681
G01 X50.8863 Y5.4820
G01 X50.9062 Y5.4964
G01 X53.3891 Y7.3379
G01 X53.4087 Y7.3527
G01 X53.4278 Y7.3681
G01 X53.4658 Y7.3992
G01 X53.4845 Y7.4150
G01 X53.5029 Y7.4313
G01 X55.7934 Y9.5072
G01 X55.8114 Y9.5239
G01 X55.8290 Y9.5411
G01 X55.8637 Y9.5758
G01 X55.8808 Y9.5934
G01 X55.8975 Y9.6113
G01 X57.9735 Y11.9018
G01 X57.9897 Y11.9202
G01 X58.0055 Y11.9390
G01 X58.0367 Y11.9769
G01 X58.0520 Y11.9961
G01 X58.0669 Y12.0156
G01 X59.9084 Y14.4986
G01 X59.9227 Y14.5184
G01 X59.9366 Y14.5387
G01 X59.9639 Y14.5795
G01 X59.9773 Y14.6001
G01 X59.9902 Y14.6210
G01 X61.5794 Y17.2724
G01 X61.5917 Y17.2936
G01 X61.6036 Y17.3151
G01 X61.6267 Y17.3584
G01 X61.6380 Y17.3802
G01 X61.6488 Y17.4023
G01 X62.9705 Y20.1968
G01 X62.9807 Y20.2191
G01 X62.9904 Y20.2416
G01 X63.0091 Y20.2870
G01 X63.0183 Y20.3098
G01 X63.0268 Y20.3328
G01 X64.0682 Y23.2433
G01 X64.0762 Y23.2666
G01 X64.0836 Y23.2900
G01 X64.0979 Y23.3369
G01 X64.1047 Y23.3605
G01 X64.1110 Y23.3842
G01 X64.8621 Y26.3829
G01 X64.8678 Y26.4067
G01 X64.8728 Y26.4308
G01 X64.8824 Y26.4789
G01 X64.8869 Y26.5030
G01 X64.8908 Y26.5273
G01 X65.3444 Y29.5851
G01 X65.3477 Y29.6094
G01 X65.3504 Y29.6338
G01 X65.3552 Y29.6826
G01 X65.3573 Y29.7071
G01 X65.3588 Y29.7316
G01 X65.5105 Y32.8191
G01 X65.5114 Y32.8437
G01 X65.5117 Y32.8682
G01 X65.5117 Y32.9173
G01 X65.5114 Y32.9418
G01 X65.5105 Y32.9664
G01 X65.3588 Y36.0539
G01 X65.3573 Y36.0784
G01 X65.3552 Y36.1029
G01 X65.3504 Y36.1517
G01 X65.3477 Y36.1761
G01 X65.3444 Y36.2004
G01 X65.2843 Y36.6054
G01 X65.2856 Y36.6376
G01 X65.2859 Y36.6622
G01 X65.2856 Y36.6867
G01 X65.2847 Y36.7112
G01 X65.2808 Y36.7848
G01 X65.2787 Y36.8092
G01 X65.2760 Y36.8336
G01 X65.2727 Y36.8579
G01 X65.2616 Y36.9307
G01 X65.2571 Y36.9548
G01 X65.2520 Y36.9789
G01 X65.2463 Y37.0027
G01 X65.2282 Y37.0741
G01 X65.2213 Y37.0977
G01 X65.2139 Y37.1211
G01 X65.2033 Y37.1517
G01 X64.8908 Y39.2582
G01 X64.8869 Y39.2825
G01 X64.8824 Y39.3066
G01 X64.8728 Y39.3547
G01 X64.8678 Y39.3788
G01 X64.8621 Y39.4026
G01 X64.1110 Y42.4013
G01 X64.1047 Y42.4250
G01 X64.0979 Y42.4486
G01 X64.0836 Y42.4955
G01 X64.0762 Y42.5189
G01 X64.0682 Y42.5422
G01 X63.0268 Y45.4527
G01 X63.0183 Y45.4757
G01 X63.0091 Y45.4985
G01 X62.9904 Y45.5439
G01 X62.9807 Y45.5664
G01 X62.9705 Y45.5887
G01 X61.6488 Y48.3832
G01 X61.6380 Y48.4053
G01 X61.6267 Y48.4271
G01 X61.6036 Y48.4704
G01 X61.5917 Y48.4919
G01 X61.5794 Y48.5131
G01 X59.9902 Y51.1645
G01 X59.9773 Y51.1854
G01 X59.9639 Y51.2060
G01 X59.9366 Y51.2468
G01 X59.9227 Y51.2671
G01 X59.9084 Y51.2869
G01 X58.0669 Y53.7699
G01 X58.0520 Y53.7894
G01 X58.0367 Y53.8086
G01 X58.0055 Y53.8465
G01 X57.9897 Y53.8653
G01 X57.9735 Y53.8837
G01 X55.8975 Y56.1742
G01 X55.8808 Y56.1921
G01 X55.8637 Y56.2097
G01 X55.8290 Y56.2444
G01 X55.8114 Y56.2616
G01 X55.7934 Y56.2783
G01 X53.5029 Y58.3542
G01 X53.4845 Y58.3705
G01 X53.4658 Y58.3863
G01 X53.4278 Y58.4174
G01 X53.4087 Y58.4328
G01 X53.3891 Y58.4476
G01 X50.9062 Y60.2891
G01 X50.8863 Y60.3035
G01 X50.8661 Y60.3174
G01 X50.8252 Y60.3446
G01 X50.8047 Y60.3580
G01 X50.7838 Y60.3709
G01 X48.1323 Y61.9601
G01 X48.1111 Y61.9725
G01 X48.0896 Y61.9843
G01 X48.0463 Y62.0075
G01 X48.0245 Y62.0188
G01 X48.0025 Y62.0295
G01 X45.2080 Y63.3512
G01 X45.1857 Y63.3614
G01 X45.1631 Y63.3711
G01 X45.1178 Y63.3899
G01 X45.0950 Y63.3990
G01 X45.0720 Y63.4076
G01 X42.1614 Y64.4490
G01 X42.1382 Y64.4570
G01 X42.1148 Y64.4644
G01 X42.0678 Y64.4786
G01 X42.0442 Y64.4855
G01 X42.0205 Y64.4917
G01 X39.0219 Y65.2428
G01 X38.9980 Y65.2485
G01 X38.9740 Y65.2536
G01 X38.9258 Y65.2632
G01 X38.9017 Y65.2677
G01 X38.8775 Y65.2716
G01 X35.8197 Y65.7251
G01 X35.7954 Y65.7284
G01 X35.7710 Y65.7311
G01 X35.7221 Y65.7360
G01 X35.6977 Y65.7381
G01 X35.6732 Y65.7396
G01 X32.5856 Y65.8913
G01 X32.5611 Y65.8922
G01 X32.5365 Y65.8925
G01 X32.4875 Y65.8925
G01 X32.4629 Y65.8922
G01 X32.4384 Y65.8913
G01 X29.3508 Y65.7396
G01 X29.3263 Y65.7381
G01 X29.3019 Y65.7360
G01 X29.2530 Y65.7311
G01 X29.2286 Y65.7284
G01 X29.2043 Y65.7251
G01 X26.1465 Y65.2716
G01 X26.1223 Y65.2677
G01 X26.0982 Y65.2632
G01 X26.0500 Y65.2536
G01 X26.0260 Y65.2485
G01 X26.0021 Y65.2428
G01 X23.0035 Y64.4917
G01 X22.9798 Y64.4855
G01 X22.9562 Y64.4786
G01 X22.9092 Y64.4644
G01 X22.8858 Y64.4570
G01 X22.8626 Y64.4490
G01 X19.9520 Y63.4076
G01 X19.9290 Y63.3990
G01 X19.9062 Y63.3899
G01 X19.8609 Y63.3711
G01 X19.8383 Y63.3614
G01 X19.8160 Y63.3512
G01 X17.0215 Y62.0295
G01 X16.9995 Y62.0188
G01 X16.9777 Y62.0075
G01 X16.9344 Y61.9843
G01 X16.9129 Y61.9725
G01 X16.8917 Y61.9601
G01 X14.2402 Y60.3709
G01 X14.2193 Y60.3580
G01 X14.1988 Y60.3446
G01 X14.1579 Y60.3174
G01 X14.1377 Y60.3035
G01 X14.1178 Y60.2891
G01 X13.4220 Y59.7730
G01 X13.3483 Y59.7379
G01 X13.3265 Y59.7266
G01 X13.3050 Y59.7148
G01 X13.2417 Y59.6772
G01 X13.2208 Y59.6643
G01 X13.2002 Y59.6510
G01 X13.1799 Y59.6371
G01 X13.1601 Y59.6227
G01 X13.1206 Y59.5934
G01 X13.1011 Y59.5786
G01 X13.0819 Y59.5632
G01 X13.0632 Y59.5474
G01 X13.0448 Y59.5312
G01 X13.0084 Y59.4982
G01 X12.9904 Y59.4815
G01 X12.9728 Y59.4644
G01 X12.9557 Y59.4468
G01 X12.9007 Y59.3865
G01 X11.6349 Y58.4476
G01 X11.6153 Y58.4328
G01 X11.5962 Y58.4174
G01 X11.5582 Y58.3863
G01 X11.5395 Y58.3705
G01 X11.5211 Y58.3542
G01 X9.2306 Y56.2783
G01 X9.2126 Y56.2616
G01 X9.1950 Y56.2444
G01 X9.1603 Y56.2097
G01 X9.1432 Y56.1921
G01 X9.1265 Y56.1742
G01 X7.0505 Y53.8837
G01 X7.0343 Y53.8653
G01 X7.0185 Y53.8465
G01 X6.9873 Y53.8086
G01 X6.9720 Y53.7894
G01 X6.9571 Y53.7699
G01 X5.5208 Y51.8333
G01 X5.4931 Y51.8054
G01 X5.4434 Y51.7510
G01 X5.4272 Y51.7326
G01 X5.4114 Y51.7139
G01 X5.3960 Y51.6947
G01 X5.3812 Y51.6752
G01 X5.3376 Y51.6159
G01 X5.3237 Y51.5956
G01 X5.3103 Y51.5750
G01 X5.2722 Y51.5120
G01 X5.2598 Y51.4908
G01 X5.2412 Y51.4562
G00 Z2.0000
M05
G00 Z2.0000
G00 Z15.00


