(G-CODE GENERATED BY FLATCAM v8.994 - www.flatcam.org - Version Date: 2020/11/7)

(Name: Drill_PTH_Through.DRL_cnc)
(Type: G-code from Geometry)
(Units: MM)

(Created on Friday, 28 March 2025 at 14:31)

(This preprocessor is used with a motion controller loaded with GRBL firmware.)
(It is configured to be compatible with almost any version of GRBL firmware.)


(TOOLS DIAMETER: )
(Tool: 1 -> Dia: 0.9)
(Tool: 2 -> Dia: 0.901)
(Tool: 3 -> Dia: 0.915)
(Tool: 4 -> Dia: 1.0)
(Tool: 5 -> Dia: 1.101)

(FEEDRATE Z: )
(Tool: 1 -> Feedrate: 250.0)
(Tool: 2 -> Feedrate: 250.0)
(Tool: 3 -> Feedrate: 250.0)
(Tool: 4 -> Feedrate: 250.0)
(Tool: 5 -> Feedrate: 250.0)

(FEEDRATE RAPIDS: )
(Tool: 1 -> Feedrate Rapids: 1500)
(Tool: 2 -> Feedrate Rapids: 1500)
(Tool: 3 -> Feedrate Rapids: 1500)
(Tool: 4 -> Feedrate Rapids: 1500)
(Tool: 5 -> Feedrate Rapids: 1500)

(Z_CUT: )
(Tool: 1 -> Z_Cut: -2.0)
(Tool: 2 -> Z_Cut: -2.0)
(Tool: 3 -> Z_Cut: -2.0)
(Tool: 4 -> Z_Cut: -2.0)
(Tool: 5 -> Z_Cut: -2.0)

(Tools Offset: )
(Tool: 5 -> Offset Z: 0.0)
(Tool: 4 -> Offset Z: 0.0)
(Tool: 3 -> Offset Z: 0.0)
(Tool: 1 -> Offset Z: 0.0)
(Tool: 2 -> Offset Z: 0.0)

(Z_MOVE: )
(Tool: 1 -> Z_Move: 2)
(Tool: 2 -> Z_Move: 2)
(Tool: 3 -> Z_Move: 2)
(Tool: 4 -> Z_Move: 2)
(Tool: 5 -> Z_Move: 2)

(Z Toolchange: 15 mm)
(X,Y Toolchange: 0.0000, 0.0000 mm)
(Z Start: None mm)
(Z End: 0.5 mm)
(X,Y End: None mm)
(Steps per circle: 64)
(Steps per circle: 64)
(Preprocessor Excellon: grbl_11)

(X range:    3.1055 ...   61.9185  mm)
(Y range:    3.4865 ...   62.2995  mm)

(Spindle Speed: 24000 RPM)
G21
G90
G17
G94


G01 F250.00

M5             
G00 Z15.0000
G00 X0.0000 Y0.0000                
T1
M6
(MSG, Change to Tool Dia = 0.9000 ||| Total drills for tool T1 = 62)
M0
G00 Z15.0000

G01 F250.00
M03 S24000
G00 X49.7840 Y19.8120
G01 Z-2.0000
G01 Z0
G00 Z2.0000
G00 X49.7840 Y19.8120
G01 Z-2.0000
G01 Z0
G00 Z2.0000
G00 X53.4670 Y19.8120
G01 Z-2.0000
G01 Z0
G00 Z2.0000
G00 X56.8960 Y17.3150
G01 Z-2.0000
G01 Z0
G00 Z2.0000
G00 X58.1660 Y19.5150
G01 Z-2.0000
G01 Z0
G00 Z2.0000
G00 X57.0230 Y22.1380
G01 Z-2.0000
G01 Z0
G00 Z2.0000
G00 X57.0230 Y27.1380
G01 Z-2.0000
G01 Z0
G00 Z2.0000
G00 X53.4670 Y27.4320
G01 Z-2.0000
G01 Z0
G00 Z2.0000
G00 X49.7840 Y27.4320
G01 Z-2.0000
G01 Z0
G00 Z2.0000
G00 X50.9270 Y31.7370
G01 Z-2.0000
G01 Z0
G00 Z2.0000
G00 X53.4670 Y31.7370
G01 Z-2.0000
G01 Z0
G00 Z2.0000
G00 X56.0070 Y31.7370
G01 Z-2.0000
G01 Z0
G00 Z2.0000
G00 X58.5470 Y31.7370
G01 Z-2.0000
G01 Z0
G00 Z2.0000
G00 X61.4680 Y31.6230
G01 Z-2.0000
G01 Z0
G00 Z2.0000
G00 X61.4680 Y34.1630
G01 Z-2.0000
G01 Z0
G00 Z2.0000
G00 X58.5470 Y39.6370
G01 Z-2.0000
G01 Z0
G00 Z2.0000
G00 X56.0070 Y39.6370
G01 Z-2.0000
G01 Z0
G00 Z2.0000
G00 X53.4670 Y39.6370
G01 Z-2.0000
G01 Z0
G00 Z2.0000
G00 X50.9270 Y39.6370
G01 Z-2.0000
G01 Z0
G00 Z2.0000
G00 X58.2930 Y46.2710
G01 Z-2.0000
G01 Z0
G00 Z2.0000
G00 X57.0230 Y48.4710
G01 Z-2.0000
G01 Z0
G00 Z2.0000
G00 X48.2170 Y57.4040
G01 Z-2.0000
G01 Z0
G00 Z2.0000
G00 X46.0170 Y58.6740
G01 Z-2.0000
G01 Z0
G00 Z2.0000
G00 X39.1160 Y54.4830
G01 Z-2.0000
G01 Z0
G00 Z2.0000
G00 X39.1160 Y50.2920
G01 Z-2.0000
G01 Z0
G00 Z2.0000
G00 X34.0360 Y54.4830
G01 Z-2.0000
G01 Z0
G00 Z2.0000
G00 X31.4960 Y54.4830
G01 Z-2.0000
G01 Z0
G00 Z2.0000
G00 X31.2420 Y61.8490
G01 Z-2.0000
G01 Z0
G00 Z2.0000
G00 X33.7820 Y61.8490
G01 Z-2.0000
G01 Z0
G00 Z2.0000
G00 X19.1340 Y58.6740
G01 Z-2.0000
G01 Z0
G00 Z2.0000
G00 X16.9340 Y57.4040
G01 Z-2.0000
G01 Z0
G00 Z2.0000
G00 X13.9700 Y45.4000
G01 Z-2.0000
G01 Z0
G00 Z2.0000
G00 X13.9700 Y43.4470
G01 Z-2.0000
G01 Z0
G00 Z2.0000
G00 X11.4300 Y43.4470
G01 Z-2.0000
G01 Z0
G00 Z2.0000
G00 X8.8900 Y43.4470
G01 Z-2.0000
G01 Z0
G00 Z2.0000
G00 X6.3500 Y43.4470
G01 Z-2.0000
G01 Z0
G00 Z2.0000
G00 X6.7310 Y46.2710
G01 Z-2.0000
G01 Z0
G00 Z2.0000
G00 X8.0010 Y48.4710
G01 Z-2.0000
G01 Z0
G00 Z2.0000
G00 X8.8900 Y35.5470
G01 Z-2.0000
G01 Z0
G00 Z2.0000
G00 X6.3500 Y35.5470
G01 Z-2.0000
G01 Z0
G00 Z2.0000
G00 X6.3500 Y33.5890
G01 Z-2.0000
G01 Z0
G00 Z2.0000
G00 X3.5560 Y34.1630
G01 Z-2.0000
G01 Z0
G00 Z2.0000
G00 X3.5560 Y31.6230
G01 Z-2.0000
G01 Z0
G00 Z2.0000
G00 X8.0010 Y30.9880
G01 Z-2.0000
G01 Z0
G00 Z2.0000
G00 X11.1760 Y31.0750
G01 Z-2.0000
G01 Z0
G00 Z2.0000
G00 X13.4620 Y31.2420
G01 Z-2.0000
G01 Z0
G00 Z2.0000
G00 X13.9700 Y35.5470
G01 Z-2.0000
G01 Z0
G00 Z2.0000
G00 X11.4300 Y35.5470
G01 Z-2.0000
G01 Z0
G00 Z2.0000
G00 X11.1760 Y26.0750
G01 Z-2.0000
G01 Z0
G00 Z2.0000
G00 X13.4620 Y23.6220
G01 Z-2.0000
G01 Z0
G00 Z2.0000
G00 X8.0010 Y23.3680
G01 Z-2.0000
G01 Z0
G00 Z2.0000
G00 X6.7310 Y19.5150
G01 Z-2.0000
G01 Z0
G00 Z2.0000
G00 X8.0010 Y17.3150
G01 Z-2.0000
G01 Z0
G00 Z2.0000
G00 X17.0610 Y8.5090
G01 Z-2.0000
G01 Z0
G00 Z2.0000
G00 X19.2610 Y7.2390
G01 Z-2.0000
G01 Z0
G00 Z2.0000
G00 X30.4800 Y9.3980
G01 Z-2.0000
G01 Z0
G00 Z2.0000
G00 X33.0200 Y9.3980
G01 Z-2.0000
G01 Z0
G00 Z2.0000
G00 X33.0200 Y13.5890
G01 Z-2.0000
G01 Z0
G00 Z2.0000
G00 X30.4800 Y13.5890
G01 Z-2.0000
G01 Z0
G00 Z2.0000
G00 X31.2420 Y3.9370
G01 Z-2.0000
G01 Z0
G00 Z2.0000
G00 X33.7820 Y3.9370
G01 Z-2.0000
G01 Z0
G00 Z2.0000
G00 X45.8900 Y7.1120
G01 Z-2.0000
G01 Z0
G00 Z2.0000
G00 X48.0900 Y8.3820
G01 Z-2.0000
G01 Z0
G00 Z2.0000
M05
G00 Z0.50


