(G-CODE GENERATED BY FLATCAM v8.994 - www.flatcam.org - Version Date: 2020/11/7)

(Name: Gerber_TopLayer.GTL_iso_combined_cnc)
(Type: G-code from Geometry)
(Units: MM)

(Created on Friday, 28 March 2025 at 14:28)

(This preprocessor is the default preprocessor used by FlatCAM.)
(It is made to work with MACH3 compatible motion controllers.)

(TOOL DIAMETER: 0.2 mm)
(Feedrate_XY: 300.0 mm/min)
(Feedrate_Z: 60.0 mm/min)
(Feedrate rapids 1500.0 mm/min)

(Z_Cut: 0.0 mm)
(Z_Move: 2.0 mm)
(Z Start: None mm)
(Z End: 15.0 mm)
(X,Y End: None mm)
(Steps per circle: 64)
(Preprocessor Geometry: default)

(X range:    0.4123 ...   64.6117  mm)
(Y range:    0.7930 ...   64.9925  mm)

(Spindle Speed: 24000.0 RPM)
G21
G90
G94

G01 F300.00

M5
G00 Z15.0000
G00 X0.0000 Y0.0000
T1
M6    
(MSG, Change to Tool Dia = 0.2000)
M0
G00 Z15.0000

M03 S24000.0
G01 F300.00
G00 X8.0741 Y16.3932
G01 F60.00
G01 Z0.0000
G01 F300.00
G01 X16.1582 Y8.3091
G01 X16.1755 Y8.2403
G01 X16.2061 Y8.1548
G01 X16.2450 Y8.0727
G01 X16.2890 Y7.9990
G01 X16.2945 Y7.9908
G01 X16.3427 Y7.9257
G01 X16.3490 Y7.9182
G01 X16.4068 Y7.8546
G01 X16.4722 Y7.7952
G01 X16.4779 Y7.7906
G01 X16.5470 Y7.7395
G01 X16.6249 Y7.6928
G01 X16.7070 Y7.6539
G01 X16.7925 Y7.6234
G01 X16.8806 Y7.6013
G01 X16.9705 Y7.5880
G01 X17.0612 Y7.5835
G01 X17.1519 Y7.5880
G01 X17.2417 Y7.6013
G01 X17.3298 Y7.6234
G01 X17.4154 Y7.6539
G01 X17.4975 Y7.6928
G01 X17.5754 Y7.7395
G01 X17.6483 Y7.7936
G01 X17.7156 Y7.8546
G01 X17.7750 Y7.9200
G01 X17.7796 Y7.9257
G01 X17.8307 Y7.9948
G01 X17.8774 Y8.0727
G01 X17.9162 Y8.1548
G01 X17.9453 Y8.2357
G01 X17.9481 Y8.2451
G01 X17.9689 Y8.3284
G01 X17.9816 Y8.4134
G01 X17.9826 Y8.4232
G01 X17.9866 Y8.5041
G01 X17.9866 Y8.5139
G01 X17.9822 Y8.5997
G01 X17.9689 Y8.6896
G01 X17.9468 Y8.7777
G01 X17.9162 Y8.8632
G01 X17.8774 Y8.9453
G01 X17.8307 Y9.0232
G01 X17.7766 Y9.0961
G01 X17.7173 Y9.1617
G01 X17.6520 Y9.2212
G01 X17.6445 Y9.2274
G01 X17.5754 Y9.2785
G01 X17.4975 Y9.3252
G01 X17.4199 Y9.3621
G01 X17.4108 Y9.3658
G01 X17.3298 Y9.3946
G01 X17.2465 Y9.4156
G01 X17.2369 Y9.4176
G01 X17.1568 Y9.4294
G01 X17.1470 Y9.4304
G01 X17.0612 Y9.4345
G01 X16.9754 Y9.4304
G01 X16.9656 Y9.4294
G01 X16.8806 Y9.4167
G01 X16.7949 Y9.3953
G01 X16.7761 Y9.3889
G01 X8.9230 Y17.2420
G01 X8.9265 Y17.3152
G01 X8.9224 Y17.4010
G01 X8.9214 Y17.4108
G01 X8.9096 Y17.4909
G01 X8.9076 Y17.5005
G01 X8.8866 Y17.5838
G01 X8.8578 Y17.6648
G01 X8.8541 Y17.6738
G01 X8.8172 Y17.7515
G01 X8.7705 Y17.8294
G01 X8.7164 Y17.9023
G01 X8.6554 Y17.9696
G01 X8.5881 Y18.0306
G01 X8.5152 Y18.0847
G01 X8.4373 Y18.1314
G01 X8.3597 Y18.1682
G01 X8.3506 Y18.1720
G01 X8.2743 Y18.1993
G01 X8.2649 Y18.2021
G01 X8.1816 Y18.2229
G01 X8.0966 Y18.2356
G01 X8.0868 Y18.2366
G01 X8.0010 Y18.2407
G01 X7.9103 Y18.2362
G01 X7.8204 Y18.2229
G01 X7.7323 Y18.2008
G01 X7.6468 Y18.1702
G01 X7.5647 Y18.1314
G01 X7.4868 Y18.0847
G01 X7.4139 Y18.0306
G01 X7.3466 Y17.9696
G01 X7.2856 Y17.9023
G01 X7.2315 Y17.8294
G01 X7.1848 Y17.7515
G01 X7.1459 Y17.6694
G01 X7.1154 Y17.5838
G01 X7.0933 Y17.4957
G01 X7.0800 Y17.4059
G01 X7.0755 Y17.3152
G01 X7.0800 Y17.2245
G01 X7.0933 Y17.1346
G01 X7.1154 Y17.0465
G01 X7.1459 Y16.9610
G01 X7.1848 Y16.8789
G01 X7.2315 Y16.8010
G01 X7.2856 Y16.7280
G01 X7.3466 Y16.6608
G01 X7.4139 Y16.5998
G01 X7.4868 Y16.5457
G01 X7.5647 Y16.4990
G01 X7.6468 Y16.4601
G01 X7.7323 Y16.4295
G01 X7.8204 Y16.4075
G01 X7.9103 Y16.3941
G01 X8.0010 Y16.3897
G01 X8.0741 Y16.3932
G00 Z2.0000
G00 X8.8490 Y22.7677
G01 F60.00
G01 Z0.0000
G01 F300.00
G01 X12.8702 Y22.7677
G01 X12.8823 Y22.7588
G01 X12.8885 Y22.7548
G01 X12.9676 Y22.7074
G01 X12.9762 Y22.7028
G01 X13.0641 Y22.6614
G01 X13.1602 Y22.6270
G01 X13.2544 Y22.6033
G01 X13.2640 Y22.6013
G01 X13.3601 Y22.5872
G01 X13.4595 Y22.5822
G01 X13.4669 Y22.5823
G01 X13.5639 Y22.5872
G01 X13.6600 Y22.6013
G01 X13.6696 Y22.6033
G01 X13.7591 Y22.6257
G01 X13.7685 Y22.6285
G01 X13.8599 Y22.6614
G01 X13.9478 Y22.7028
G01 X13.9564 Y22.7074
G01 X14.0397 Y22.7574
G01 X14.1216 Y22.8182
G01 X14.1972 Y22.8868
G01 X14.2658 Y22.9624
G01 X14.3266 Y23.0443
G01 X14.3790 Y23.1318
G01 X14.4226 Y23.2241
G01 X14.4555 Y23.3155
G01 X14.4577 Y23.3225
G01 X14.4818 Y23.4191
G01 X14.4968 Y23.5201
G01 X14.5018 Y23.6220
G01 X14.4972 Y23.7190
G01 X14.4965 Y23.7264
G01 X14.4818 Y23.8249
G01 X14.4583 Y23.9191
G01 X14.4563 Y23.9262
G01 X14.4244 Y24.0153
G01 X14.4217 Y24.0222
G01 X14.3790 Y24.1122
G01 X14.3469 Y24.1660
G01 X16.1758 Y25.9951
G01 X16.2120 Y26.0352
G01 X16.2471 Y26.0825
G01 X16.2774 Y26.1330
G01 X16.3006 Y26.1818
G01 X16.3043 Y26.1909
G01 X16.3209 Y26.2371
G01 X16.3237 Y26.2465
G01 X16.3367 Y26.2989
G01 X16.3451 Y26.3547
G01 X16.3457 Y26.3621
G01 X16.3483 Y26.4160
G01 X16.3483 Y38.7350
G01 X16.3457 Y38.7889
G01 X16.3448 Y38.7987
G01 X16.3367 Y38.8521
G01 X16.3231 Y38.9069
G01 X16.3209 Y38.9139
G01 X16.3026 Y38.9647
G01 X16.2796 Y39.0136
G01 X16.2750 Y39.0222
G01 X16.2471 Y39.0685
G01 X16.2150 Y39.1119
G01 X16.2088 Y39.1195
G01 X16.1742 Y39.1577
G01 X15.4087 Y39.9232
G01 X15.3668 Y39.9610
G01 X15.3235 Y39.9933
G01 X15.3153 Y39.9987
G01 X15.2690 Y40.0264
G01 X15.2157 Y40.0516
G01 X15.1602 Y40.0714
G01 X15.1031 Y40.0857
G01 X15.0497 Y40.0938
G01 X15.0399 Y40.0947
G01 X14.9860 Y40.0973
G01 X14.0916 Y40.0973
G01 X12.0303 Y42.1586
G01 X12.0303 Y42.7775
G01 X12.0682 Y42.8122
G01 X12.1242 Y42.8741
G01 X12.1756 Y42.9429
G01 X12.1797 Y42.9489
G01 X12.2214 Y43.0184
G01 X12.2260 Y43.0270
G01 X12.2616 Y43.1025
G01 X12.2906 Y43.1833
G01 X12.2927 Y43.1904
G01 X12.3128 Y43.2713
G01 X12.3252 Y43.3539
G01 X12.3261 Y43.3636
G01 X12.3301 Y43.4469
G01 X12.3261 Y43.5303
G01 X12.3252 Y43.5400
G01 X12.3123 Y43.6250
G01 X12.2913 Y43.7082
G01 X12.2634 Y43.7868
G01 X12.2596 Y43.7959
G01 X12.2260 Y43.8669
G01 X12.2214 Y43.8755
G01 X12.1784 Y43.9470
G01 X12.1258 Y44.0180
G01 X12.0665 Y44.0834
G01 X12.0047 Y44.1395
G01 X11.9971 Y44.1458
G01 X11.9341 Y44.1925
G01 X11.9259 Y44.1980
G01 X11.8543 Y44.2408
G01 X11.7745 Y44.2785
G01 X11.6959 Y44.3068
G01 X11.6866 Y44.3096
G01 X11.6056 Y44.3298
G01 X11.5207 Y44.3424
G01 X11.5133 Y44.3431
G01 X11.4300 Y44.3470
G01 X11.3418 Y44.3427
G01 X11.2544 Y44.3298
G01 X11.1734 Y44.3096
G01 X11.1641 Y44.3068
G01 X11.0901 Y44.2803
G01 X11.0811 Y44.2765
G01 X11.0057 Y44.2408
G01 X10.9341 Y44.1980
G01 X10.9259 Y44.1925
G01 X10.8590 Y44.1427
G01 X10.7935 Y44.0834
G01 X10.7342 Y44.0180
G01 X10.6816 Y43.9470
G01 X10.6362 Y43.8713
G01 X10.5984 Y43.7914
G01 X10.5687 Y43.7082
G01 X10.5477 Y43.6250
G01 X10.5464 Y43.6177
G01 X10.5342 Y43.5352
G01 X10.5300 Y43.4519
G01 X10.5300 Y43.4420
G01 X10.5342 Y43.3587
G01 X10.5464 Y43.2762
G01 X10.5483 Y43.2666
G01 X10.5694 Y43.1833
G01 X10.5966 Y43.1071
G01 X10.6004 Y43.0980
G01 X10.6362 Y43.0226
G01 X10.6803 Y42.9489
G01 X10.7312 Y42.8798
G01 X10.7358 Y42.8741
G01 X10.7918 Y42.8122
G01 X10.8297 Y42.7775
G01 X10.8297 Y41.9100
G01 X10.8324 Y41.8536
G01 X10.8332 Y41.8463
G01 X10.8413 Y41.7929
G01 X10.8543 Y41.7405
G01 X10.8571 Y41.7311
G01 X10.8754 Y41.6803
G01 X10.8984 Y41.6314
G01 X10.9030 Y41.6228
G01 X10.9296 Y41.5786
G01 X10.9337 Y41.5725
G01 X10.9660 Y41.5292
G01 X11.0056 Y41.4856
G01 X13.4186 Y39.0726
G01 X13.4622 Y39.0330
G01 X13.5055 Y39.0007
G01 X13.5137 Y38.9953
G01 X13.5600 Y38.9676
G01 X13.6088 Y38.9444
G01 X13.6179 Y38.9407
G01 X13.6688 Y38.9226
G01 X13.7211 Y38.9094
G01 X13.7307 Y38.9074
G01 X13.7866 Y38.8994
G01 X13.8430 Y38.8967
G01 X14.7374 Y38.8967
G01 X15.1477 Y38.4864
G01 X15.1477 Y26.6646
G01 X13.0669 Y24.5837
G01 X13.0596 Y24.5807
G01 X12.9718 Y24.5390
G01 X12.8843 Y24.4866
G01 X12.8024 Y24.4258
G01 X12.7268 Y24.3572
G01 X12.6582 Y24.2816
G01 X12.6003 Y24.2037
G01 X12.5961 Y24.1976
G01 X12.5474 Y24.1164
G01 X12.5438 Y24.1100
G01 X12.5023 Y24.0222
G01 X12.4827 Y23.9683
G01 X8.8490 Y23.9683
G01 X8.8048 Y24.0276
G01 X8.7396 Y24.0997
G01 X8.7327 Y24.1066
G01 X8.6625 Y24.1702
G01 X8.6568 Y24.1748
G01 X8.5787 Y24.2326
G01 X8.4954 Y24.2826
G01 X8.4890 Y24.2862
G01 X8.4034 Y24.3267
G01 X8.3943 Y24.3304
G01 X8.3028 Y24.3630
G01 X8.2086 Y24.3867
G01 X8.1990 Y24.3887
G01 X8.1029 Y24.4028
G01 X8.0010 Y24.4078
G01 X7.9040 Y24.4032
G01 X7.8942 Y24.4022
G01 X7.7981 Y24.3878
G01 X7.7039 Y24.3643
G01 X7.6945 Y24.3615
G01 X7.6031 Y24.3286
G01 X7.5108 Y24.2850
G01 X7.4233 Y24.2326
G01 X7.3452 Y24.1748
G01 X7.3376 Y24.1686
G01 X7.2658 Y24.1032
G01 X7.2004 Y24.0314
G01 X7.1942 Y24.0238
G01 X7.1378 Y23.9477
G01 X7.1338 Y23.9415
G01 X7.0840 Y23.8582
G01 X7.0404 Y23.7659
G01 X7.0060 Y23.6698
G01 X6.9812 Y23.5709
G01 X6.9662 Y23.4699
G01 X6.9612 Y23.3680
G01 X6.9662 Y23.2661
G01 X6.9812 Y23.1651
G01 X7.0060 Y23.0662
G01 X7.0404 Y22.9701
G01 X7.0840 Y22.8778
G01 X7.1364 Y22.7903
G01 X7.1972 Y22.7084
G01 X7.2658 Y22.6328
G01 X7.3414 Y22.5642
G01 X7.4213 Y22.5048
G01 X7.4275 Y22.5008
G01 X7.5108 Y22.4510
G01 X7.6031 Y22.4074
G01 X7.6992 Y22.3730
G01 X7.7981 Y22.3482
G01 X7.8991 Y22.3332
G01 X8.0010 Y22.3282
G01 X8.1029 Y22.3332
G01 X8.2014 Y22.3477
G01 X8.2086 Y22.3493
G01 X8.3028 Y22.3730
G01 X8.3989 Y22.4074
G01 X8.4912 Y22.4510
G01 X8.5766 Y22.5021
G01 X8.5827 Y22.5063
G01 X8.6606 Y22.5642
G01 X8.7345 Y22.6310
G01 X8.7396 Y22.6363
G01 X8.8048 Y22.7084
G01 X8.8490 Y22.7677
G00 Z2.0000
G00 X2.9557 Y30.9193
G01 F60.00
G01 Z0.0000
G01 F300.00
G01 X2.9557 Y24.7650
G01 X2.9586 Y24.7062
G01 X2.9664 Y24.6527
G01 X2.9684 Y24.6431
G01 X2.9823 Y24.5884
G01 X3.0014 Y24.5353
G01 X3.0266 Y24.4820
G01 X3.0569 Y24.4315
G01 X3.0890 Y24.3881
G01 X3.0952 Y24.3805
G01 X3.1316 Y24.3406
G01 X3.8447 Y23.6274
G01 X3.8447 Y22.0980
G01 X3.8473 Y22.0441
G01 X3.8482 Y22.0343
G01 X3.8563 Y21.9809
G01 X3.8693 Y21.9285
G01 X3.8721 Y21.9191
G01 X3.8904 Y21.8683
G01 X3.9134 Y21.8194
G01 X3.9180 Y21.8108
G01 X3.9459 Y21.7645
G01 X3.9810 Y21.7172
G01 X4.0206 Y21.6736
G01 X5.8625 Y19.8317
G01 X5.8447 Y19.7811
G01 X5.8238 Y19.6978
G01 X5.8224 Y19.6905
G01 X5.8097 Y19.6031
G01 X5.8055 Y19.5148
G01 X5.8096 Y19.4290
G01 X5.8106 Y19.4192
G01 X5.8238 Y19.3319
G01 X5.8454 Y19.2462
G01 X5.8742 Y19.1652
G01 X5.8779 Y19.1561
G01 X5.9148 Y19.0785
G01 X5.9588 Y19.0048
G01 X5.9643 Y18.9966
G01 X6.0156 Y18.9277
G01 X6.0749 Y18.8621
G01 X6.1402 Y18.8026
G01 X6.1477 Y18.7964
G01 X6.2168 Y18.7453
G01 X6.2905 Y18.7010
G01 X6.2991 Y18.6964
G01 X6.3768 Y18.6598
G01 X6.4577 Y18.6307
G01 X6.4671 Y18.6279
G01 X6.5504 Y18.6071
G01 X6.6354 Y18.5944
G01 X6.6452 Y18.5934
G01 X6.7310 Y18.5893
G01 X6.8217 Y18.5938
G01 X6.9067 Y18.6063
G01 X6.9163 Y18.6082
G01 X7.0020 Y18.6299
G01 X7.0852 Y18.6598
G01 X7.1673 Y18.6986
G01 X7.2452 Y18.7453
G01 X7.3143 Y18.7964
G01 X7.3218 Y18.8026
G01 X7.3854 Y18.8604
G01 X7.4432 Y18.9240
G01 X7.4494 Y18.9315
G01 X7.4977 Y18.9966
G01 X7.5032 Y19.0048
G01 X7.5472 Y19.0785
G01 X7.5841 Y19.1561
G01 X7.5878 Y19.1652
G01 X7.6166 Y19.2462
G01 X7.6387 Y19.3343
G01 X7.6520 Y19.4241
G01 X7.6565 Y19.5148
G01 X7.6520 Y19.6055
G01 X7.6387 Y19.6954
G01 X7.6166 Y19.7835
G01 X7.5878 Y19.8644
G01 X7.5851 Y19.8712
G01 X7.5472 Y19.9511
G01 X7.5005 Y20.0290
G01 X7.4464 Y20.1019
G01 X7.3888 Y20.1657
G01 X7.3837 Y20.1710
G01 X7.3218 Y20.2270
G01 X7.3143 Y20.2333
G01 X7.2452 Y20.2843
G01 X7.1715 Y20.3286
G01 X7.1629 Y20.3332
G01 X7.0852 Y20.3699
G01 X7.0043 Y20.3989
G01 X6.9885 Y20.4034
G01 X5.0453 Y22.3466
G01 X5.0452 Y23.8785
G01 X5.0424 Y23.9348
G01 X5.0346 Y23.9883
G01 X5.0326 Y23.9979
G01 X5.0187 Y24.0526
G01 X4.9996 Y24.1057
G01 X4.9744 Y24.1590
G01 X4.9441 Y24.2095
G01 X4.9120 Y24.2529
G01 X4.9058 Y24.2605
G01 X4.8694 Y24.3004
G01 X4.1563 Y25.0136
G01 X4.1563 Y30.9193
G01 X4.2104 Y30.9686
G01 X4.2682 Y31.0322
G01 X4.2744 Y31.0397
G01 X4.3227 Y31.1048
G01 X4.3282 Y31.1130
G01 X4.3722 Y31.1867
G01 X4.4091 Y31.2643
G01 X4.4128 Y31.2734
G01 X4.4416 Y31.3543
G01 X4.4637 Y31.4424
G01 X4.4770 Y31.5323
G01 X4.4815 Y31.6230
G01 X4.4770 Y31.7137
G01 X4.4646 Y31.7987
G01 X4.4626 Y31.8083
G01 X4.4416 Y31.8917
G01 X4.4128 Y31.9726
G01 X4.4091 Y31.9817
G01 X4.3744 Y32.0549
G01 X4.3698 Y32.0635
G01 X4.3255 Y32.1372
G01 X4.2714 Y32.2101
G01 X4.2104 Y32.2774
G01 X4.1431 Y32.3384
G01 X4.0702 Y32.3925
G01 X3.9923 Y32.4392
G01 X3.9102 Y32.4781
G01 X3.8247 Y32.5086
G01 X3.7366 Y32.5307
G01 X3.6467 Y32.5440
G01 X3.5560 Y32.5485
G01 X3.4653 Y32.5440
G01 X3.3754 Y32.5307
G01 X3.2873 Y32.5086
G01 X3.2018 Y32.4781
G01 X3.1197 Y32.4392
G01 X3.0418 Y32.3925
G01 X2.9689 Y32.3384
G01 X2.9016 Y32.2774
G01 X2.8406 Y32.2101
G01 X2.7865 Y32.1372
G01 X2.7398 Y32.0593
G01 X2.7009 Y31.9772
G01 X2.6704 Y31.8917
G01 X2.6483 Y31.8036
G01 X2.6350 Y31.7137
G01 X2.6305 Y31.6230
G01 X2.6350 Y31.5323
G01 X2.6483 Y31.4424
G01 X2.6704 Y31.3543
G01 X2.7009 Y31.2688
G01 X2.7398 Y31.1867
G01 X2.7865 Y31.1088
G01 X2.8406 Y31.0359
G01 X2.9016 Y30.9686
G01 X2.9557 Y30.9193
G00 Z2.0000
G00 X3.5560 Y33.1787
G01 F60.00
G01 Z0.0000
G01 F300.00
G01 X3.6846 Y33.1874
G01 X3.8105 Y33.2123
G01 X3.9327 Y33.2538
G01 X4.0478 Y33.3105
G01 X4.1548 Y33.3824
G01 X4.2517 Y33.4673
G01 X4.3366 Y33.5642
G01 X4.4086 Y33.6712
G01 X4.4652 Y33.7863
G01 X4.5067 Y33.9085
G01 X4.5316 Y34.0344
G01 X4.5403 Y34.1630
G01 X4.5316 Y34.2916
G01 X4.5067 Y34.4175
G01 X4.4652 Y34.5397
G01 X4.4085 Y34.6548
G01 X4.3366 Y34.7619
G01 X4.2650 Y34.8441
G01 X4.2603 Y34.8498
G01 X4.2549 Y34.8579
G01 X4.2337 Y34.8931
G01 X4.2294 Y34.9018
G01 X4.2269 Y34.9086
G01 X4.2248 Y34.9156
G01 X4.2232 Y34.9227
G01 X4.2162 Y34.9614
G01 X4.2151 Y34.9716
G01 X4.2151 Y39.6354
G01 X4.2157 Y39.6426
G01 X4.2201 Y39.6729
G01 X4.2229 Y39.6860
G01 X4.9430 Y42.2052
G01 X5.4567 Y43.5524
G01 X5.4672 Y43.6226
G01 X5.4873 Y43.7035
G01 X5.4902 Y43.7129
G01 X5.5175 Y43.7891
G01 X5.5204 Y43.7959
G01 X5.5574 Y43.8734
G01 X5.6003 Y43.9450
G01 X5.6133 Y43.9630
G01 X5.7582 Y44.3428
G01 X5.7614 Y44.3498
G01 X5.7652 Y44.3566
G01 X5.7920 Y44.3983
G01 X5.7979 Y44.4058
G01 X5.8028 Y44.4110
G01 X6.6217 Y45.2299
G01 X6.6287 Y45.2362
G01 X6.6343 Y45.2406
G01 X6.6683 Y45.2636
G01 X6.6746 Y45.2673
G01 X6.6811 Y45.2706
G01 X6.6878 Y45.2733
G01 X6.6948 Y45.2756
G01 X6.7322 Y45.2854
G01 X6.7414 Y45.2873
G01 X6.7485 Y45.2882
G01 X6.8597 Y45.2956
G01 X6.9855 Y45.3205
G01 X7.1077 Y45.3620
G01 X7.2230 Y45.4187
G01 X7.3298 Y45.4901
G01 X7.4266 Y45.5754
G01 X7.5116 Y45.6724
G01 X7.5836 Y45.7793
G01 X7.6402 Y45.8945
G01 X7.6817 Y46.0162
G01 X7.7066 Y46.1426
G01 X7.7153 Y46.2712
G01 X7.7066 Y46.3998
G01 X7.6817 Y46.5257
G01 X7.6402 Y46.6479
G01 X7.5835 Y46.7630
G01 X7.5116 Y46.8700
G01 X7.4267 Y46.9669
G01 X7.3298 Y47.0518
G01 X7.2228 Y47.1237
G01 X7.1077 Y47.1804
G01 X6.9855 Y47.2219
G01 X6.8596 Y47.2468
G01 X6.7310 Y47.2555
G01 X6.6024 Y47.2468
G01 X6.4765 Y47.2219
G01 X6.3543 Y47.1804
G01 X6.2392 Y47.1237
G01 X6.1322 Y47.0518
G01 X6.0353 Y46.9669
G01 X5.9504 Y46.8700
G01 X5.8785 Y46.7630
G01 X5.8218 Y46.6479
G01 X5.7803 Y46.5257
G01 X5.7554 Y46.3999
G01 X5.7481 Y46.2886
G01 X5.7472 Y46.2816
G01 X5.7452 Y46.2723
G01 X5.7354 Y46.2349
G01 X5.7332 Y46.2280
G01 X5.7304 Y46.2213
G01 X5.7271 Y46.2147
G01 X5.7234 Y46.2085
G01 X5.6990 Y46.1726
G01 X5.6945 Y46.1671
G01 X5.6897 Y46.1619
G01 X4.7454 Y45.2176
G01 X4.6889 Y45.1537
G01 X4.6334 Y45.0712
G01 X4.5884 Y44.9753
G01 X3.7040 Y42.6570
G01 X3.6830 Y42.5946
G01 X2.9241 Y39.9384
G01 X2.9049 Y39.8504
G01 X2.8970 Y39.7438
G01 X2.8969 Y34.9716
G01 X2.8958 Y34.9614
G01 X2.8888 Y34.9227
G01 X2.8872 Y34.9156
G01 X2.8852 Y34.9086
G01 X2.8816 Y34.8996
G01 X2.8784 Y34.8931
G01 X2.8571 Y34.8579
G01 X2.8517 Y34.8498
G01 X2.8470 Y34.8441
G01 X2.7755 Y34.7619
G01 X2.7035 Y34.6548
G01 X2.6468 Y34.5397
G01 X2.6053 Y34.4175
G01 X2.5804 Y34.2916
G01 X2.5717 Y34.1630
G01 X2.5804 Y34.0344
G01 X2.6053 Y33.9085
G01 X2.6468 Y33.7863
G01 X2.7035 Y33.6712
G01 X2.7754 Y33.5642
G01 X2.8603 Y33.4673
G01 X2.9572 Y33.3824
G01 X3.0642 Y33.3104
G01 X3.1793 Y33.2538
G01 X3.3015 Y33.2123
G01 X3.4274 Y33.1874
G01 X3.5560 Y33.1787
G00 Z2.0000
G00 X2.9557 Y34.8667
G01 F60.00
G01 Z0.0000
G01 F300.00
G01 X2.9016 Y34.8174
G01 X2.8406 Y34.7501
G01 X2.7865 Y34.6772
G01 X2.7398 Y34.5993
G01 X2.7009 Y34.5172
G01 X2.6704 Y34.4317
G01 X2.6483 Y34.3436
G01 X2.6350 Y34.2537
G01 X2.6305 Y34.1630
G01 X2.6350 Y34.0723
G01 X2.6483 Y33.9824
G01 X2.6704 Y33.8943
G01 X2.7009 Y33.8088
G01 X2.7398 Y33.7267
G01 X2.7865 Y33.6488
G01 X2.8406 Y33.5759
G01 X2.9016 Y33.5086
G01 X2.9689 Y33.4476
G01 X3.0418 Y33.3935
G01 X3.1197 Y33.3468
G01 X3.2018 Y33.3079
G01 X3.2873 Y33.2774
G01 X3.3754 Y33.2553
G01 X3.4653 Y33.2420
G01 X3.5560 Y33.2375
G01 X3.6467 Y33.2420
G01 X3.7366 Y33.2553
G01 X3.8247 Y33.2774
G01 X3.9102 Y33.3079
G01 X3.9923 Y33.3468
G01 X4.0702 Y33.3935
G01 X4.1431 Y33.4476
G01 X4.2104 Y33.5086
G01 X4.2682 Y33.5722
G01 X4.2744 Y33.5797
G01 X4.3227 Y33.6448
G01 X4.3282 Y33.6530
G01 X4.3722 Y33.7267
G01 X4.4091 Y33.8043
G01 X4.4128 Y33.8134
G01 X4.4416 Y33.8943
G01 X4.4637 Y33.9824
G01 X4.4770 Y34.0723
G01 X4.4815 Y34.1630
G01 X4.4770 Y34.2537
G01 X4.4637 Y34.3436
G01 X4.4416 Y34.4317
G01 X4.4128 Y34.5126
G01 X4.4091 Y34.5217
G01 X4.3722 Y34.5993
G01 X4.3282 Y34.6730
G01 X4.3227 Y34.6812
G01 X4.2744 Y34.7463
G01 X4.2682 Y34.7538
G01 X4.2104 Y34.8174
G01 X4.1563 Y34.8667
G01 X4.1563 Y39.6669
G01 X4.8880 Y42.2282
G01 X5.7221 Y44.4134
G01 X6.6579 Y45.3492
G01 X6.7310 Y45.3457
G01 X6.8217 Y45.3501
G01 X6.9116 Y45.3635
G01 X6.9949 Y45.3842
G01 X7.0043 Y45.3871
G01 X7.0806 Y45.4144
G01 X7.0897 Y45.4181
G01 X7.1673 Y45.4550
G01 X7.2410 Y45.4990
G01 X7.2492 Y45.5045
G01 X7.3143 Y45.5527
G01 X7.3218 Y45.5590
G01 X7.3854 Y45.6168
G01 X7.4464 Y45.6840
G01 X7.5005 Y45.7570
G01 X7.5448 Y45.8306
G01 X7.5494 Y45.8393
G01 X7.5870 Y45.9193
G01 X7.6166 Y46.0025
G01 X7.6387 Y46.0906
G01 X7.6520 Y46.1805
G01 X7.6565 Y46.2712
G01 X7.6520 Y46.3619
G01 X7.6387 Y46.4517
G01 X7.6166 Y46.5398
G01 X7.5878 Y46.6208
G01 X7.5841 Y46.6298
G01 X7.5494 Y46.7031
G01 X7.5448 Y46.7117
G01 X7.5005 Y46.7854
G01 X7.4494 Y46.8544
G01 X7.4432 Y46.8620
G01 X7.3854 Y46.9256
G01 X7.3218 Y46.9834
G01 X7.3143 Y46.9896
G01 X7.2452 Y47.0407
G01 X7.1673 Y47.0874
G01 X7.0852 Y47.1262
G01 X7.0020 Y47.1561
G01 X6.9949 Y47.1581
G01 X6.9116 Y47.1789
G01 X6.8266 Y47.1916
G01 X6.8168 Y47.1926
G01 X6.7310 Y47.1967
G01 X6.6452 Y47.1926
G01 X6.6354 Y47.1916
G01 X6.5504 Y47.1789
G01 X6.4671 Y47.1581
G01 X6.4577 Y47.1553
G01 X6.3768 Y47.1262
G01 X6.2991 Y47.0896
G01 X6.2905 Y47.0850
G01 X6.2168 Y47.0407
G01 X6.1477 Y46.9896
G01 X6.1402 Y46.9834
G01 X6.0801 Y46.9290
G01 X6.0732 Y46.9221
G01 X6.0156 Y46.8583
G01 X5.9643 Y46.7894
G01 X5.9588 Y46.7812
G01 X5.9148 Y46.7075
G01 X5.8759 Y46.6254
G01 X5.8454 Y46.5398
G01 X5.8244 Y46.4565
G01 X5.8224 Y46.4469
G01 X5.8106 Y46.3668
G01 X5.8096 Y46.3570
G01 X5.8055 Y46.2712
G01 X5.8090 Y46.1980
G01 X4.7826 Y45.1716
G01 X4.7403 Y45.1247
G01 X4.7063 Y45.0780
G01 X4.7005 Y45.0691
G01 X4.6718 Y45.0189
G01 X4.6462 Y44.9612
G01 X3.7572 Y42.6320
G01 X3.7421 Y42.5870
G01 X2.9788 Y39.9159
G01 X2.9661 Y39.8617
G01 X2.9583 Y39.8066
G01 X2.9557 Y39.7510
G01 X2.9557 Y34.8667
G00 Z2.0000
G00 X5.7497 Y34.8776
G01 F60.00
G01 Z0.0000
G01 F300.00
G01 X5.7497 Y34.2071
G01 X5.7371 Y34.1950
G01 X5.6837 Y34.1359
G01 X5.6333 Y34.0679
G01 X5.5898 Y33.9954
G01 X5.5536 Y33.9189
G01 X5.5251 Y33.8393
G01 X5.5046 Y33.7572
G01 X5.4922 Y33.6735
G01 X5.4881 Y33.5939
G01 X5.4880 Y33.5866
G01 X5.4922 Y33.5045
G01 X5.5046 Y33.4209
G01 X5.5251 Y33.3388
G01 X5.5536 Y33.2592
G01 X5.5898 Y33.1827
G01 X5.6333 Y33.1101
G01 X5.6837 Y33.0422
G01 X5.7371 Y32.9831
G01 X5.7497 Y32.9709
G01 X5.7497 Y32.6390
G01 X5.7523 Y32.5851
G01 X5.7529 Y32.5777
G01 X5.7613 Y32.5219
G01 X5.7756 Y32.4648
G01 X5.7954 Y32.4093
G01 X5.8184 Y32.3604
G01 X5.8218 Y32.3539
G01 X5.8509 Y32.3055
G01 X5.8830 Y32.2621
G01 X5.8892 Y32.2545
G01 X5.9238 Y32.2163
G01 X6.9770 Y31.1632
G01 X6.9662 Y31.0899
G01 X6.9613 Y30.9929
G01 X6.9613 Y30.9831
G01 X6.9662 Y30.8861
G01 X6.9803 Y30.7900
G01 X6.9823 Y30.7804
G01 X7.0060 Y30.6862
G01 X7.0386 Y30.5947
G01 X7.0423 Y30.5856
G01 X7.0840 Y30.4978
G01 X7.1338 Y30.4145
G01 X7.1393 Y30.4063
G01 X7.1972 Y30.3284
G01 X7.2624 Y30.2563
G01 X7.2693 Y30.2494
G01 X7.3395 Y30.1858
G01 X7.3452 Y30.1812
G01 X7.4193 Y30.1263
G01 X7.4275 Y30.1208
G01 X7.5108 Y30.0710
G01 X7.6031 Y30.0274
G01 X7.6945 Y29.9945
G01 X7.7039 Y29.9917
G01 X7.7981 Y29.9682
G01 X7.8991 Y29.9532
G01 X8.0010 Y29.9482
G01 X8.0980 Y29.9528
G01 X8.1078 Y29.9538
G01 X8.2039 Y29.9682
G01 X8.3028 Y29.9930
G01 X8.3943 Y30.0256
G01 X8.4034 Y30.0293
G01 X8.4868 Y30.0688
G01 X8.4933 Y30.0722
G01 X8.5787 Y30.1234
G01 X8.6606 Y30.1842
G01 X8.7362 Y30.2528
G01 X8.8048 Y30.3284
G01 X8.8656 Y30.4103
G01 X8.9180 Y30.4978
G01 X8.9616 Y30.5901
G01 X8.9960 Y30.6862
G01 X9.0208 Y30.7851
G01 X9.0358 Y30.8861
G01 X9.0408 Y30.9880
G01 X9.0358 Y31.0899
G01 X9.0208 Y31.1909
G01 X8.9960 Y31.2898
G01 X8.9616 Y31.3859
G01 X8.9180 Y31.4782
G01 X8.8682 Y31.5615
G01 X8.8627 Y31.5697
G01 X8.8048 Y31.6476
G01 X8.7362 Y31.7232
G01 X8.6606 Y31.7918
G01 X8.5827 Y31.8497
G01 X8.5745 Y31.8552
G01 X8.4954 Y31.9026
G01 X8.4890 Y31.9062
G01 X8.3989 Y31.9486
G01 X8.3075 Y31.9815
G01 X8.2981 Y31.9843
G01 X8.2086 Y32.0067
G01 X8.1990 Y32.0087
G01 X8.1029 Y32.0228
G01 X8.0010 Y32.0278
G01 X7.8991 Y32.0228
G01 X7.8258 Y32.0120
G01 X6.9503 Y32.8876
G01 X6.9503 Y32.9709
G01 X6.9629 Y32.9831
G01 X7.0163 Y33.0422
G01 X7.0667 Y33.1101
G01 X7.1102 Y33.1827
G01 X7.1444 Y33.2547
G01 X7.1473 Y33.2614
G01 X7.1749 Y33.3388
G01 X7.1954 Y33.4209
G01 X7.2078 Y33.5045
G01 X7.2120 Y33.5890
G01 X7.2078 Y33.6735
G01 X7.1954 Y33.7572
G01 X7.1749 Y33.8393
G01 X7.1464 Y33.9189
G01 X7.1102 Y33.9954
G01 X7.0667 Y34.0679
G01 X7.0163 Y34.1359
G01 X6.9629 Y34.1950
G01 X6.9503 Y34.2071
G01 X6.9503 Y34.8776
G01 X6.9882 Y34.9123
G01 X7.0442 Y34.9741
G01 X7.0488 Y34.9799
G01 X7.0970 Y35.0449
G01 X7.1010 Y35.0511
G01 X7.1438 Y35.1227
G01 X7.1806 Y35.2003
G01 X7.1834 Y35.2072
G01 X7.2113 Y35.2858
G01 X7.2328 Y35.3714
G01 X7.2458 Y35.4588
G01 X7.2501 Y35.5470
G01 X7.2458 Y35.6353
G01 X7.2328 Y35.7226
G01 X7.2113 Y35.8083
G01 X7.1834 Y35.8869
G01 X7.1796 Y35.8960
G01 X7.1460 Y35.9670
G01 X7.1414 Y35.9756
G01 X7.0984 Y36.0471
G01 X7.0488 Y36.1142
G01 X7.0426 Y36.1218
G01 X6.9865 Y36.1835
G01 X6.9229 Y36.2412
G01 X6.9171 Y36.2458
G01 X6.8501 Y36.2954
G01 X6.7743 Y36.3409
G01 X6.6945 Y36.3786
G01 X6.6113 Y36.4084
G01 X6.5256 Y36.4298
G01 X6.4382 Y36.4428
G01 X6.3500 Y36.4471
G01 X6.2618 Y36.4428
G01 X6.1744 Y36.4298
G01 X6.0887 Y36.4084
G01 X6.0055 Y36.3786
G01 X5.9257 Y36.3409
G01 X5.8499 Y36.2954
G01 X5.7790 Y36.2428
G01 X5.7135 Y36.1835
G01 X5.6558 Y36.1199
G01 X5.6512 Y36.1142
G01 X5.6016 Y36.0471
G01 X5.5562 Y35.9713
G01 X5.5184 Y35.8915
G01 X5.4887 Y35.8083
G01 X5.4672 Y35.7226
G01 X5.4542 Y35.6353
G01 X5.4499 Y35.5470
G01 X5.4540 Y35.4613
G01 X5.4548 Y35.4539
G01 X5.4672 Y35.3714
G01 X5.4887 Y35.2858
G01 X5.5184 Y35.2026
G01 X5.5551 Y35.1249
G01 X5.5586 Y35.1185
G01 X5.6016 Y35.0470
G01 X5.6527 Y34.9779
G01 X5.6574 Y34.9723
G01 X5.7118 Y34.9123
G01 X5.7497 Y34.8776
G00 Z2.0000
G00 X8.2897 Y34.8776
G01 F60.00
G01 Z0.0000
G01 F300.00
G01 X8.2897 Y32.7660
G01 X8.2926 Y32.7072
G01 X8.3004 Y32.6537
G01 X8.3024 Y32.6441
G01 X8.3156 Y32.5918
G01 X8.3337 Y32.5409
G01 X8.3374 Y32.5318
G01 X8.3584 Y32.4874
G01 X8.3630 Y32.4788
G01 X8.3909 Y32.4325
G01 X8.4230 Y32.3891
G01 X8.4276 Y32.3833
G01 X8.4656 Y32.3416
G01 X9.0517 Y31.7554
G01 X9.0517 Y27.0456
G01 X8.6414 Y26.6353
G01 X6.9825 Y26.6352
G01 X6.9262 Y26.6324
G01 X6.8679 Y26.6237
G01 X6.8108 Y26.6094
G01 X6.7553 Y26.5896
G01 X6.7020 Y26.5644
G01 X6.6515 Y26.5341
G01 X6.6042 Y26.4990
G01 X6.5623 Y26.4612
G01 X5.9256 Y25.8244
G01 X5.8860 Y25.7808
G01 X5.8509 Y25.7335
G01 X5.8230 Y25.6872
G01 X5.8184 Y25.6786
G01 X5.7954 Y25.6297
G01 X5.7756 Y25.5742
G01 X5.7624 Y25.5219
G01 X5.7604 Y25.5123
G01 X5.7526 Y25.4588
G01 X5.7498 Y25.4025
G01 X5.7497 Y22.6060
G01 X5.7526 Y22.5472
G01 X5.7613 Y22.4889
G01 X5.7756 Y22.4318
G01 X5.7937 Y22.3809
G01 X5.7974 Y22.3718
G01 X5.8184 Y22.3274
G01 X5.8230 Y22.3188
G01 X5.8509 Y22.2725
G01 X5.8830 Y22.2291
G01 X5.8876 Y22.2233
G01 X5.9256 Y22.1816
G01 X8.8466 Y19.2606
G01 X8.8865 Y19.2242
G01 X8.8941 Y19.2180
G01 X8.9375 Y19.1859
G01 X8.9838 Y19.1580
G01 X8.9924 Y19.1534
G01 X9.0413 Y19.1304
G01 X9.0921 Y19.1121
G01 X9.1015 Y19.1093
G01 X9.1539 Y19.0963
G01 X9.2073 Y19.0882
G01 X9.2171 Y19.0873
G01 X9.2685 Y19.0848
G01 X11.1814 Y19.0847
G01 X17.1016 Y13.1646
G01 X17.1452 Y13.1250
G01 X17.1925 Y13.0899
G01 X17.2430 Y13.0596
G01 X17.2918 Y13.0364
G01 X17.2986 Y13.0335
G01 X17.3518 Y13.0146
G01 X17.4089 Y13.0003
G01 X17.4672 Y12.9916
G01 X17.5260 Y12.9887
G01 X29.7437 Y12.9887
G01 X29.7488 Y12.9826
G01 X29.8082 Y12.9172
G01 X29.8736 Y12.8578
G01 X29.8797 Y12.8527
G01 X29.8797 Y10.1343
G01 X29.8736 Y10.1292
G01 X29.8118 Y10.0731
G01 X29.8049 Y10.0662
G01 X29.7456 Y10.0007
G01 X29.6929 Y9.9298
G01 X29.6875 Y9.9216
G01 X29.6422 Y9.8458
G01 X29.6043 Y9.7660
G01 X29.6005 Y9.7570
G01 X29.5709 Y9.6738
G01 X29.5493 Y9.5881
G01 X29.5474 Y9.5785
G01 X29.5346 Y9.4911
G01 X29.5301 Y9.4029
G01 X29.5301 Y9.3931
G01 X29.5346 Y9.3049
G01 X29.5478 Y9.2151
G01 X29.5493 Y9.2079
G01 X29.5709 Y9.1222
G01 X29.6023 Y9.0345
G01 X29.6422 Y8.9502
G01 X29.6901 Y8.8702
G01 X29.7456 Y8.7953
G01 X29.8082 Y8.7262
G01 X29.8773 Y8.6636
G01 X29.9482 Y8.6109
G01 X29.9564 Y8.6055
G01 X30.0322 Y8.5602
G01 X30.1120 Y8.5223
G01 X30.1210 Y8.5185
G01 X30.1996 Y8.4904
G01 X30.2090 Y8.4876
G01 X30.2947 Y8.4663
G01 X30.3869 Y8.4526
G01 X30.4800 Y8.4480
G01 X30.5682 Y8.4522
G01 X30.5756 Y8.4528
G01 X30.6653 Y8.4663
G01 X30.7558 Y8.4889
G01 X30.8435 Y8.5203
G01 X30.9234 Y8.5580
G01 X30.9321 Y8.5626
G01 X31.0036 Y8.6055
G01 X31.0118 Y8.6109
G01 X31.0827 Y8.6636
G01 X31.1518 Y8.7262
G01 X31.2144 Y8.7953
G01 X31.2699 Y8.8702
G01 X31.3178 Y8.9502
G01 X31.3557 Y9.0300
G01 X31.3595 Y9.0390
G01 X31.3876 Y9.1176
G01 X31.3904 Y9.1270
G01 X31.4117 Y9.2127
G01 X31.4248 Y9.3000
G01 X31.4256 Y9.3073
G01 X31.4299 Y9.3931
G01 X31.4299 Y9.4029
G01 X31.4254 Y9.4911
G01 X31.4126 Y9.5785
G01 X31.4107 Y9.5881
G01 X31.3891 Y9.6738
G01 X31.3577 Y9.7615
G01 X31.3200 Y9.8414
G01 X31.3154 Y9.8501
G01 X31.2699 Y9.9258
G01 X31.2174 Y9.9968
G01 X31.2112 Y10.0044
G01 X31.1518 Y10.0698
G01 X31.0864 Y10.1292
G01 X31.0803 Y10.1343
G01 X31.0803 Y12.8527
G01 X31.0864 Y12.8578
G01 X31.1518 Y12.9172
G01 X31.2112 Y12.9826
G01 X31.2174 Y12.9902
G01 X31.2699 Y13.0612
G01 X31.3154 Y13.1369
G01 X31.3200 Y13.1456
G01 X31.3577 Y13.2255
G01 X31.3891 Y13.3132
G01 X31.4107 Y13.3989
G01 X31.4126 Y13.4085
G01 X31.4254 Y13.4959
G01 X31.4299 Y13.5841
G01 X31.4299 Y13.5939
G01 X31.4256 Y13.6797
G01 X31.4248 Y13.6870
G01 X31.4117 Y13.7743
G01 X31.3904 Y13.8600
G01 X31.3876 Y13.8694
G01 X31.3577 Y13.9525
G01 X31.3200 Y14.0324
G01 X31.3154 Y14.0411
G01 X31.2725 Y14.1126
G01 X31.2671 Y14.1208
G01 X31.2144 Y14.1917
G01 X31.1518 Y14.2608
G01 X31.0827 Y14.3234
G01 X31.0118 Y14.3761
G01 X31.0036 Y14.3815
G01 X30.9278 Y14.4268
G01 X30.8435 Y14.4667
G01 X30.7558 Y14.4981
G01 X30.6653 Y14.5207
G01 X30.5731 Y14.5344
G01 X30.4800 Y14.5390
G01 X30.3869 Y14.5344
G01 X30.2995 Y14.5216
G01 X30.2899 Y14.5197
G01 X30.2090 Y14.4994
G01 X30.1996 Y14.4966
G01 X30.1165 Y14.4667
G01 X30.0366 Y14.4290
G01 X30.0279 Y14.4244
G01 X29.9522 Y14.3789
G01 X29.8773 Y14.3234
G01 X29.8082 Y14.2608
G01 X29.7488 Y14.1954
G01 X29.7437 Y14.1893
G01 X17.7746 Y14.1893
G01 X11.8544 Y20.1094
G01 X11.8108 Y20.1490
G01 X11.7635 Y20.1841
G01 X11.7172 Y20.2120
G01 X11.7086 Y20.2166
G01 X11.6597 Y20.2396
G01 X11.6042 Y20.2594
G01 X11.5519 Y20.2726
G01 X11.5423 Y20.2746
G01 X11.4937 Y20.2818
G01 X11.4839 Y20.2827
G01 X11.4300 Y20.2853
G01 X9.5196 Y20.2853
G01 X6.9503 Y22.8546
G01 X6.9503 Y25.1514
G01 X7.2336 Y25.4347
G01 X8.8925 Y25.4348
G01 X8.9488 Y25.4376
G01 X9.0071 Y25.4463
G01 X9.0642 Y25.4606
G01 X9.1151 Y25.4787
G01 X9.1220 Y25.4814
G01 X9.1730 Y25.5056
G01 X9.2235 Y25.5359
G01 X9.2708 Y25.5710
G01 X9.3127 Y25.6088
G01 X10.0764 Y26.3726
G01 X10.1160 Y26.4162
G01 X10.1511 Y26.4635
G01 X10.1814 Y26.5140
G01 X10.2066 Y26.5673
G01 X10.2264 Y26.6228
G01 X10.2407 Y26.6799
G01 X10.2494 Y26.7382
G01 X10.2523 Y26.7970
G01 X10.2523 Y30.8571
G01 X10.2676 Y30.7967
G01 X10.2965 Y30.7159
G01 X10.2993 Y30.7091
G01 X10.3382 Y30.6270
G01 X10.3848 Y30.5491
G01 X10.3889 Y30.5431
G01 X10.4416 Y30.4722
G01 X10.5009 Y30.4067
G01 X10.5078 Y30.3997
G01 X10.5752 Y30.3390
G01 X10.6482 Y30.2850
G01 X10.7282 Y30.2370
G01 X10.8125 Y30.1972
G01 X10.8956 Y30.1673
G01 X10.9050 Y30.1645
G01 X10.9859 Y30.1442
G01 X10.9955 Y30.1423
G01 X11.0829 Y30.1294
G01 X11.1735 Y30.1249
G01 X11.2642 Y30.1291
G01 X11.2740 Y30.1300
G01 X11.3613 Y30.1431
G01 X11.4518 Y30.1658
G01 X11.5350 Y30.1954
G01 X11.5440 Y30.1992
G01 X11.6238 Y30.2370
G01 X11.6996 Y30.2823
G01 X11.7078 Y30.2878
G01 X11.7748 Y30.3375
G01 X11.7824 Y30.3437
G01 X11.8478 Y30.4031
G01 X11.9072 Y30.4685
G01 X11.9134 Y30.4761
G01 X11.9659 Y30.5471
G01 X12.0126 Y30.6249
G01 X12.0209 Y30.6417
G01 X12.6140 Y30.6417
G01 X12.6582 Y30.5824
G01 X12.7234 Y30.5103
G01 X12.7303 Y30.5034
G01 X12.7986 Y30.4414
G01 X12.8043 Y30.4367
G01 X12.8843 Y30.3774
G01 X12.9676 Y30.3274
G01 X12.9762 Y30.3228
G01 X13.0596 Y30.2833
G01 X13.0664 Y30.2804
G01 X13.1602 Y30.2470
G01 X13.2544 Y30.2233
G01 X13.2640 Y30.2213
G01 X13.3601 Y30.2072
G01 X13.4620 Y30.2022
G01 X13.5590 Y30.2068
G01 X13.5688 Y30.2078
G01 X13.6649 Y30.2222
G01 X13.7638 Y30.2470
G01 X13.8553 Y30.2796
G01 X13.8644 Y30.2833
G01 X13.9522 Y30.3250
G01 X14.0355 Y30.3748
G01 X14.0437 Y30.3803
G01 X14.1178 Y30.4352
G01 X14.1254 Y30.4414
G01 X14.1972 Y30.5068
G01 X14.2658 Y30.5824
G01 X14.3266 Y30.6643
G01 X14.3790 Y30.7518
G01 X14.4226 Y30.8441
G01 X14.4555 Y30.9355
G01 X14.4583 Y30.9449
G01 X14.4818 Y31.0391
G01 X14.4968 Y31.1401
G01 X14.5017 Y31.2371
G01 X14.5017 Y31.2469
G01 X14.4972 Y31.3390
G01 X14.4965 Y31.3464
G01 X14.4818 Y31.4449
G01 X14.4570 Y31.5438
G01 X14.4226 Y31.6399
G01 X14.3812 Y31.7278
G01 X14.3766 Y31.7364
G01 X14.3266 Y31.8197
G01 X14.2688 Y31.8978
G01 X14.2626 Y31.9054
G01 X14.2006 Y31.9737
G01 X14.1937 Y31.9806
G01 X14.1216 Y32.0458
G01 X14.0623 Y32.0900
G01 X14.0622 Y33.5175
G01 X14.0594 Y33.5739
G01 X14.0516 Y33.6273
G01 X14.0496 Y33.6369
G01 X14.0364 Y33.6893
G01 X14.0166 Y33.7447
G01 X13.9914 Y33.7980
G01 X13.9611 Y33.8485
G01 X13.9290 Y33.8920
G01 X13.9228 Y33.8996
G01 X13.8864 Y33.9395
G01 X13.1790 Y34.6469
G01 X13.2621 Y34.6469
G01 X13.9431 Y33.9657
G01 X13.9923 Y33.9058
G01 X14.0470 Y33.8185
G01 X14.0544 Y33.8041
G01 X14.0854 Y33.7290
G01 X14.0907 Y33.7127
G01 X14.1103 Y33.6342
G01 X14.1131 Y33.6173
G01 X14.1205 Y33.5371
G01 X14.1210 Y32.2153
G01 X14.1215 Y32.2052
G01 X14.1230 Y32.1951
G01 X14.1357 Y32.1418
G01 X14.1381 Y32.1349
G01 X14.1411 Y32.1281
G01 X14.1446 Y32.1215
G01 X14.1485 Y32.1153
G01 X14.1529 Y32.1093
G01 X14.1856 Y32.0688
G01 X14.1925 Y32.0620
G01 X14.2021 Y32.0541
G01 X14.2962 Y31.9567
G01 X14.3777 Y31.8486
G01 X14.4452 Y31.7318
G01 X14.4978 Y31.6069
G01 X14.5351 Y31.4769
G01 X14.5560 Y31.3436
G01 X14.5597 Y31.2080
G01 X14.5476 Y31.0733
G01 X14.5188 Y30.9413
G01 X14.4737 Y30.8138
G01 X14.4131 Y30.6927
G01 X14.3386 Y30.5799
G01 X14.2507 Y30.4772
G01 X14.1506 Y30.3864
G01 X14.0401 Y30.3081
G01 X13.9209 Y30.2438
G01 X13.7950 Y30.1950
G01 X13.6641 Y30.1624
G01 X13.5295 Y30.1457
G01 X13.3945 Y30.1457
G01 X13.2599 Y30.1624
G01 X13.1291 Y30.1950
G01 X13.0031 Y30.2438
G01 X12.8839 Y30.3081
G01 X12.7734 Y30.3864
G01 X12.6735 Y30.4770
G01 X12.6420 Y30.5141
G01 X12.6348 Y30.5214
G01 X12.6269 Y30.5279
G01 X12.5878 Y30.5566
G01 X12.5817 Y30.5604
G01 X12.5730 Y30.5648
G01 X12.5663 Y30.5675
G01 X12.5594 Y30.5697
G01 X12.5101 Y30.5810
G01 X12.5027 Y30.5823
G01 X12.4927 Y30.5830
G01 X12.1656 Y30.5830
G01 X12.1556 Y30.5822
G01 X12.1206 Y30.5769
G01 X12.1083 Y30.5739
G01 X12.0987 Y30.5704
G01 X12.0607 Y30.5516
G01 X12.0525 Y30.5462
G01 X12.0431 Y30.5384
G01 X12.0189 Y30.5159
G01 X12.0123 Y30.5087
G01 X11.9228 Y30.3966
G01 X11.8299 Y30.3069
G01 X11.7263 Y30.2297
G01 X11.6135 Y30.1659
G01 X11.4939 Y30.1174
G01 X11.3688 Y30.0846
G01 X11.2408 Y30.0684
G01 X11.1112 Y30.0684
G01 X10.9832 Y30.0846
G01 X10.8581 Y30.1174
G01 X10.7386 Y30.1658
G01 X10.6123 Y30.2377
G01 X10.6040 Y30.2420
G01 X10.5952 Y30.2454
G01 X10.5529 Y30.2588
G01 X10.5458 Y30.2608
G01 X10.5362 Y30.2626
G01 X10.5240 Y30.2635
G01 X10.5118 Y30.2629
G01 X10.4677 Y30.2580
G01 X10.4580 Y30.2563
G01 X10.4509 Y30.2543
G01 X10.4417 Y30.2509
G01 X10.4307 Y30.2453
G01 X10.3920 Y30.2227
G01 X10.3840 Y30.2173
G01 X10.3784 Y30.2127
G01 X10.3715 Y30.2059
G01 X10.3638 Y30.1966
G01 X10.3374 Y30.1606
G01 X10.3334 Y30.1543
G01 X10.3288 Y30.1454
G01 X10.3243 Y30.1338
G01 X10.3217 Y30.1241
G01 X10.3126 Y30.0804
G01 X10.3115 Y30.0727
G01 X10.3110 Y30.0650
G01 X10.3105 Y26.7752
G01 X10.3031 Y26.6950
G01 X10.3003 Y26.6780
G01 X10.2807 Y26.5990
G01 X10.2754 Y26.5827
G01 X10.2444 Y26.5077
G01 X10.2367 Y26.4927
G01 X10.1957 Y26.4251
G01 X10.1326 Y26.3461
G01 X9.3409 Y25.5544
G01 X9.2619 Y25.4913
G01 X9.1943 Y25.4503
G01 X9.1793 Y25.4426
G01 X9.1043 Y25.4116
G01 X9.0880 Y25.4063
G01 X9.0090 Y25.3867
G01 X8.9920 Y25.3839
G01 X8.9118 Y25.3765
G01 X7.3392 Y25.3760
G01 X7.3320 Y25.3756
G01 X7.3249 Y25.3746
G01 X7.2760 Y25.3649
G01 X7.2688 Y25.3626
G01 X7.2595 Y25.3587
G01 X7.2529 Y25.3552
G01 X7.2464 Y25.3512
G01 X7.2115 Y25.3275
G01 X7.2022 Y25.3201
G01 X7.0649 Y25.1828
G01 X7.0603 Y25.1773
G01 X7.0561 Y25.1716
G01 X7.0298 Y25.1321
G01 X7.0263 Y25.1255
G01 X7.0233 Y25.1185
G01 X7.0208 Y25.1114
G01 X7.0189 Y25.1041
G01 X7.0104 Y25.0601
G01 X7.0094 Y25.0530
G01 X7.0090 Y25.0458
G01 X7.0090 Y24.3982
G01 X7.0092 Y24.3911
G01 X7.0103 Y24.3817
G01 X7.0179 Y24.3423
G01 X7.0202 Y24.3326
G01 X7.0246 Y24.3208
G01 X7.0291 Y24.3118
G01 X7.0520 Y24.2755
G01 X7.0590 Y24.2658
G01 X7.0655 Y24.2586
G01 X7.0726 Y24.2521
G01 X7.1108 Y24.2235
G01 X7.1212 Y24.2173
G01 X7.1277 Y24.2143
G01 X7.1344 Y24.2117
G01 X7.1804 Y24.1993
G01 X7.1878 Y24.1978
G01 X7.1979 Y24.1968
G01 X7.2054 Y24.1966
G01 X7.2155 Y24.1974
G01 X7.2603 Y24.2031
G01 X7.2722 Y24.2062
G01 X7.2835 Y24.2107
G01 X7.3276 Y24.2342
G01 X7.3354 Y24.2396
G01 X7.3665 Y24.2646
G01 X7.4814 Y24.3358
G01 X7.6043 Y24.3922
G01 X7.7330 Y24.4332
G01 X7.8661 Y24.4583
G01 X8.0010 Y24.4667
G01 X8.1359 Y24.4583
G01 X8.2691 Y24.4332
G01 X8.3977 Y24.3922
G01 X8.5206 Y24.3358
G01 X8.6356 Y24.2646
G01 X8.7413 Y24.1799
G01 X8.8333 Y24.0849
G01 X8.8428 Y24.0771
G01 X8.8778 Y24.0529
G01 X8.8842 Y24.0488
G01 X8.8908 Y24.0452
G01 X8.9001 Y24.0413
G01 X8.9073 Y24.0389
G01 X8.9567 Y24.0285
G01 X8.9693 Y24.0271
G01 X12.3134 Y24.0270
G01 X12.3209 Y24.0272
G01 X12.3308 Y24.0285
G01 X12.3678 Y24.0350
G01 X12.3773 Y24.0375
G01 X12.3866 Y24.0408
G01 X12.3934 Y24.0439
G01 X12.4308 Y24.0653
G01 X12.4367 Y24.0692
G01 X12.4424 Y24.0735
G01 X12.4478 Y24.0783
G01 X12.4544 Y24.0851
G01 X12.4798 Y24.1158
G01 X12.4853 Y24.1236
G01 X12.5463 Y24.2286
G01 X12.6278 Y24.3367
G01 X12.7218 Y24.4339
G01 X12.8274 Y24.5186
G01 X12.9426 Y24.5899
G01 X12.9975 Y24.6153
G01 X13.0061 Y24.6198
G01 X13.0439 Y24.6456
G01 X13.0538 Y24.6539
G01 X15.0298 Y26.6298
G01 X15.0362 Y26.6368
G01 X15.0419 Y26.6444
G01 X15.0656 Y26.6795
G01 X15.0695 Y26.6861
G01 X15.0728 Y26.6928
G01 X15.0756 Y26.6998
G01 X15.0785 Y26.7095
G01 X15.0876 Y26.7559
G01 X15.0888 Y26.7654
G01 X15.0890 Y26.7726
G01 X15.0890 Y38.3784
G01 X15.0886 Y38.3880
G01 X15.0876 Y38.3951
G01 X15.0779 Y38.4440
G01 X15.0756 Y38.4512
G01 X15.0728 Y38.4582
G01 X15.0670 Y38.4693
G01 X15.0405 Y38.5085
G01 X15.0362 Y38.5142
G01 X15.0298 Y38.5212
G01 X14.7688 Y38.7821
G01 X14.7595 Y38.7895
G01 X14.7225 Y38.8146
G01 X14.7115 Y38.8207
G01 X14.6998 Y38.8254
G01 X14.6901 Y38.8281
G01 X14.6485 Y38.8362
G01 X14.6414 Y38.8373
G01 X14.6318 Y38.8380
G01 X13.8212 Y38.8385
G01 X13.7410 Y38.8459
G01 X13.7240 Y38.8487
G01 X13.6450 Y38.8683
G01 X13.6287 Y38.8736
G01 X13.5537 Y38.9046
G01 X13.5387 Y38.9123
G01 X13.4711 Y38.9533
G01 X13.3921 Y39.0164
G01 X10.9494 Y41.4591
G01 X10.8863 Y41.5381
G01 X10.8453 Y41.6057
G01 X10.8376 Y41.6207
G01 X10.8066 Y41.6957
G01 X10.8013 Y41.7120
G01 X10.7818 Y41.7910
G01 X10.7789 Y41.8080
G01 X10.7716 Y41.8882
G01 X10.7710 Y42.6747
G01 X10.7698 Y42.6877
G01 X10.7611 Y42.7332
G01 X10.7580 Y42.7429
G01 X10.7528 Y42.7544
G01 X10.7287 Y42.7947
G01 X10.7207 Y42.8051
G01 X10.6693 Y42.8636
G01 X10.5998 Y42.9680
G01 X10.5442 Y43.0802
G01 X10.5042 Y43.1988
G01 X10.4793 Y43.3223
G01 X10.4710 Y43.4472
G01 X10.4793 Y43.5721
G01 X10.5042 Y43.6951
G01 X10.5442 Y43.8143
G01 X10.5998 Y43.9264
G01 X10.6693 Y44.0309
G01 X10.7521 Y44.1251
G01 X10.8463 Y44.2079
G01 X10.9508 Y44.2774
G01 X11.0629 Y44.3330
G01 X11.1821 Y44.3730
G01 X11.3049 Y44.3979
G01 X11.4300 Y44.4057
G01 X11.5551 Y44.3979
G01 X11.6784 Y44.3730
G01 X11.7970 Y44.3330
G01 X11.9092 Y44.2774
G01 X12.0137 Y44.2079
G01 X12.1079 Y44.1251
G01 X12.1907 Y44.0309
G01 X12.2602 Y43.9264
G01 X12.3159 Y43.8141
G01 X12.3563 Y43.6951
G01 X12.3807 Y43.5723
G01 X12.3890 Y43.4472
G01 X12.3807 Y43.3221
G01 X12.3563 Y43.1988
G01 X12.3159 Y43.0803
G01 X12.2602 Y42.9680
G01 X12.1906 Y42.8634
G01 X12.1390 Y42.8043
G01 X12.1315 Y42.7946
G01 X12.1065 Y42.7531
G01 X12.1035 Y42.7466
G01 X12.1009 Y42.7398
G01 X12.0988 Y42.7329
G01 X12.0972 Y42.7258
G01 X12.0902 Y42.6877
G01 X12.0890 Y42.6746
G01 X12.0890 Y42.2666
G01 X12.0892 Y42.2594
G01 X12.0904 Y42.2499
G01 X12.0989 Y42.2059
G01 X12.1016 Y42.1962
G01 X12.1042 Y42.1891
G01 X12.1074 Y42.1823
G01 X12.1124 Y42.1735
G01 X12.1375 Y42.1365
G01 X12.1434 Y42.1290
G01 X12.1482 Y42.1238
G01 X14.0568 Y40.2152
G01 X14.0638 Y40.2088
G01 X14.0714 Y40.2031
G01 X14.1087 Y40.1780
G01 X14.1175 Y40.1733
G01 X14.1245 Y40.1703
G01 X14.1340 Y40.1671
G01 X14.1414 Y40.1654
G01 X14.1829 Y40.1574
G01 X14.1924 Y40.1562
G01 X14.1996 Y40.1560
G01 X15.0078 Y40.1554
G01 X15.0880 Y40.1481
G01 X15.1050 Y40.1452
G01 X15.1840 Y40.1257
G01 X15.2003 Y40.1204
G01 X15.2753 Y40.0894
G01 X15.2903 Y40.0817
G01 X15.3579 Y40.0407
G01 X15.4369 Y39.9776
G01 X16.0091 Y39.4064
G01 X16.0168 Y39.3994
G01 X16.0231 Y39.3948
G01 X16.0596 Y39.3698
G01 X16.0702 Y39.3641
G01 X16.0792 Y39.3605
G01 X16.0908 Y39.3572
G01 X16.1370 Y39.3482
G01 X16.1490 Y39.3472
G01 X16.1610 Y39.3477
G01 X16.1705 Y39.3491
G01 X16.2120 Y39.3572
G01 X16.2213 Y39.3597
G01 X16.2303 Y39.3631
G01 X16.2389 Y39.3674
G01 X16.2451 Y39.3711
G01 X16.2796 Y39.3948
G01 X16.2874 Y39.4007
G01 X16.2945 Y39.4073
G01 X16.2995 Y39.4128
G01 X16.3040 Y39.4185
G01 X16.3277 Y39.4530
G01 X16.3328 Y39.4612
G01 X16.3371 Y39.4699
G01 X16.3405 Y39.4789
G01 X16.3435 Y39.4906
G01 X16.3515 Y39.5321
G01 X16.3525 Y39.5392
G01 X16.3529 Y39.5464
G01 X16.3530 Y48.8816
G01 X16.3641 Y48.9866
G01 X16.3646 Y48.9964
G01 X16.3640 Y49.0086
G01 X16.3618 Y49.0207
G01 X16.3590 Y49.0302
G01 X16.3504 Y49.0529
G01 X16.3581 Y49.0494
G01 X16.3651 Y49.0467
G01 X16.3724 Y49.0445
G01 X16.3823 Y49.0425
G01 X16.3923 Y49.0415
G01 X16.4401 Y49.0404
G01 X16.4530 Y49.0412
G01 X16.5214 Y49.0520
G01 X48.4997 Y49.0520
G01 X48.5468 Y49.0462
G01 X48.5795 Y49.0339
G01 X48.6136 Y49.0102
G01 X48.6322 Y48.9919
G01 X48.6476 Y48.9709
G01 X48.6626 Y48.9374
G01 X48.6711 Y48.8837
G01 X48.6711 Y45.3680
G01 X48.6715 Y45.3583
G01 X48.6729 Y45.3488
G01 X48.6810 Y45.3073
G01 X48.6837 Y45.2976
G01 X48.6873 Y45.2882
G01 X48.6906 Y45.2814
G01 X48.6945 Y45.2749
G01 X48.7182 Y45.2398
G01 X48.7240 Y45.2321
G01 X48.7304 Y45.2250
G01 X48.7375 Y45.2185
G01 X48.7433 Y45.2142
G01 X48.7778 Y45.1910
G01 X48.7863 Y45.1858
G01 X48.7953 Y45.1816
G01 X48.8024 Y45.1790
G01 X48.8120 Y45.1763
G01 X48.8559 Y45.1678
G01 X48.8679 Y45.1665
G01 X48.8800 Y45.1666
G01 X48.8896 Y45.1678
G01 X48.9330 Y45.1764
G01 X48.9401 Y45.1782
G01 X48.9470 Y45.1806
G01 X48.9581 Y45.1856
G01 X48.9664 Y45.1906
G01 X49.0015 Y45.2138
G01 X49.0075 Y45.2184
G01 X49.0132 Y45.2233
G01 X51.2636 Y47.4717
G01 X51.2702 Y47.4794
G01 X51.2746 Y47.4855
G01 X51.2977 Y47.5206
G01 X51.3036 Y47.5312
G01 X51.3073 Y47.5402
G01 X51.3101 Y47.5496
G01 X51.3187 Y47.5929
G01 X51.3201 Y47.6025
G01 X51.3206 Y47.6098
G01 X51.3204 Y47.6194
G01 X51.3196 Y47.6267
G01 X51.3107 Y47.6729
G01 X51.3081 Y47.6824
G01 X51.3046 Y47.6915
G01 X51.3014 Y47.6982
G01 X51.2977 Y47.7045
G01 X51.2746 Y47.7396
G01 X51.2686 Y47.7477
G01 X51.2619 Y47.7551
G01 X47.5382 Y51.4788
G01 X47.5312 Y51.4852
G01 X47.5255 Y51.4895
G01 X47.4841 Y51.5172
G01 X47.4775 Y51.5207
G01 X47.4682 Y51.5246
G01 X47.4610 Y51.5269
G01 X47.4536 Y51.5286
G01 X47.4121 Y51.5366
G01 X47.4050 Y51.5376
G01 X47.3954 Y51.5380
G01 X32.7442 Y51.5385
G01 X32.6640 Y51.5459
G01 X32.6470 Y51.5487
G01 X32.5680 Y51.5683
G01 X32.5517 Y51.5736
G01 X32.4767 Y51.6046
G01 X32.4617 Y51.6123
G01 X32.3941 Y51.6533
G01 X32.3151 Y51.7164
G01 X31.0154 Y53.0161
G01 X30.9523 Y53.0951
G01 X30.9113 Y53.1627
G01 X30.9036 Y53.1777
G01 X30.8726 Y53.2527
G01 X30.8673 Y53.2690
G01 X30.8478 Y53.3480
G01 X30.8449 Y53.3650
G01 X30.8375 Y53.4443
G01 X30.8370 Y53.6227
G01 X30.8367 Y53.6303
G01 X30.8354 Y53.6403
G01 X30.8263 Y53.6843
G01 X30.8237 Y53.6936
G01 X30.8201 Y53.7026
G01 X30.8169 Y53.7091
G01 X30.8133 Y53.7153
G01 X30.7873 Y53.7538
G01 X30.7828 Y53.7594
G01 X30.7779 Y53.7647
G01 X30.7726 Y53.7696
G01 X30.7651 Y53.7755
G01 X30.7280 Y53.8006
G01 X30.7193 Y53.8056
G01 X30.7125 Y53.8087
G01 X30.7031 Y53.8121
G01 X30.6959 Y53.8140
G01 X30.6548 Y53.8221
G01 X30.6452 Y53.8236
G01 X30.6354 Y53.8240
G01 X20.8036 Y53.8240
G01 X20.7964 Y53.8238
G01 X20.7892 Y53.8230
G01 X20.7429 Y53.8141
G01 X20.7332 Y53.8114
G01 X20.7238 Y53.8078
G01 X20.7171 Y53.8044
G01 X20.7105 Y53.8006
G01 X20.6754 Y53.7769
G01 X20.6678 Y53.7712
G01 X20.6608 Y53.7648
G01 X16.2788 Y49.3828
G01 X16.2724 Y49.3757
G01 X16.2667 Y49.3681
G01 X16.2400 Y49.3264
G01 X16.2365 Y49.3199
G01 X16.2327 Y49.3109
G01 X16.2305 Y49.3039
G01 X16.2287 Y49.2968
G01 X16.2209 Y49.2475
G01 X16.2201 Y49.2379
G01 X16.2201 Y49.2307
G01 X16.2209 Y49.2211
G01 X16.2226 Y49.2117
G01 X16.2346 Y49.1691
G01 X16.1990 Y49.1809
G01 X16.1892 Y49.1828
G01 X16.1792 Y49.1838
G01 X16.1717 Y49.1839
G01 X16.1642 Y49.1835
G01 X16.1103 Y49.1764
G01 X16.1010 Y49.1741
G01 X16.0942 Y49.1717
G01 X16.0875 Y49.1689
G01 X16.0811 Y49.1656
G01 X16.0367 Y49.1379
G01 X16.0306 Y49.1335
G01 X16.0248 Y49.1287
G01 X14.6882 Y47.7922
G01 X14.6818 Y47.7852
G01 X14.6775 Y47.7795
G01 X14.6511 Y47.7403
G01 X14.6474 Y47.7337
G01 X14.6442 Y47.7269
G01 X14.6416 Y47.7198
G01 X14.6395 Y47.7125
G01 X14.6304 Y47.6661
G01 X14.6294 Y47.6590
G01 X14.6290 Y47.6518
G01 X14.6290 Y46.1178
G01 X14.6294 Y46.1084
G01 X14.6359 Y46.0678
G01 X14.6374 Y46.0607
G01 X14.6409 Y46.0491
G01 X14.6458 Y46.0380
G01 X14.6644 Y46.0044
G01 X14.6695 Y45.9966
G01 X14.7291 Y45.9208
G01 X14.7919 Y45.8151
G01 X14.8395 Y45.7020
G01 X14.8721 Y45.5831
G01 X14.8885 Y45.4613
G01 X14.8885 Y45.3386
G01 X14.8721 Y45.2168
G01 X14.8395 Y45.0979
G01 X14.7919 Y44.9848
G01 X14.7292 Y44.8792
G01 X14.6725 Y44.8079
G01 X14.6654 Y44.7977
G01 X14.6443 Y44.7589
G01 X14.6404 Y44.7495
G01 X14.6369 Y44.7373
G01 X14.6300 Y44.6970
G01 X14.6290 Y44.6851
G01 X14.6291 Y44.2172
G01 X14.6306 Y44.2042
G01 X14.6389 Y44.1612
G01 X14.6411 Y44.1539
G01 X14.6439 Y44.1468
G01 X14.6497 Y44.1356
G01 X14.6699 Y44.1019
G01 X14.6759 Y44.0933
G01 X14.7307 Y44.0309
G01 X14.8002 Y43.9264
G01 X14.8559 Y43.8141
G01 X14.8963 Y43.6951
G01 X14.9207 Y43.5723
G01 X14.9290 Y43.4472
G01 X14.9207 Y43.3221
G01 X14.8963 Y43.1988
G01 X14.8559 Y43.0803
G01 X14.8002 Y42.9680
G01 X14.7307 Y42.8635
G01 X14.6479 Y42.7693
G01 X14.5537 Y42.6865
G01 X14.4492 Y42.6170
G01 X14.3369 Y42.5613
G01 X14.2184 Y42.5209
G01 X14.0951 Y42.4965
G01 X13.9700 Y42.4882
G01 X13.8449 Y42.4965
G01 X13.7221 Y42.5209
G01 X13.6031 Y42.5613
G01 X13.4908 Y42.6170
G01 X13.3863 Y42.6865
G01 X13.2921 Y42.7693
G01 X13.2093 Y42.8635
G01 X13.1398 Y42.9680
G01 X13.0842 Y43.0802
G01 X13.0442 Y43.1988
G01 X13.0193 Y43.3223
G01 X13.0110 Y43.4472
G01 X13.0193 Y43.5721
G01 X13.0442 Y43.6951
G01 X13.0842 Y43.8143
G01 X13.1398 Y43.9264
G01 X13.2093 Y44.0309
G01 X13.2641 Y44.0933
G01 X13.2701 Y44.1019
G01 X13.2903 Y44.1356
G01 X13.2961 Y44.1468
G01 X13.2989 Y44.1539
G01 X13.3011 Y44.1612
G01 X13.3094 Y44.2042
G01 X13.3107 Y44.2146
G01 X13.3110 Y44.2224
G01 X13.3110 Y44.6840
G01 X13.3106 Y44.6912
G01 X13.3096 Y44.6984
G01 X13.3016 Y44.7396
G01 X13.2998 Y44.7466
G01 X13.2976 Y44.7533
G01 X13.2927 Y44.7642
G01 X13.2686 Y44.8041
G01 X13.2611 Y44.8141
G01 X13.2478 Y44.8292
G01 X13.1779 Y44.9308
G01 X13.1225 Y45.0408
G01 X13.0821 Y45.1568
G01 X13.0574 Y45.2773
G01 X13.0491 Y45.4000
G01 X13.0574 Y45.5226
G01 X13.0821 Y45.6432
G01 X13.1225 Y45.7596
G01 X13.1779 Y45.8691
G01 X13.2475 Y45.9707
G01 X13.2601 Y45.9846
G01 X13.2673 Y45.9940
G01 X13.2916 Y46.0336
G01 X13.2967 Y46.0443
G01 X13.3005 Y46.0556
G01 X13.3100 Y46.1039
G01 X13.3108 Y46.1111
G01 X13.3110 Y46.1182
G01 X13.3116 Y48.0278
G01 X13.3189 Y48.1080
G01 X13.3218 Y48.1250
G01 X13.3413 Y48.2040
G01 X13.3466 Y48.2203
G01 X13.3776 Y48.2953
G01 X13.3853 Y48.3103
G01 X13.4263 Y48.3779
G01 X13.4894 Y48.4569
G01 X19.9961 Y54.9636
G01 X20.0751 Y55.0267
G01 X20.1427 Y55.0677
G01 X20.1577 Y55.0754
G01 X20.2327 Y55.1064
G01 X20.2490 Y55.1117
G01 X20.3280 Y55.1312
G01 X20.3450 Y55.1341
G01 X20.4252 Y55.1414
G01 X30.6490 Y55.1420
G01 X30.6562 Y55.1424
G01 X30.6633 Y55.1434
G01 X30.7070 Y55.1519
G01 X30.7138 Y55.1539
G01 X30.7206 Y55.1563
G01 X30.7313 Y55.1614
G01 X30.7689 Y55.1844
G01 X30.7784 Y55.1913
G01 X30.8672 Y55.2719
G01 X30.9729 Y55.3457
G01 X31.0875 Y55.4053
G01 X31.2090 Y55.4502
G01 X31.3352 Y55.4788
G01 X31.4637 Y55.4913
G01 X31.5930 Y55.4871
G01 X31.7205 Y55.4664
G01 X31.8444 Y55.4294
G01 X31.9628 Y55.3771
G01 X32.0732 Y55.3101
G01 X32.1744 Y55.2297
G01 X32.2639 Y55.1369
G01 X32.3412 Y55.0333
G01 X32.4050 Y54.9205
G01 X32.4535 Y54.8009
G01 X32.4863 Y54.6758
G01 X32.5024 Y54.5478
G01 X32.5024 Y54.4182
G01 X32.4863 Y54.2902
G01 X32.4535 Y54.1651
G01 X32.4050 Y54.0455
G01 X32.3412 Y53.9327
G01 X32.2836 Y53.8555
G01 X32.2784 Y53.8479
G01 X32.2739 Y53.8398
G01 X32.2582 Y53.8078
G01 X32.2552 Y53.8011
G01 X32.2527 Y53.7941
G01 X32.2501 Y53.7846
G01 X32.2485 Y53.7749
G01 X32.2442 Y53.7363
G01 X32.2439 Y53.7241
G01 X32.2447 Y53.7144
G01 X32.2465 Y53.7047
G01 X32.2584 Y53.6602
G01 X32.2631 Y53.6487
G01 X32.2693 Y53.6379
G01 X32.2925 Y53.6042
G01 X32.3008 Y53.5942
G01 X32.9815 Y52.9135
G01 X32.9868 Y52.9088
G01 X32.9925 Y52.9045
G01 X33.0274 Y52.8808
G01 X33.0361 Y52.8755
G01 X33.0428 Y52.8722
G01 X33.0498 Y52.8694
G01 X33.0595 Y52.8665
G01 X33.1059 Y52.8574
G01 X33.1154 Y52.8562
G01 X33.1226 Y52.8560
G01 X47.7738 Y52.8554
G01 X47.8540 Y52.8481
G01 X47.8710 Y52.8452
G01 X47.9500 Y52.8257
G01 X47.9663 Y52.8204
G01 X48.0413 Y52.7894
G01 X48.0563 Y52.7817
G01 X48.1239 Y52.7407
G01 X48.2029 Y52.6776
G01 X59.0276 Y41.8529
G01 X59.0907 Y41.7739
G01 X59.1317 Y41.7063
G01 X59.1394 Y41.6913
G01 X59.1704 Y41.6163
G01 X59.1757 Y41.6000
G01 X59.1953 Y41.5210
G01 X59.1981 Y41.5040
G01 X59.2055 Y41.4238
G01 X59.2060 Y40.4124
G01 X59.2063 Y40.4046
G01 X59.2072 Y40.3970
G01 X59.2142 Y40.3583
G01 X59.2164 Y40.3489
G01 X59.2187 Y40.3420
G01 X59.2214 Y40.3352
G01 X59.2271 Y40.3245
G01 X59.2472 Y40.2914
G01 X59.2529 Y40.2834
G01 X59.3077 Y40.2204
G01 X59.3772 Y40.1164
G01 X59.4328 Y40.0038
G01 X59.4728 Y39.8851
G01 X59.4977 Y39.7616
G01 X59.5060 Y39.6367
G01 X59.4977 Y39.5118
G01 X59.4728 Y39.3889
G01 X59.4328 Y39.2701
G01 X59.3771 Y39.1574
G01 X59.3077 Y39.0530
G01 X59.2250 Y38.9589
G01 X59.1307 Y38.8765
G01 X59.0262 Y38.8066
G01 X58.9141 Y38.7514
G01 X58.7949 Y38.7109
G01 X58.6721 Y38.6865
G01 X58.5470 Y38.6782
G01 X58.4219 Y38.6865
G01 X58.2986 Y38.7109
G01 X58.1800 Y38.7514
G01 X58.0678 Y38.8066
G01 X57.9633 Y38.8765
G01 X57.8690 Y38.9589
G01 X57.7863 Y39.0530
G01 X57.7169 Y39.1574
G01 X57.6611 Y39.2703
G01 X57.6207 Y39.3889
G01 X57.5963 Y39.5116
G01 X57.5880 Y39.6367
G01 X57.5963 Y39.7618
G01 X57.6207 Y39.8851
G01 X57.6611 Y40.0036
G01 X57.7168 Y40.1164
G01 X57.7863 Y40.2204
G01 X57.8411 Y40.2834
G01 X57.8468 Y40.2914
G01 X57.8669 Y40.3245
G01 X57.8726 Y40.3352
G01 X57.8754 Y40.3420
G01 X57.8776 Y40.3489
G01 X57.8798 Y40.3583
G01 X57.8868 Y40.3970
G01 X57.8877 Y40.4047
G01 X57.8880 Y40.4124
G01 X57.8880 Y41.0454
G01 X57.8878 Y41.0526
G01 X57.8866 Y41.0621
G01 X57.8786 Y41.1036
G01 X57.8762 Y41.1134
G01 X57.8737 Y41.1205
G01 X57.8696 Y41.1297
G01 X57.8646 Y41.1385
G01 X57.8381 Y41.1774
G01 X57.8337 Y41.1830
G01 X57.8288 Y41.1882
G01 X52.4790 Y46.5380
G01 X52.4716 Y46.5447
G01 X52.4635 Y46.5507
G01 X52.4264 Y46.5751
G01 X52.4178 Y46.5797
G01 X52.4088 Y46.5834
G01 X52.3971 Y46.5867
G01 X52.3537 Y46.5953
G01 X52.3441 Y46.5965
G01 X52.3344 Y46.5967
G01 X52.3272 Y46.5963
G01 X52.3200 Y46.5953
G01 X52.2785 Y46.5873
G01 X52.2690 Y46.5849
G01 X52.2597 Y46.5817
G01 X52.2508 Y46.5775
G01 X52.2424 Y46.5725
G01 X52.2073 Y46.5492
G01 X52.1975 Y46.5414
G01 X49.9942 Y44.3399
G01 X49.9878 Y44.3328
G01 X49.9835 Y44.3272
G01 X49.9598 Y44.2922
G01 X49.9546 Y44.2836
G01 X49.9503 Y44.2746
G01 X49.9469 Y44.2652
G01 X49.9445 Y44.2555
G01 X49.9364 Y44.2145
G01 X49.9352 Y44.2048
G01 X49.9350 Y44.1975
G01 X49.9350 Y36.0436
G01 X49.9352 Y36.0364
G01 X49.9360 Y36.0292
G01 X49.9449 Y35.9829
G01 X49.9476 Y35.9732
G01 X49.9512 Y35.9638
G01 X49.9546 Y35.9571
G01 X49.9598 Y35.9484
G01 X49.9835 Y35.9135
G01 X49.9909 Y35.9042
G01 X51.4076 Y34.4869
G01 X51.4707 Y34.4079
G01 X51.5117 Y34.3403
G01 X51.5194 Y34.3253
G01 X51.5504 Y34.2503
G01 X51.5557 Y34.2340
G01 X51.5753 Y34.1550
G01 X51.5781 Y34.1380
G01 X51.5855 Y34.0578
G01 X51.5860 Y32.5120
G01 X51.5868 Y32.4989
G01 X51.5942 Y32.4582
G01 X51.5959 Y32.4508
G01 X51.5999 Y32.4388
G01 X51.6054 Y32.4274
G01 X51.6255 Y32.3937
G01 X51.6313 Y32.3850
G01 X51.6363 Y32.3789
G01 X51.6877 Y32.3204
G01 X51.7572 Y32.2160
G01 X51.8128 Y32.1038
G01 X51.8528 Y31.9852
G01 X51.8777 Y31.8617
G01 X51.8860 Y31.7368
G01 X51.8777 Y31.6119
G01 X51.8528 Y31.4889
G01 X51.8128 Y31.3697
G01 X51.7572 Y31.2576
G01 X51.6877 Y31.1531
G01 X51.6363 Y31.0947
G01 X51.6313 Y31.0886
G01 X51.6255 Y31.0799
G01 X51.6054 Y31.0462
G01 X51.5999 Y31.0348
G01 X51.5959 Y31.0228
G01 X51.5876 Y30.9798
G01 X51.5865 Y30.9721
G01 X51.5860 Y30.9616
G01 X51.5855 Y28.5532
G01 X51.5781 Y28.4730
G01 X51.5753 Y28.4560
G01 X51.5557 Y28.3770
G01 X51.5504 Y28.3607
G01 X51.5194 Y28.2857
G01 X51.5117 Y28.2707
G01 X51.4707 Y28.2031
G01 X51.4076 Y28.1241
G01 X50.9359 Y27.6519
G01 X50.9298 Y27.6448
G01 X50.9256 Y27.6391
G01 X50.8981 Y27.5962
G01 X50.8948 Y27.5895
G01 X50.8919 Y27.5825
G01 X50.8884 Y27.5705
G01 X50.8803 Y27.5249
G01 X50.8791 Y27.5150
G01 X50.8789 Y27.5050
G01 X50.8817 Y27.3980
G01 X50.8696 Y27.2633
G01 X50.8408 Y27.1313
G01 X50.7957 Y27.0038
G01 X50.7351 Y26.8827
G01 X50.6606 Y26.7699
G01 X50.5727 Y26.6672
G01 X50.4726 Y26.5764
G01 X50.3621 Y26.4981
G01 X50.2429 Y26.4338
G01 X50.1170 Y26.3850
G01 X49.9861 Y26.3524
G01 X49.8515 Y26.3357
G01 X49.7165 Y26.3357
G01 X49.5819 Y26.3524
G01 X49.4511 Y26.3850
G01 X49.3251 Y26.4338
G01 X49.2059 Y26.4981
G01 X49.0955 Y26.5763
G01 X49.0086 Y26.6555
G01 X48.9991 Y26.6631
G01 X48.9931 Y26.6671
G01 X48.9532 Y26.6910
G01 X48.9444 Y26.6949
G01 X48.9376 Y26.6973
G01 X48.9306 Y26.6993
G01 X48.9235 Y26.7007
G01 X48.8807 Y26.7074
G01 X48.8688 Y26.7080
G01 X48.8592 Y26.7075
G01 X48.8475 Y26.7055
G01 X48.8047 Y26.6957
G01 X48.7955 Y26.6927
G01 X48.7845 Y26.6877
G01 X48.7762 Y26.6827
G01 X48.7403 Y26.6576
G01 X48.7327 Y26.6514
G01 X48.7241 Y26.6427
G01 X48.7166 Y26.6330
G01 X48.6919 Y26.5942
G01 X48.6864 Y26.5831
G01 X48.6823 Y26.5714
G01 X48.6725 Y26.5236
G01 X48.6715 Y26.5163
G01 X48.6711 Y26.5064
G01 X48.6711 Y20.7366
G01 X48.6715 Y20.7270
G01 X48.6729 Y20.7174
G01 X48.6810 Y20.6759
G01 X48.6845 Y20.6638
G01 X48.6884 Y20.6545
G01 X48.6945 Y20.6435
G01 X48.7196 Y20.6063
G01 X48.7275 Y20.5967
G01 X48.7346 Y20.5897
G01 X48.7423 Y20.5835
G01 X48.7820 Y20.5575
G01 X48.7883 Y20.5539
G01 X48.7948 Y20.5508
G01 X48.8061 Y20.5467
G01 X48.8155 Y20.5444
G01 X48.8546 Y20.5368
G01 X48.8641 Y20.5354
G01 X48.8737 Y20.5350
G01 X48.8833 Y20.5354
G01 X48.8929 Y20.5368
G01 X48.9416 Y20.5478
G01 X48.9534 Y20.5522
G01 X48.9646 Y20.5581
G01 X49.0019 Y20.5831
G01 X49.0095 Y20.5888
G01 X49.0166 Y20.5953
G01 X49.0441 Y20.6241
G01 X49.1494 Y20.7086
G01 X49.2644 Y20.7798
G01 X49.3873 Y20.8362
G01 X49.5160 Y20.8772
G01 X49.6491 Y20.9023
G01 X49.7839 Y20.9107
G01 X49.8498 Y20.9065
G01 X49.8627 Y20.9065
G01 X49.8705 Y20.9073
G01 X49.9173 Y20.9142
G01 X49.9243 Y20.9159
G01 X49.9312 Y20.9180
G01 X49.9423 Y20.9226
G01 X49.9506 Y20.9272
G01 X49.9907 Y20.9531
G01 X49.9982 Y20.9588
G01 X50.0034 Y20.9634
G01 X50.7168 Y21.6768
G01 X50.7217 Y21.6820
G01 X50.7275 Y21.6895
G01 X50.7540 Y21.7287
G01 X50.7587 Y21.7375
G01 X50.7617 Y21.7445
G01 X50.7642 Y21.7516
G01 X50.7666 Y21.7614
G01 X50.7746 Y21.8028
G01 X50.7756 Y21.8100
G01 X50.7760 Y21.8172
G01 X50.7766 Y24.0248
G01 X50.7839 Y24.1050
G01 X50.7868 Y24.1220
G01 X50.8063 Y24.2010
G01 X50.8116 Y24.2173
G01 X50.8426 Y24.2923
G01 X50.8503 Y24.3073
G01 X50.8913 Y24.3749
G01 X50.9544 Y24.4539
G01 X52.7488 Y26.2488
G01 X52.7552 Y26.2558
G01 X52.7595 Y26.2615
G01 X52.7846 Y26.2985
G01 X52.7907 Y26.3095
G01 X52.7954 Y26.3212
G01 X52.7986 Y26.3334
G01 X52.8062 Y26.3725
G01 X52.8076 Y26.3820
G01 X52.8080 Y26.3916
G01 X52.8080 Y26.4612
G01 X52.8072 Y26.4713
G01 X52.8060 Y26.4788
G01 X52.7953 Y26.5250
G01 X52.7918 Y26.5368
G01 X52.7879 Y26.5459
G01 X52.7832 Y26.5546
G01 X52.7776 Y26.5627
G01 X52.7434 Y26.6052
G01 X52.7365 Y26.6120
G01 X52.7269 Y26.6199
G01 X52.6328 Y26.7173
G01 X52.5513 Y26.8254
G01 X52.4838 Y26.9422
G01 X52.4312 Y27.0670
G01 X52.3939 Y27.1971
G01 X52.3730 Y27.3306
G01 X52.3688 Y27.4660
G01 X52.3813 Y27.6005
G01 X52.4102 Y27.7327
G01 X52.4553 Y27.8602
G01 X52.5159 Y27.9813
G01 X52.5905 Y28.0941
G01 X52.6784 Y28.1969
G01 X52.7418 Y28.2547
G01 X52.7489 Y28.2618
G01 X52.7552 Y28.2696
G01 X52.7830 Y28.3077
G01 X52.7869 Y28.3141
G01 X52.7913 Y28.3231
G01 X52.7940 Y28.3301
G01 X52.7961 Y28.3373
G01 X52.8064 Y28.3858
G01 X52.8079 Y28.3986
G01 X52.8080 Y30.9616
G01 X52.8077 Y30.9694
G01 X52.8064 Y30.9798
G01 X52.7987 Y31.0203
G01 X52.7967 Y31.0277
G01 X52.7941 Y31.0348
G01 X52.7886 Y31.0462
G01 X52.7685 Y31.0799
G01 X52.7627 Y31.0886
G01 X52.7577 Y31.0947
G01 X52.7063 Y31.1531
G01 X52.6368 Y31.2576
G01 X52.5811 Y31.3699
G01 X52.5407 Y31.4889
G01 X52.5163 Y31.6117
G01 X52.5080 Y31.7368
G01 X52.5163 Y31.8619
G01 X52.5407 Y31.9852
G01 X52.5811 Y32.1036
G01 X52.6368 Y32.2160
G01 X52.7063 Y32.3205
G01 X52.7891 Y32.4147
G01 X52.8833 Y32.4975
G01 X52.9878 Y32.5670
G01 X53.1001 Y32.6227
G01 X53.2186 Y32.6631
G01 X53.3419 Y32.6875
G01 X53.4670 Y32.6958
G01 X53.5921 Y32.6875
G01 X53.7149 Y32.6631
G01 X53.8339 Y32.6227
G01 X53.9462 Y32.5670
G01 X54.0507 Y32.4975
G01 X54.1449 Y32.4147
G01 X54.2277 Y32.3205
G01 X54.2972 Y32.2160
G01 X54.3477 Y32.1140
G01 X54.3524 Y32.1055
G01 X54.3580 Y32.0975
G01 X54.3866 Y32.0605
G01 X54.3917 Y32.0549
G01 X54.3973 Y32.0498
G01 X54.4032 Y32.0450
G01 X54.4094 Y32.0408
G01 X54.4160 Y32.0370
G01 X54.4591 Y32.0145
G01 X54.4659 Y32.0118
G01 X54.4728 Y32.0097
G01 X54.4846 Y32.0072
G01 X54.5331 Y32.0023
G01 X54.5406 Y32.0020
G01 X54.5480 Y32.0023
G01 X54.5579 Y32.0036
G01 X54.5700 Y32.0065
G01 X54.6139 Y32.0213
G01 X54.6208 Y32.0242
G01 X54.6275 Y32.0275
G01 X54.6380 Y32.0341
G01 X54.6458 Y32.0404
G01 X54.6786 Y32.0694
G01 X54.6854 Y32.0764
G01 X54.6901 Y32.0821
G01 X54.6969 Y32.0922
G01 X54.7014 Y32.1009
G01 X54.7197 Y32.1408
G01 X54.7223 Y32.1476
G01 X54.7251 Y32.1571
G01 X54.7269 Y32.1668
G01 X54.7277 Y32.1766
G01 X54.7281 Y32.2280
G01 X54.7271 Y32.2376
G01 X54.7209 Y32.2717
G01 X54.7136 Y32.3500
G01 X54.7130 Y35.2034
G01 X54.7126 Y35.2130
G01 X54.7112 Y35.2225
G01 X54.7031 Y35.2641
G01 X54.6996 Y35.2762
G01 X54.6946 Y35.2877
G01 X54.6896 Y35.2965
G01 X54.6645 Y35.3335
G01 X54.6602 Y35.3392
G01 X54.6538 Y35.3462
G01 X52.9864 Y37.0141
G01 X52.9233 Y37.0931
G01 X52.8823 Y37.1607
G01 X52.8746 Y37.1757
G01 X52.8436 Y37.2507
G01 X52.8383 Y37.2670
G01 X52.8188 Y37.3460
G01 X52.8159 Y37.3630
G01 X52.8086 Y37.4432
G01 X52.8080 Y38.8615
G01 X52.8072 Y38.8744
G01 X52.7982 Y38.9227
G01 X52.7962 Y38.9297
G01 X52.7936 Y38.9365
G01 X52.7905 Y38.9431
G01 X52.7869 Y38.9494
G01 X52.7668 Y38.9826
G01 X52.7610 Y38.9907
G01 X52.7063 Y39.0530
G01 X52.6369 Y39.1574
G01 X52.5811 Y39.2703
G01 X52.5407 Y39.3889
G01 X52.5163 Y39.5116
G01 X52.5080 Y39.6367
G01 X52.5163 Y39.7618
G01 X52.5407 Y39.8851
G01 X52.5811 Y40.0036
G01 X52.6368 Y40.1164
G01 X52.7063 Y40.2203
G01 X52.7891 Y40.3146
G01 X52.8834 Y40.3975
G01 X52.9878 Y40.4673
G01 X53.1000 Y40.5225
G01 X53.2186 Y40.5630
G01 X53.3419 Y40.5874
G01 X53.4670 Y40.5957
G01 X53.5921 Y40.5874
G01 X53.7149 Y40.5630
G01 X53.8341 Y40.5225
G01 X53.9462 Y40.4673
G01 X54.0506 Y40.3975
G01 X54.1449 Y40.3146
G01 X54.2277 Y40.2203
G01 X54.2972 Y40.1164
G01 X54.3528 Y40.0038
G01 X54.3928 Y39.8851
G01 X54.4177 Y39.7616
G01 X54.4260 Y39.6367
G01 X54.4177 Y39.5118
G01 X54.3928 Y39.3889
G01 X54.3528 Y39.2701
G01 X54.2971 Y39.1574
G01 X54.2277 Y39.0530
G01 X54.1731 Y38.9907
G01 X54.1672 Y38.9826
G01 X54.1458 Y38.9473
G01 X54.1404 Y38.9365
G01 X54.1379 Y38.9297
G01 X54.1358 Y38.9227
G01 X54.1276 Y38.8795
G01 X54.1265 Y38.8718
G01 X54.1260 Y38.8615
G01 X54.1260 Y37.8216
G01 X54.1262 Y37.8144
G01 X54.1274 Y37.8049
G01 X54.1359 Y37.7609
G01 X54.1386 Y37.7512
G01 X54.1433 Y37.7395
G01 X54.1494 Y37.7285
G01 X54.1745 Y37.6915
G01 X54.1803 Y37.6840
G01 X54.1852 Y37.6788
G01 X55.8526 Y36.0109
G01 X55.9157 Y35.9319
G01 X55.9567 Y35.8643
G01 X55.9644 Y35.8493
G01 X55.9954 Y35.7743
G01 X56.0007 Y35.7580
G01 X56.0203 Y35.6790
G01 X56.0231 Y35.6620
G01 X56.0305 Y35.5818
G01 X56.0310 Y32.8732
G01 X56.0312 Y32.8657
G01 X56.0321 Y32.8583
G01 X56.0401 Y32.8140
G01 X56.0431 Y32.8045
G01 X56.0480 Y32.7931
G01 X56.0690 Y32.7566
G01 X56.0746 Y32.7483
G01 X56.0810 Y32.7407
G01 X56.0882 Y32.7337
G01 X56.1160 Y32.7092
G01 X56.1219 Y32.7046
G01 X56.1282 Y32.7004
G01 X56.1347 Y32.6968
G01 X56.1415 Y32.6936
G01 X56.1764 Y32.6800
G01 X56.1837 Y32.6774
G01 X56.1937 Y32.6749
G01 X56.2551 Y32.6630
G01 X56.3739 Y32.6227
G01 X56.4862 Y32.5670
G01 X56.5907 Y32.4975
G01 X56.6849 Y32.4147
G01 X56.7677 Y32.3205
G01 X56.8372 Y32.2160
G01 X56.8928 Y32.1038
G01 X56.9328 Y31.9852
G01 X56.9577 Y31.8617
G01 X56.9660 Y31.7368
G01 X56.9577 Y31.6119
G01 X56.9328 Y31.4889
G01 X56.8928 Y31.3697
G01 X56.8372 Y31.2576
G01 X56.7677 Y31.1531
G01 X56.6849 Y31.0589
G01 X56.5907 Y30.9761
G01 X56.4862 Y30.9066
G01 X56.3741 Y30.8510
G01 X56.2549 Y30.8110
G01 X56.1930 Y30.7985
G01 X56.1810 Y30.7953
G01 X56.1394 Y30.7790
G01 X56.1286 Y30.7734
G01 X56.1206 Y30.7680
G01 X56.0890 Y30.7411
G01 X56.0836 Y30.7361
G01 X56.0755 Y30.7269
G01 X56.0712 Y30.7210
G01 X56.0673 Y30.7147
G01 X56.0489 Y30.6821
G01 X56.0457 Y30.6756
G01 X56.0430 Y30.6689
G01 X56.0408 Y30.6620
G01 X56.0391 Y30.6549
G01 X56.0318 Y30.6135
G01 X56.0310 Y30.6009
G01 X56.0310 Y24.1463
G01 X56.0312 Y24.1390
G01 X56.0324 Y24.1295
G01 X56.0415 Y24.0831
G01 X56.0436 Y24.0759
G01 X56.0462 Y24.0688
G01 X56.0494 Y24.0619
G01 X56.0531 Y24.0553
G01 X56.0795 Y24.0161
G01 X56.0838 Y24.0105
G01 X56.0886 Y24.0051
G01 X56.8898 Y23.2038
G01 X56.8953 Y23.1987
G01 X56.9012 Y23.1940
G01 X56.9384 Y23.1693
G01 X56.9449 Y23.1653
G01 X56.9563 Y23.1599
G01 X56.9683 Y23.1559
G01 X57.0123 Y23.1466
G01 X57.0224 Y23.1451
G01 X57.0327 Y23.1446
G01 X57.0878 Y23.1446
G01 X57.2158 Y23.1284
G01 X57.3409 Y23.0956
G01 X57.4605 Y23.0471
G01 X57.5733 Y22.9833
G01 X57.6769 Y22.9061
G01 X57.7697 Y22.8165
G01 X57.8501 Y22.7154
G01 X57.9171 Y22.6049
G01 X57.9694 Y22.4865
G01 X58.0064 Y22.3626
G01 X58.0271 Y22.2351
G01 X58.0313 Y22.1058
G01 X58.0188 Y21.9773
G01 X57.9902 Y21.8512
G01 X57.9453 Y21.7296
G01 X57.8857 Y21.6150
G01 X57.8118 Y21.5092
G01 X57.7250 Y21.4136
G01 X57.6266 Y21.3300
G01 X57.5179 Y21.2592
G01 X57.4015 Y21.2033
G01 X57.2789 Y21.1626
G01 X57.1518 Y21.1377
G01 X57.0120 Y21.1285
G01 X57.0021 Y21.1268
G01 X56.9646 Y21.1176
G01 X56.9575 Y21.1156
G01 X56.9506 Y21.1131
G01 X56.9440 Y21.1101
G01 X56.9375 Y21.1066
G01 X56.9014 Y21.0818
G01 X56.8953 Y21.0772
G01 X56.8878 Y21.0704
G01 X55.1478 Y19.3314
G01 X55.0688 Y19.2683
G01 X55.0012 Y19.2273
G01 X54.9861 Y19.2196
G01 X54.9111 Y19.1886
G01 X54.8949 Y19.1833
G01 X54.8157 Y19.1637
G01 X54.7992 Y19.1609
G01 X54.7186 Y19.1535
G01 X54.4351 Y19.1529
G01 X54.4277 Y19.1522
G01 X54.4203 Y19.1510
G01 X54.3782 Y19.1423
G01 X54.3685 Y19.1396
G01 X54.3568 Y19.1348
G01 X54.3480 Y19.1299
G01 X54.3108 Y19.1043
G01 X54.3030 Y19.0983
G01 X54.2958 Y19.0916
G01 X54.2073 Y19.0001
G01 X54.1016 Y18.9154
G01 X53.9866 Y18.8442
G01 X53.8637 Y18.7878
G01 X53.7351 Y18.7468
G01 X53.6019 Y18.7217
G01 X53.4670 Y18.7133
G01 X53.3321 Y18.7217
G01 X53.1990 Y18.7468
G01 X53.0703 Y18.7878
G01 X52.9474 Y18.8442
G01 X52.8324 Y18.9154
G01 X52.7268 Y19.0001
G01 X52.6328 Y19.0973
G01 X52.5513 Y19.2054
G01 X52.4838 Y19.3222
G01 X52.4312 Y19.4470
G01 X52.3939 Y19.5771
G01 X52.3730 Y19.7106
G01 X52.3688 Y19.8460
G01 X52.3813 Y19.9805
G01 X52.4102 Y20.1127
G01 X52.4553 Y20.2402
G01 X52.5159 Y20.3613
G01 X52.5905 Y20.4741
G01 X52.6783 Y20.5768
G01 X52.7784 Y20.6676
G01 X52.8889 Y20.7459
G01 X53.0081 Y20.8102
G01 X53.1341 Y20.8590
G01 X53.2649 Y20.8916
G01 X53.3995 Y20.9083
G01 X53.5345 Y20.9083
G01 X53.6691 Y20.8916
G01 X53.8000 Y20.8590
G01 X53.9259 Y20.8102
G01 X54.0451 Y20.7459
G01 X54.1556 Y20.6676
G01 X54.2567 Y20.5757
G01 X54.2639 Y20.5698
G01 X54.2716 Y20.5645
G01 X54.3067 Y20.5429
G01 X54.3132 Y20.5395
G01 X54.3199 Y20.5365
G01 X54.3315 Y20.5327
G01 X54.3410 Y20.5307
G01 X54.3810 Y20.5242
G01 X54.3884 Y20.5235
G01 X54.3958 Y20.5233
G01 X54.4057 Y20.5239
G01 X54.4155 Y20.5255
G01 X54.4559 Y20.5341
G01 X54.4629 Y20.5361
G01 X54.4719 Y20.5394
G01 X54.4806 Y20.5436
G01 X54.4888 Y20.5486
G01 X54.5222 Y20.5713
G01 X54.5297 Y20.5772
G01 X54.5349 Y20.5820
G01 X55.9487 Y21.9958
G01 X55.9554 Y22.0032
G01 X55.9600 Y22.0092
G01 X55.9859 Y22.0486
G01 X55.9895 Y22.0552
G01 X55.9926 Y22.0621
G01 X55.9951 Y22.0692
G01 X55.9971 Y22.0765
G01 X56.0063 Y22.1199
G01 X56.0076 Y22.1295
G01 X56.0079 Y22.1368
G01 X56.0076 Y22.1465
G01 X56.0067 Y22.1537
G01 X55.9977 Y22.1976
G01 X55.9959 Y22.2049
G01 X55.9935 Y22.2122
G01 X55.9906 Y22.2192
G01 X55.9872 Y22.2259
G01 X55.9614 Y22.2654
G01 X55.9554 Y22.2735
G01 X55.9487 Y22.2810
G01 X54.8914 Y23.3387
G01 X54.8283 Y23.4178
G01 X54.7873 Y23.4854
G01 X54.7796 Y23.5004
G01 X54.7486 Y23.5754
G01 X54.7433 Y23.5916
G01 X54.7238 Y23.6707
G01 X54.7209 Y23.6876
G01 X54.7136 Y23.7678
G01 X54.7130 Y26.6609
G01 X54.7125 Y26.6712
G01 X54.7109 Y26.6814
G01 X54.7005 Y26.7298
G01 X54.6981 Y26.7369
G01 X54.6952 Y26.7438
G01 X54.6906 Y26.7527
G01 X54.6866 Y26.7590
G01 X54.6588 Y26.7970
G01 X54.6526 Y26.8043
G01 X54.6476 Y26.8093
G01 X54.6403 Y26.8154
G01 X54.6325 Y26.8209
G01 X54.5922 Y26.8447
G01 X54.5855 Y26.8481
G01 X54.5786 Y26.8510
G01 X54.5691 Y26.8540
G01 X54.5618 Y26.8557
G01 X54.5102 Y26.8616
G01 X54.4976 Y26.8619
G01 X54.4850 Y26.8605
G01 X54.4727 Y26.8576
G01 X54.4279 Y26.8439
G01 X54.4187 Y26.8401
G01 X54.4121 Y26.8366
G01 X54.4058 Y26.8327
G01 X54.3979 Y26.8268
G01 X54.3645 Y26.7977
G01 X54.3588 Y26.7924
G01 X54.3503 Y26.7825
G01 X54.3012 Y26.7173
G01 X54.2071 Y26.6199
G01 X54.1975 Y26.6120
G01 X54.1890 Y26.6034
G01 X54.1579 Y26.5647
G01 X54.1535 Y26.5587
G01 X54.1472 Y26.5481
G01 X54.1441 Y26.5414
G01 X54.1414 Y26.5345
G01 X54.1387 Y26.5250
G01 X54.1280 Y26.4789
G01 X54.1265 Y26.4689
G01 X54.1260 Y26.4613
G01 X54.1255 Y26.0132
G01 X54.1181 Y25.9330
G01 X54.1153 Y25.9160
G01 X54.0957 Y25.8370
G01 X54.0904 Y25.8207
G01 X54.0594 Y25.7457
G01 X54.0517 Y25.7307
G01 X54.0107 Y25.6631
G01 X53.9476 Y25.5841
G01 X52.1532 Y23.7892
G01 X52.1468 Y23.7822
G01 X52.1411 Y23.7746
G01 X52.1174 Y23.7395
G01 X52.1113 Y23.7285
G01 X52.1074 Y23.7192
G01 X52.1039 Y23.7071
G01 X52.0954 Y23.6631
G01 X52.0944 Y23.6560
G01 X52.0940 Y23.6464
G01 X52.0935 Y21.4412
G01 X52.0861 Y21.3610
G01 X52.0833 Y21.3440
G01 X52.0637 Y21.2650
G01 X52.0584 Y21.2487
G01 X52.0274 Y21.1737
G01 X52.0197 Y21.1587
G01 X51.9787 Y21.0911
G01 X51.9156 Y21.0121
G01 X50.9376 Y20.0336
G01 X50.9312 Y20.0266
G01 X50.9243 Y20.0172
G01 X50.9006 Y19.9805
G01 X50.8958 Y19.9717
G01 X50.8928 Y19.9648
G01 X50.8904 Y19.9577
G01 X50.8879 Y19.9480
G01 X50.8803 Y19.9049
G01 X50.8793 Y19.8975
G01 X50.8788 Y19.8875
G01 X50.8817 Y19.7780
G01 X50.8696 Y19.6433
G01 X50.8408 Y19.5113
G01 X50.7957 Y19.3838
G01 X50.7351 Y19.2627
G01 X50.6606 Y19.1499
G01 X50.5727 Y19.0472
G01 X50.4726 Y18.9564
G01 X50.3621 Y18.8781
G01 X50.2429 Y18.8138
G01 X50.1170 Y18.7650
G01 X49.9861 Y18.7324
G01 X49.8515 Y18.7157
G01 X49.7165 Y18.7157
G01 X49.5819 Y18.7324
G01 X49.4511 Y18.7650
G01 X49.3251 Y18.8138
G01 X49.2059 Y18.8781
G01 X49.0955 Y18.9563
G01 X49.0086 Y19.0355
G01 X49.0011 Y19.0417
G01 X48.9931 Y19.0471
G01 X48.9553 Y19.0698
G01 X48.9489 Y19.0731
G01 X48.9422 Y19.0758
G01 X48.9306 Y19.0793
G01 X48.8830 Y19.0871
G01 X48.8735 Y19.0879
G01 X48.8640 Y19.0879
G01 X48.8569 Y19.0872
G01 X48.8498 Y19.0860
G01 X48.8094 Y19.0769
G01 X48.8001 Y19.0743
G01 X48.7911 Y19.0708
G01 X48.7824 Y19.0665
G01 X48.7742 Y19.0614
G01 X48.7403 Y19.0376
G01 X48.7345 Y19.0330
G01 X48.7291 Y19.0281
G01 X48.7225 Y19.0208
G01 X48.7166 Y19.0130
G01 X48.6919 Y18.9742
G01 X48.6884 Y18.9676
G01 X48.6855 Y18.9608
G01 X48.6830 Y18.9538
G01 X48.6811 Y18.9466
G01 X48.6725 Y18.9036
G01 X48.6715 Y18.8963
G01 X48.6711 Y18.8864
G01 X48.6711 Y16.9053
G01 X48.6652 Y16.8582
G01 X48.6529 Y16.8255
G01 X48.6295 Y16.7918
G01 X48.6132 Y16.7755
G01 X48.5795 Y16.7521
G01 X48.5468 Y16.7398
G01 X48.4997 Y16.7339
G01 X16.5244 Y16.7339
G01 X16.4772 Y16.7398
G01 X16.4445 Y16.7521
G01 X16.4104 Y16.7758
G01 X16.3918 Y16.7941
G01 X16.3764 Y16.8151
G01 X16.3614 Y16.8486
G01 X16.3530 Y16.9023
G01 X16.3529 Y25.6046
G01 X16.3525 Y25.6118
G01 X16.3515 Y25.6189
G01 X16.3435 Y25.6604
G01 X16.3412 Y25.6698
G01 X16.3380 Y25.6789
G01 X16.3340 Y25.6876
G01 X16.3291 Y25.6960
G01 X16.3040 Y25.7325
G01 X16.2962 Y25.7419
G01 X16.2892 Y25.7487
G01 X16.2816 Y25.7548
G01 X16.2451 Y25.7799
G01 X16.2389 Y25.7836
G01 X16.2325 Y25.7869
G01 X16.2235 Y25.7905
G01 X16.2143 Y25.7933
G01 X16.1657 Y25.8027
G01 X16.1586 Y25.8035
G01 X16.1514 Y25.8038
G01 X16.1442 Y25.8035
G01 X16.1370 Y25.8027
G01 X16.0908 Y25.7938
G01 X16.0838 Y25.7920
G01 X16.0769 Y25.7897
G01 X16.0681 Y25.7859
G01 X16.0576 Y25.7799
G01 X16.0209 Y25.7547
G01 X16.0109 Y25.7464
G01 X14.5206 Y24.2566
G01 X14.5139 Y24.2492
G01 X14.5093 Y24.2431
G01 X14.4834 Y24.2039
G01 X14.4789 Y24.1952
G01 X14.4751 Y24.1862
G01 X14.4718 Y24.1744
G01 X14.4632 Y24.1305
G01 X14.4619 Y24.1185
G01 X14.4621 Y24.1065
G01 X14.4637 Y24.0946
G01 X14.4713 Y24.0555
G01 X14.4738 Y24.0455
G01 X14.4773 Y24.0358
G01 X14.4978 Y23.9870
G01 X14.5351 Y23.8569
G01 X14.5560 Y23.7236
G01 X14.5597 Y23.5880
G01 X14.5476 Y23.4533
G01 X14.5188 Y23.3213
G01 X14.4737 Y23.1938
G01 X14.4131 Y23.0727
G01 X14.3386 Y22.9599
G01 X14.2507 Y22.8572
G01 X14.1506 Y22.7664
G01 X14.0401 Y22.6881
G01 X13.9209 Y22.6238
G01 X13.7950 Y22.5750
G01 X13.6641 Y22.5424
G01 X13.5295 Y22.5257
G01 X13.3945 Y22.5257
G01 X13.2599 Y22.5424
G01 X13.1291 Y22.5750
G01 X13.0031 Y22.6238
G01 X12.8896 Y22.6849
G01 X12.8787 Y22.6900
G01 X12.8530 Y22.7000
G01 X12.8409 Y22.7035
G01 X12.8310 Y22.7053
G01 X12.7988 Y22.7089
G01 X8.9728 Y22.7090
G01 X8.9653 Y22.7088
G01 X8.9529 Y22.7070
G01 X8.9036 Y22.6957
G01 X8.8967 Y22.6935
G01 X8.8900 Y22.6908
G01 X8.8835 Y22.6876
G01 X8.8752 Y22.6826
G01 X8.8361 Y22.6539
G01 X8.8282 Y22.6474
G01 X8.8210 Y22.6401
G01 X8.7895 Y22.6030
G01 X8.6896 Y22.5124
G01 X8.5791 Y22.4341
G01 X8.4599 Y22.3698
G01 X8.3340 Y22.3210
G01 X8.2031 Y22.2884
G01 X8.0759 Y22.2724
G01 X8.0664 Y22.2707
G01 X8.0570 Y22.2681
G01 X8.0121 Y22.2521
G01 X8.0051 Y22.2493
G01 X7.9962 Y22.2448
G01 X7.9878 Y22.2394
G01 X7.9799 Y22.2332
G01 X7.9413 Y22.1944
G01 X7.9351 Y22.1871
G01 X7.9283 Y22.1771
G01 X7.9238 Y22.1687
G01 X7.9201 Y22.1598
G01 X7.9031 Y22.1079
G01 X7.9012 Y22.0985
G01 X7.9003 Y22.0913
G01 X7.9000 Y22.0816
G01 X7.9006 Y22.0720
G01 X7.9064 Y22.0224
G01 X7.9085 Y22.0127
G01 X7.9115 Y22.0032
G01 X7.9155 Y21.9941
G01 X7.9203 Y21.9855
G01 X7.9456 Y21.9453
G01 X7.9499 Y21.9391
G01 X7.9548 Y21.9334
G01 X9.4848 Y20.4032
G01 X9.4900 Y20.3983
G01 X9.4975 Y20.3925
G01 X9.5345 Y20.3674
G01 X9.5433 Y20.3624
G01 X9.5548 Y20.3574
G01 X9.5669 Y20.3539
G01 X9.6109 Y20.3454
G01 X9.6180 Y20.3444
G01 X9.6276 Y20.3440
G01 X11.4518 Y20.3434
G01 X11.5320 Y20.3361
G01 X11.5490 Y20.3332
G01 X11.6280 Y20.3137
G01 X11.6443 Y20.3084
G01 X11.7193 Y20.2774
G01 X11.7343 Y20.2697
G01 X11.8019 Y20.2287
G01 X11.8809 Y20.1656
G01 X17.7398 Y14.3072
G01 X17.7450 Y14.3023
G01 X17.7525 Y14.2965
G01 X17.7895 Y14.2714
G01 X17.8005 Y14.2653
G01 X17.8122 Y14.2606
G01 X17.8219 Y14.2579
G01 X17.8659 Y14.2494
G01 X17.8730 Y14.2484
G01 X17.8826 Y14.2480
G01 X29.6330 Y14.2480
G01 X29.6402 Y14.2484
G01 X29.6473 Y14.2494
G01 X29.6910 Y14.2579
G01 X29.6978 Y14.2599
G01 X29.7046 Y14.2623
G01 X29.7111 Y14.2652
G01 X29.7195 Y14.2698
G01 X29.7529 Y14.2904
G01 X29.7624 Y14.2973
G01 X29.8512 Y14.3779
G01 X29.9569 Y14.4517
G01 X30.0715 Y14.5113
G01 X30.1930 Y14.5562
G01 X30.3192 Y14.5848
G01 X30.4477 Y14.5973
G01 X30.5770 Y14.5931
G01 X30.7045 Y14.5724
G01 X30.8284 Y14.5354
G01 X30.9468 Y14.4831
G01 X31.0572 Y14.4161
G01 X31.1584 Y14.3357
G01 X31.2479 Y14.2429
G01 X31.3252 Y14.1393
G01 X31.3890 Y14.0265
G01 X31.4375 Y13.9069
G01 X31.4703 Y13.7818
G01 X31.4864 Y13.6538
G01 X31.4864 Y13.5242
G01 X31.4703 Y13.3962
G01 X31.4375 Y13.2711
G01 X31.3890 Y13.1515
G01 X31.3252 Y13.0387
G01 X31.2479 Y12.9351
G01 X31.1960 Y12.8812
G01 X31.1898 Y12.8742
G01 X31.1843 Y12.8666
G01 X31.1592 Y12.8279
G01 X31.1540 Y12.8172
G01 X31.1516 Y12.8104
G01 X31.1496 Y12.8035
G01 X31.1409 Y12.7608
G01 X31.1394 Y12.7510
G01 X31.1390 Y12.7411
G01 X31.1390 Y10.2459
G01 X31.1394 Y10.2360
G01 X31.1404 Y10.2287
G01 X31.1490 Y10.1858
G01 X31.1508 Y10.1788
G01 X31.1532 Y10.1720
G01 X31.1560 Y10.1654
G01 X31.1592 Y10.1590
G01 X31.1843 Y10.1204
G01 X31.1898 Y10.1128
G01 X31.1960 Y10.1058
G01 X31.2479 Y10.0519
G01 X31.3252 Y9.9483
G01 X31.3890 Y9.8355
G01 X31.4375 Y9.7159
G01 X31.4703 Y9.5908
G01 X31.4864 Y9.4628
G01 X31.4864 Y9.3332
G01 X31.4703 Y9.2052
G01 X31.4375 Y9.0801
G01 X31.3890 Y8.9605
G01 X31.3252 Y8.8477
G01 X31.2479 Y8.7441
G01 X31.1584 Y8.6513
G01 X31.0572 Y8.5709
G01 X30.9466 Y8.5038
G01 X30.8284 Y8.4511
G01 X30.7046 Y8.4147
G01 X30.5770 Y8.3939
G01 X30.4477 Y8.3897
G01 X30.3192 Y8.4022
G01 X30.1930 Y8.4308
G01 X30.0715 Y8.4757
G01 X29.9569 Y8.5353
G01 X29.8511 Y8.6092
G01 X29.7555 Y8.6960
G01 X29.6718 Y8.7944
G01 X29.6011 Y8.9031
G01 X29.5452 Y9.0195
G01 X29.5045 Y9.1421
G01 X29.4796 Y9.2692
G01 X29.4712 Y9.3980
G01 X29.4796 Y9.5268
G01 X29.5045 Y9.6539
G01 X29.5452 Y9.7765
G01 X29.6011 Y9.8929
G01 X29.6717 Y10.0013
G01 X29.7650 Y10.1100
G01 X29.7931 Y10.1482
G01 X29.7973 Y10.1544
G01 X29.8010 Y10.1609
G01 X29.8043 Y10.1677
G01 X29.8070 Y10.1747
G01 X29.8091 Y10.1819
G01 X29.8194 Y10.2304
G01 X29.8209 Y10.2432
G01 X29.8209 Y12.7333
G01 X29.8196 Y12.7454
G01 X29.8098 Y12.7937
G01 X29.8075 Y12.8009
G01 X29.8047 Y12.8078
G01 X29.8002 Y12.8167
G01 X29.7962 Y12.8231
G01 X29.7711 Y12.8600
G01 X29.7651 Y12.8673
G01 X29.7601 Y12.8724
G01 X29.7529 Y12.8787
G01 X29.7471 Y12.8829
G01 X29.7120 Y12.9066
G01 X29.7011 Y12.9127
G01 X29.6919 Y12.9165
G01 X29.6799 Y12.9200
G01 X29.6364 Y12.9286
G01 X29.6292 Y12.9296
G01 X29.6195 Y12.9300
G01 X17.5042 Y12.9305
G01 X17.4240 Y12.9379
G01 X17.4070 Y12.9407
G01 X17.3280 Y12.9603
G01 X17.3117 Y12.9656
G01 X17.2367 Y12.9966
G01 X17.2217 Y13.0043
G01 X17.1541 Y13.0453
G01 X17.0751 Y13.1084
G01 X11.2162 Y18.9668
G01 X11.2092 Y18.9732
G01 X11.2035 Y18.9775
G01 X11.1665 Y19.0026
G01 X11.1599 Y19.0064
G01 X11.1532 Y19.0098
G01 X11.1462 Y19.0126
G01 X11.1365 Y19.0155
G01 X11.0902 Y19.0246
G01 X11.0830 Y19.0256
G01 X11.0758 Y19.0260
G01 X9.2492 Y19.0265
G01 X9.1690 Y19.0339
G01 X9.1520 Y19.0367
G01 X9.0730 Y19.0563
G01 X9.0567 Y19.0616
G01 X8.9817 Y19.0926
G01 X8.9667 Y19.1003
G01 X8.8991 Y19.1413
G01 X8.8201 Y19.2044
G01 X7.9985 Y20.0255
G01 X7.9911 Y20.0322
G01 X7.9831 Y20.0381
G01 X7.9407 Y20.0646
G01 X7.9297 Y20.0703
G01 X7.9204 Y20.0738
G01 X7.9108 Y20.0764
G01 X7.9010 Y20.0780
G01 X7.8539 Y20.0833
G01 X7.8465 Y20.0837
G01 X7.8366 Y20.0833
G01 X7.8268 Y20.0820
G01 X7.8171 Y20.0797
G01 X7.7651 Y20.0618
G01 X7.7583 Y20.0588
G01 X7.7497 Y20.0540
G01 X7.7435 Y20.0498
G01 X7.7358 Y20.0436
G01 X7.6985 Y20.0070
G01 X7.6919 Y19.9994
G01 X7.6861 Y19.9913
G01 X7.6811 Y19.9826
G01 X7.6771 Y19.9735
G01 X7.6602 Y19.9261
G01 X7.6581 Y19.9190
G01 X7.6562 Y19.9093
G01 X7.6554 Y19.9019
G01 X7.6551 Y19.8945
G01 X7.6556 Y19.8846
G01 X7.6605 Y19.8374
G01 X7.6618 Y19.8298
G01 X7.6644 Y19.8199
G01 X7.6817 Y19.7696
G01 X7.7066 Y19.6434
G01 X7.7153 Y19.5148
G01 X7.7066 Y19.3862
G01 X7.6817 Y19.2603
G01 X7.6402 Y19.1381
G01 X7.5836 Y19.0230
G01 X7.5116 Y18.9160
G01 X7.4267 Y18.8191
G01 X7.3298 Y18.7342
G01 X7.2228 Y18.6623
G01 X7.1077 Y18.6056
G01 X6.9855 Y18.5641
G01 X6.8596 Y18.5392
G01 X6.7310 Y18.5305
G01 X6.6024 Y18.5392
G01 X6.4765 Y18.5641
G01 X6.3543 Y18.6056
G01 X6.2392 Y18.6623
G01 X6.1322 Y18.7342
G01 X6.0353 Y18.8191
G01 X5.9504 Y18.9160
G01 X5.8785 Y19.0230
G01 X5.8218 Y19.1381
G01 X5.7803 Y19.2603
G01 X5.7554 Y19.3862
G01 X5.7467 Y19.5148
G01 X5.7554 Y19.6435
G01 X5.7706 Y19.7219
G01 X5.7713 Y19.7312
G01 X5.7723 Y19.7642
G01 X5.7721 Y19.7743
G01 X5.7709 Y19.7843
G01 X5.7687 Y19.7942
G01 X5.7575 Y19.8305
G01 X5.7539 Y19.8398
G01 X5.7506 Y19.8465
G01 X5.7454 Y19.8550
G01 X5.7233 Y19.8859
G01 X5.7173 Y19.8930
G01 X4.3852 Y21.2258
G01 X4.3777 Y21.2326
G01 X4.3696 Y21.2386
G01 X4.3345 Y21.2618
G01 X4.3256 Y21.2667
G01 X4.3163 Y21.2707
G01 X4.3042 Y21.2744
G01 X4.2603 Y21.2835
G01 X4.2483 Y21.2849
G01 X4.2363 Y21.2849
G01 X4.2243 Y21.2835
G01 X4.1805 Y21.2744
G01 X4.1711 Y21.2717
G01 X4.1598 Y21.2671
G01 X4.1492 Y21.2611
G01 X4.1101 Y21.2346
G01 X4.1044 Y21.2300
G01 X4.0991 Y21.2250
G01 X4.0941 Y21.2196
G01 X4.0896 Y21.2138
G01 X4.0649 Y21.1768
G01 X4.0599 Y21.1684
G01 X4.0567 Y21.1618
G01 X4.0540 Y21.1549
G01 X4.0518 Y21.1479
G01 X4.0502 Y21.1407
G01 X4.0421 Y21.0992
G01 X4.0409 Y21.0892
G01 X4.0407 Y21.0817
G01 X4.0411 Y21.0742
G01 X4.0424 Y21.0643
G01 X4.0515 Y21.0210
G01 X4.0534 Y21.0140
G01 X4.0567 Y21.0051
G01 X4.2528 Y20.5398
G01 X4.5805 Y19.8167
G01 X4.9261 Y19.1017
G01 X5.2893 Y18.3981
G01 X5.6715 Y17.7019
G01 X6.0716 Y17.0159
G01 X6.4904 Y16.3384
G01 X6.9242 Y15.6759
G01 X7.3757 Y15.0226
G01 X7.8456 Y14.3793
G01 X8.3292 Y13.7524
G01 X8.8297 Y13.1363
G01 X9.3464 Y12.5328
G01 X9.8802 Y11.9413
G01 X10.4271 Y11.3653
G01 X10.9888 Y10.8043
G01 X11.5628 Y10.2592
G01 X12.1544 Y9.7254
G01 X12.7573 Y9.2091
G01 X13.3740 Y8.7082
G01 X14.0030 Y8.2235
G01 X14.6441 Y7.7552
G01 X15.2975 Y7.3031
G01 X15.9600 Y6.8698
G01 X16.6352 Y6.4524
G01 X17.3234 Y6.0510
G01 X18.0197 Y5.6688
G01 X18.7255 Y5.3049
G01 X19.4406 Y4.9589
G01 X20.1638 Y4.6318
G01 X20.8933 Y4.3239
G01 X21.6328 Y4.0344
G01 X22.3818 Y3.7629
G01 X23.1352 Y3.5116
G01 X23.8926 Y3.2810
G01 X24.6575 Y3.0685
G01 X25.4306 Y2.8757
G01 X26.2058 Y2.7035
G01 X26.9856 Y2.5511
G01 X27.7684 Y2.4186
G01 X28.5523 Y2.3069
G01 X29.3407 Y2.2151
G01 X30.1317 Y2.1437
G01 X30.9242 Y2.0927
G01 X31.7177 Y2.0621
G01 X32.5122 Y2.0519
G01 X33.3088 Y2.0621
G01 X34.1024 Y2.0927
G01 X34.8923 Y2.1435
G01 X35.6833 Y2.2154
G01 X36.4717 Y2.3071
G01 X37.2581 Y2.4192
G01 X38.0410 Y2.5516
G01 X38.8207 Y2.7040
G01 X39.5959 Y2.8762
G01 X40.3666 Y3.0688
G01 X41.1315 Y3.2808
G01 X41.8939 Y3.5135
G01 X42.6472 Y3.7647
G01 X43.3938 Y4.0354
G01 X44.1333 Y4.3249
G01 X44.8646 Y4.6338
G01 X45.5883 Y4.9610
G01 X46.3010 Y5.3060
G01 X47.0087 Y5.6715
G01 X47.7048 Y6.0538
G01 X48.3908 Y6.4539
G01 X49.0666 Y6.8713
G01 X49.7290 Y7.3047
G01 X50.3819 Y7.7567
G01 X51.0251 Y8.2266
G01 X51.6540 Y8.7113
G01 X52.2687 Y9.2107
G01 X52.8716 Y9.7269
G01 X53.4614 Y10.2590
G01 X54.0373 Y10.8058
G01 X54.6007 Y11.3693
G01 X55.1458 Y11.9433
G01 X55.6774 Y12.5330
G01 X56.1942 Y13.1363
G01 X56.6968 Y13.7545
G01 X57.1815 Y14.3835
G01 X57.6484 Y15.0231
G01 X58.1014 Y15.6780
G01 X58.5360 Y16.3426
G01 X58.9526 Y17.0162
G01 X59.3522 Y17.7022
G01 X59.7345 Y18.3984
G01 X60.1001 Y19.1060
G01 X60.4450 Y19.8187
G01 X60.7722 Y20.5425
G01 X61.0806 Y21.2743
G01 X61.3706 Y22.0137
G01 X61.6408 Y22.7604
G01 X61.8921 Y23.5136
G01 X62.1247 Y24.2755
G01 X62.3367 Y25.0410
G01 X62.5288 Y25.8116
G01 X62.7010 Y26.5842
G01 X62.8534 Y27.3635
G01 X62.9855 Y28.1469
G01 X63.0979 Y28.9353
G01 X63.1894 Y29.7217
G01 X63.2608 Y30.5127
G01 X63.3123 Y31.3051
G01 X63.3429 Y32.0987
G01 X63.3531 Y32.8927
G01 X63.3430 Y33.6868
G01 X63.3119 Y34.4803
G01 X63.2608 Y35.2753
G01 X63.2196 Y35.7335
G01 X63.2184 Y35.7427
G01 X63.2163 Y35.7517
G01 X63.2054 Y35.7901
G01 X63.2022 Y35.7991
G01 X63.1980 Y35.8078
G01 X63.1944 Y35.8141
G01 X63.1903 Y35.8200
G01 X63.1660 Y35.8514
G01 X63.1595 Y35.8590
G01 X63.1523 Y35.8659
G01 X63.1423 Y35.8734
G01 X63.1087 Y35.8946
G01 X63.1001 Y35.8994
G01 X63.0933 Y35.9025
G01 X63.0840 Y35.9058
G01 X63.0768 Y35.9076
G01 X63.0349 Y35.9157
G01 X63.0255 Y35.9168
G01 X62.4556 Y35.9170
G01 X62.4483 Y35.9168
G01 X62.4362 Y35.9151
G01 X62.3903 Y35.9058
G01 X62.3831 Y35.9035
G01 X62.3762 Y35.9007
G01 X62.3694 Y35.8974
G01 X62.3630 Y35.8936
G01 X62.3259 Y35.8685
G01 X62.3203 Y35.8642
G01 X62.3132 Y35.8578
G01 X62.3084 Y35.8526
G01 X62.3025 Y35.8451
G01 X62.2788 Y35.8101
G01 X62.2748 Y35.8037
G01 X62.2713 Y35.7971
G01 X62.2675 Y35.7879
G01 X62.2652 Y35.7807
G01 X62.2554 Y35.7324
G01 X62.2544 Y35.7252
G01 X62.2540 Y35.7179
G01 X62.2540 Y34.8153
G01 X62.2545 Y34.8050
G01 X62.2606 Y34.7658
G01 X62.2629 Y34.7565
G01 X62.2662 Y34.7475
G01 X62.2808 Y34.7162
G01 X62.2855 Y34.7074
G01 X62.3205 Y34.6549
G01 X62.3772 Y34.5397
G01 X62.4187 Y34.4175
G01 X62.4436 Y34.2916
G01 X62.4523 Y34.1630
G01 X62.4436 Y34.0344
G01 X62.4187 Y33.9085
G01 X62.3772 Y33.7863
G01 X62.3206 Y33.6712
G01 X62.2486 Y33.5642
G01 X62.1637 Y33.4673
G01 X62.0668 Y33.3824
G01 X61.9598 Y33.3105
G01 X61.8447 Y33.2538
G01 X61.7225 Y33.2123
G01 X61.5966 Y33.1874
G01 X61.4680 Y33.1787
G01 X61.3394 Y33.1874
G01 X61.2135 Y33.2123
G01 X61.0913 Y33.2538
G01 X60.9762 Y33.3104
G01 X60.8692 Y33.3824
G01 X60.7723 Y33.4673
G01 X60.6874 Y33.5642
G01 X60.6155 Y33.6712
G01 X60.5588 Y33.7863
G01 X60.5173 Y33.9085
G01 X60.4924 Y34.0344
G01 X60.4837 Y34.1630
G01 X60.4924 Y34.2916
G01 X60.5173 Y34.4175
G01 X60.5588 Y34.5397
G01 X60.6155 Y34.6548
G01 X60.6874 Y34.7618
G01 X60.7723 Y34.8587
G01 X60.8675 Y34.9423
G01 X60.8744 Y34.9490
G01 X60.8806 Y34.9563
G01 X60.9089 Y34.9948
G01 X60.9129 Y35.0010
G01 X60.9164 Y35.0074
G01 X60.9195 Y35.0142
G01 X60.9220 Y35.0211
G01 X60.9246 Y35.0306
G01 X60.9342 Y35.0746
G01 X60.9356 Y35.0841
G01 X60.9360 Y35.0937
G01 X60.9360 Y35.7154
G01 X60.9356 Y35.7252
G01 X60.9342 Y35.7348
G01 X60.9254 Y35.7783
G01 X60.9217 Y35.7902
G01 X60.9176 Y35.7993
G01 X60.9112 Y35.8101
G01 X60.8847 Y35.8489
G01 X60.8801 Y35.8543
G01 X60.8751 Y35.8594
G01 X60.8679 Y35.8657
G01 X60.8621 Y35.8699
G01 X60.8249 Y35.8949
G01 X60.8183 Y35.8986
G01 X60.8092 Y35.9027
G01 X60.8021 Y35.9051
G01 X60.7924 Y35.9075
G01 X60.7514 Y35.9156
G01 X60.7442 Y35.9166
G01 X60.7369 Y35.9170
G01 X56.8742 Y35.9175
G01 X56.7940 Y35.9249
G01 X56.7770 Y35.9277
G01 X56.6980 Y35.9473
G01 X56.6817 Y35.9526
G01 X56.6067 Y35.9836
G01 X56.5917 Y35.9913
G01 X56.5241 Y36.0323
G01 X56.4451 Y36.0954
G01 X55.5264 Y37.0141
G01 X55.4633 Y37.0931
G01 X55.4223 Y37.1607
G01 X55.4146 Y37.1757
G01 X55.3836 Y37.2507
G01 X55.3783 Y37.2670
G01 X55.3588 Y37.3460
G01 X55.3559 Y37.3630
G01 X55.3486 Y37.4432
G01 X55.3480 Y38.8615
G01 X55.3472 Y38.8744
G01 X55.3382 Y38.9227
G01 X55.3362 Y38.9297
G01 X55.3336 Y38.9365
G01 X55.3305 Y38.9431
G01 X55.3269 Y38.9494
G01 X55.3068 Y38.9826
G01 X55.3010 Y38.9907
G01 X55.2463 Y39.0530
G01 X55.1769 Y39.1574
G01 X55.1211 Y39.2703
G01 X55.0807 Y39.3889
G01 X55.0563 Y39.5116
G01 X55.0480 Y39.6367
G01 X55.0563 Y39.7618
G01 X55.0807 Y39.8851
G01 X55.1211 Y40.0036
G01 X55.1768 Y40.1164
G01 X55.2463 Y40.2203
G01 X55.3291 Y40.3146
G01 X55.4234 Y40.3975
G01 X55.5278 Y40.4673
G01 X55.6400 Y40.5225
G01 X55.7586 Y40.5630
G01 X55.8819 Y40.5874
G01 X56.0070 Y40.5957
G01 X56.1321 Y40.5874
G01 X56.2549 Y40.5630
G01 X56.3741 Y40.5225
G01 X56.4862 Y40.4673
G01 X56.5906 Y40.3975
G01 X56.6849 Y40.3146
G01 X56.7677 Y40.2203
G01 X56.8372 Y40.1164
G01 X56.8928 Y40.0038
G01 X56.9328 Y39.8851
G01 X56.9577 Y39.7616
G01 X56.9660 Y39.6367
G01 X56.9577 Y39.5118
G01 X56.9328 Y39.3889
G01 X56.8928 Y39.2701
G01 X56.8371 Y39.1574
G01 X56.7677 Y39.0530
G01 X56.7131 Y38.9907
G01 X56.7072 Y38.9826
G01 X56.6858 Y38.9473
G01 X56.6804 Y38.9365
G01 X56.6779 Y38.9297
G01 X56.6758 Y38.9227
G01 X56.6676 Y38.8795
G01 X56.6665 Y38.8718
G01 X56.6660 Y38.8615
G01 X56.6660 Y37.8216
G01 X56.6664 Y37.8120
G01 X56.6678 Y37.8025
G01 X56.6759 Y37.7609
G01 X56.6778 Y37.7536
G01 X56.6812 Y37.7441
G01 X56.6856 Y37.7351
G01 X56.6894 Y37.7285
G01 X56.7145 Y37.6915
G01 X56.7219 Y37.6822
G01 X57.1115 Y37.2925
G01 X57.1168 Y37.2878
G01 X57.1225 Y37.2835
G01 X57.1574 Y37.2598
G01 X57.1661 Y37.2545
G01 X57.1728 Y37.2512
G01 X57.1846 Y37.2468
G01 X57.1944 Y37.2444
G01 X57.2359 Y37.2364
G01 X57.2430 Y37.2354
G01 X57.2526 Y37.2350
G01 X62.8130 Y37.2350
G01 X62.8225 Y37.2357
G01 X62.8295 Y37.2367
G01 X62.8740 Y37.2464
G01 X62.8855 Y37.2496
G01 X62.8944 Y37.2531
G01 X62.9028 Y37.2575
G01 X62.9128 Y37.2641
G01 X62.9493 Y37.2915
G01 X62.9551 Y37.2964
G01 X62.9604 Y37.3017
G01 X62.9684 Y37.3114
G01 X62.9739 Y37.3199
G01 X62.9971 Y37.3624
G01 X63.0022 Y37.3739
G01 X63.0051 Y37.3836
G01 X63.0074 Y37.3960
G01 X63.0111 Y37.4460
G01 X63.0111 Y37.4555
G01 X63.0102 Y37.4649
G01 X62.9849 Y37.6416
G01 X62.8534 Y38.4219
G01 X62.7005 Y39.2038
G01 X62.5283 Y39.9765
G01 X62.3362 Y40.7470
G01 X62.1242 Y41.5125
G01 X61.8923 Y42.2719
G01 X61.6403 Y43.0276
G01 X61.3696 Y43.7743
G01 X61.0796 Y44.5137
G01 X60.7712 Y45.2457
G01 X60.4435 Y45.9687
G01 X60.0991 Y46.6815
G01 X59.7347 Y47.3874
G01 X59.3512 Y48.0858
G01 X58.9524 Y48.7696
G01 X58.5350 Y49.4449
G01 X58.0998 Y50.1095
G01 X57.6483 Y50.7629
G01 X57.1799 Y51.4041
G01 X56.6948 Y52.0330
G01 X56.1927 Y52.6512
G01 X55.6759 Y53.2546
G01 X55.1438 Y53.8442
G01 X54.5969 Y54.4201
G01 X54.0352 Y54.9812
G01 X53.4593 Y55.5280
G01 X52.8696 Y56.0601
G01 X52.2667 Y56.5764
G01 X51.6500 Y57.0773
G01 X51.0210 Y57.5620
G01 X50.3799 Y58.0303
G01 X49.7265 Y58.4823
G01 X49.0619 Y58.9170
G01 X48.3866 Y59.3344
G01 X47.7006 Y59.7345
G01 X47.0043 Y60.1167
G01 X46.2985 Y60.4805
G01 X45.5834 Y60.8266
G01 X44.8602 Y61.1537
G01 X44.1283 Y61.4626
G01 X43.3888 Y61.7520
G01 X42.6422 Y62.0226
G01 X41.8888 Y62.2738
G01 X41.1290 Y62.5052
G01 X40.3640 Y62.7177
G01 X39.5959 Y62.9092
G01 X38.8182 Y63.0820
G01 X38.0385 Y63.2344
G01 X37.2556 Y63.3668
G01 X36.4718 Y63.4786
G01 X35.6833 Y63.5704
G01 X34.8923 Y63.6418
G01 X34.0998 Y63.6928
G01 X33.3037 Y63.7234
G01 X32.5118 Y63.7336
G01 X31.7177 Y63.7234
G01 X30.9216 Y63.6928
G01 X30.1291 Y63.6417
G01 X29.3407 Y63.5701
G01 X28.5523 Y63.4784
G01 X27.7659 Y63.3663
G01 X26.9830 Y63.2338
G01 X26.2033 Y63.0815
G01 X25.4255 Y62.9087
G01 X24.6574 Y62.7166
G01 X23.8925 Y62.5047
G01 X23.1326 Y62.2728
G01 X22.3769 Y62.0207
G01 X21.6326 Y61.7510
G01 X20.8931 Y61.4615
G01 X20.1617 Y61.1527
G01 X19.4381 Y60.8256
G01 X18.7206 Y60.4784
G01 X18.0153 Y60.1139
G01 X17.3192 Y59.7317
G01 X16.6332 Y59.3316
G01 X15.9596 Y58.9155
G01 X15.2923 Y58.4790
G01 X15.2513 Y58.4502
G01 X15.2457 Y58.4457
G01 X15.2404 Y58.4409
G01 X15.2071 Y58.4050
G01 X15.2022 Y58.3993
G01 X15.1951 Y58.3889
G01 X15.1893 Y58.3778
G01 X15.1857 Y58.3685
G01 X15.1705 Y58.3221
G01 X15.1680 Y58.3100
G01 X15.1670 Y58.2978
G01 X15.1671 Y58.2904
G01 X15.1677 Y58.2830
G01 X15.1745 Y58.2315
G01 X15.1763 Y58.2242
G01 X15.1794 Y58.2148
G01 X15.1824 Y58.2080
G01 X15.1871 Y58.1993
G01 X15.2123 Y58.1601
G01 X15.2193 Y58.1506
G01 X15.2257 Y58.1435
G01 X15.2487 Y58.1205
G01 X15.2541 Y58.1158
G01 X15.2597 Y58.1115
G01 X15.2989 Y58.0850
G01 X15.3055 Y58.0814
G01 X15.3147 Y58.0773
G01 X15.3243 Y58.0741
G01 X15.3316 Y58.0724
G01 X15.3731 Y58.0644
G01 X15.3827 Y58.0632
G01 X15.3899 Y58.0630
G01 X16.1204 Y58.0630
G01 X16.1281 Y58.0633
G01 X16.1358 Y58.0642
G01 X16.1768 Y58.0716
G01 X16.1839 Y58.0734
G01 X16.1908 Y58.0756
G01 X16.2020 Y58.0805
G01 X16.2393 Y58.1029
G01 X16.2454 Y58.1069
G01 X16.2531 Y58.1130
G01 X16.3353 Y58.1845
G01 X16.4423 Y58.2565
G01 X16.5575 Y58.3132
G01 X16.6792 Y58.3547
G01 X16.8056 Y58.3796
G01 X16.9342 Y58.3883
G01 X17.0628 Y58.3796
G01 X17.1887 Y58.3547
G01 X17.3109 Y58.3132
G01 X17.4260 Y58.2565
G01 X17.5330 Y58.1846
G01 X17.6299 Y58.0997
G01 X17.7148 Y58.0028
G01 X17.7867 Y57.8958
G01 X17.8434 Y57.7807
G01 X17.8849 Y57.6585
G01 X17.9098 Y57.5326
G01 X17.9185 Y57.4040
G01 X17.9098 Y57.2754
G01 X17.8849 Y57.1495
G01 X17.8434 Y57.0273
G01 X17.7867 Y56.9122
G01 X17.7148 Y56.8052
G01 X17.6299 Y56.7083
G01 X17.5330 Y56.6234
G01 X17.4260 Y56.5515
G01 X17.3109 Y56.4948
G01 X17.1887 Y56.4533
G01 X17.0628 Y56.4284
G01 X16.9342 Y56.4197
G01 X16.8056 Y56.4284
G01 X16.6792 Y56.4533
G01 X16.5575 Y56.4948
G01 X16.4423 Y56.5514
G01 X16.3353 Y56.6234
G01 X16.2493 Y56.6982
G01 X16.2414 Y56.7038
G01 X16.2083 Y56.7239
G01 X16.1976 Y56.7296
G01 X16.1908 Y56.7323
G01 X16.1839 Y56.7346
G01 X16.1744 Y56.7368
G01 X16.1358 Y56.7438
G01 X16.1281 Y56.7447
G01 X16.1204 Y56.7450
G01 X15.0114 Y56.7455
G01 X14.9313 Y56.7529
G01 X14.9143 Y56.7557
G01 X14.8352 Y56.7753
G01 X14.8190 Y56.7806
G01 X14.7440 Y56.8116
G01 X14.7290 Y56.8193
G01 X14.6614 Y56.8603
G01 X14.5823 Y56.9234
G01 X14.0945 Y57.4107
G01 X14.0889 Y57.4159
G01 X14.0830 Y57.4206
G01 X14.0468 Y57.4456
G01 X14.0404 Y57.4493
G01 X14.0338 Y57.4525
G01 X14.0269 Y57.4552
G01 X14.0198 Y57.4574
G01 X13.9770 Y57.4677
G01 X13.9646 Y57.4693
G01 X13.9546 Y57.4694
G01 X13.9087 Y57.4645
G01 X13.9015 Y57.4632
G01 X13.8944 Y57.4614
G01 X13.8875 Y57.4592
G01 X13.8786 Y57.4553
G01 X13.8416 Y57.4363
G01 X13.8350 Y57.4323
G01 X13.8287 Y57.4278
G01 X13.3700 Y57.0742
G01 X12.7553 Y56.5748
G01 X12.1504 Y56.0569
G01 X11.5627 Y55.5265
G01 X10.9868 Y54.9797
G01 X10.4251 Y54.4181
G01 X9.8764 Y53.8403
G01 X9.3449 Y53.2506
G01 X8.8298 Y52.6491
G01 X8.3272 Y52.0310
G01 X7.8441 Y51.4041
G01 X7.5297 Y50.9733
G01 X7.5233 Y50.9627
G01 X7.5064 Y50.9285
G01 X7.5026 Y50.9197
G01 X7.5003 Y50.9130
G01 X7.4980 Y50.9037
G01 X7.4966 Y50.8943
G01 X7.4929 Y50.8563
G01 X7.4927 Y50.8444
G01 X7.4935 Y50.8349
G01 X7.4953 Y50.8255
G01 X7.5057 Y50.7862
G01 X7.5089 Y50.7769
G01 X7.5131 Y50.7680
G01 X7.5180 Y50.7595
G01 X7.5428 Y50.7238
G01 X7.5513 Y50.7141
G01 X8.4821 Y49.7828
G01 X8.5314 Y49.7228
G01 X8.5858 Y49.6363
G01 X8.5933 Y49.6215
G01 X8.6245 Y49.5465
G01 X8.6297 Y49.5304
G01 X8.6493 Y49.4513
G01 X8.6521 Y49.4344
G01 X8.6595 Y49.3544
G01 X8.6600 Y49.2829
G01 X8.6606 Y49.2727
G01 X8.6617 Y49.2651
G01 X8.6688 Y49.2277
G01 X8.6705 Y49.2207
G01 X8.6736 Y49.2117
G01 X8.6765 Y49.2051
G01 X8.6799 Y49.1987
G01 X8.7039 Y49.1596
G01 X8.7100 Y49.1519
G01 X8.7816 Y49.0697
G01 X8.8535 Y48.9627
G01 X8.9102 Y48.8475
G01 X8.9517 Y48.7258
G01 X8.9766 Y48.5994
G01 X8.9853 Y48.4708
G01 X8.9766 Y48.3422
G01 X8.9517 Y48.2163
G01 X8.9102 Y48.0941
G01 X8.8536 Y47.9790
G01 X8.7816 Y47.8720
G01 X8.6967 Y47.7751
G01 X8.5998 Y47.6902
G01 X8.4928 Y47.6183
G01 X8.3777 Y47.5616
G01 X8.2555 Y47.5201
G01 X8.1296 Y47.4952
G01 X8.0010 Y47.4865
G01 X7.8724 Y47.4952
G01 X7.7465 Y47.5201
G01 X7.6243 Y47.5616
G01 X7.5092 Y47.6183
G01 X7.4022 Y47.6902
G01 X7.3053 Y47.7751
G01 X7.2204 Y47.8720
G01 X7.1485 Y47.9790
G01 X7.0918 Y48.0941
G01 X7.0503 Y48.2163
G01 X7.0254 Y48.3422
G01 X7.0167 Y48.4708
G01 X7.0254 Y48.5994
G01 X7.0503 Y48.7258
G01 X7.0918 Y48.8475
G01 X7.1485 Y48.9627
G01 X7.1740 Y49.0008
G01 X7.1787 Y49.0090
G01 X7.1960 Y49.0471
G01 X7.2002 Y49.0590
G01 X7.2024 Y49.0688
G01 X7.2036 Y49.0788
G01 X7.2063 Y49.1164
G01 X7.2061 Y49.1289
G01 X7.2048 Y49.1389
G01 X7.2032 Y49.1463
G01 X7.1906 Y49.1891
G01 X7.1858 Y49.2001
G01 X7.1797 Y49.2104
G01 X7.1571 Y49.2423
G01 X7.1494 Y49.2515
G01 X6.8495 Y49.5519
G01 X6.8440 Y49.5570
G01 X6.8340 Y49.5646
G01 X6.7916 Y49.5911
G01 X6.7829 Y49.5957
G01 X6.7737 Y49.5995
G01 X6.7642 Y49.6023
G01 X6.7545 Y49.6041
G01 X6.7079 Y49.6095
G01 X6.6958 Y49.6102
G01 X6.6885 Y49.6099
G01 X6.6813 Y49.6090
G01 X6.6742 Y49.6077
G01 X6.6672 Y49.6058
G01 X6.6198 Y49.5900
G01 X6.6129 Y49.5872
G01 X6.6041 Y49.5827
G01 X6.5937 Y49.5759
G01 X6.5842 Y49.5678
G01 X6.5505 Y49.5351
G01 X6.5439 Y49.5277
G01 X6.5381 Y49.5196
G01 X6.4880 Y49.4429
G01 X6.0714 Y48.7693
G01 X5.6705 Y48.0810
G01 X5.2883 Y47.3849
G01 X4.9239 Y46.6795
G01 X4.5779 Y45.9644
G01 X4.2507 Y45.2407
G01 X3.9425 Y44.5089
G01 X3.6525 Y43.7693
G01 X3.3824 Y43.0227
G01 X3.1320 Y42.2718
G01 X2.9000 Y41.5125
G01 X2.6880 Y40.7470
G01 X2.4952 Y39.9739
G01 X2.3230 Y39.2013
G01 X2.1706 Y38.4220
G01 X2.0386 Y37.6386
G01 X1.9261 Y36.8502
G01 X1.8344 Y36.0612
G01 X1.7631 Y35.2703
G01 X1.7116 Y34.4777
G01 X1.6811 Y33.6842
G01 X1.6709 Y32.8902
G01 X1.6811 Y32.0961
G01 X1.7122 Y31.3026
G01 X1.7632 Y30.5101
G01 X1.8346 Y29.7192
G01 X1.9261 Y28.9328
G01 X2.0391 Y28.1438
G01 X2.1711 Y27.3610
G01 X2.3230 Y26.5843
G01 X2.4970 Y25.8040
G01 X2.5012 Y25.7919
G01 X2.5240 Y25.7379
G01 X2.5285 Y25.7292
G01 X2.5324 Y25.7229
G01 X2.5382 Y25.7151
G01 X2.5466 Y25.7062
G01 X2.5836 Y25.6745
G01 X2.5894 Y25.6701
G01 X2.5955 Y25.6661
G01 X2.6019 Y25.6626
G01 X2.6085 Y25.6596
G01 X2.6176 Y25.6564
G01 X2.6578 Y25.6442
G01 X2.6673 Y25.6418
G01 X2.6770 Y25.6403
G01 X2.6868 Y25.6399
G01 X2.6966 Y25.6403
G01 X2.7450 Y25.6464
G01 X2.7544 Y25.6485
G01 X2.7659 Y25.6524
G01 X2.7768 Y25.6576
G01 X2.8170 Y25.6815
G01 X2.8269 Y25.6885
G01 X2.8342 Y25.6950
G01 X2.8393 Y25.7004
G01 X2.8439 Y25.7060
G01 X2.8697 Y25.7421
G01 X2.8762 Y25.7523
G01 X2.8804 Y25.7610
G01 X2.8838 Y25.7701
G01 X2.8862 Y25.7795
G01 X2.8953 Y25.8224
G01 X2.8964 Y25.8293
G01 X2.8970 Y25.8386
G01 X2.8969 Y30.8143
G01 X2.8958 Y30.8246
G01 X2.8888 Y30.8632
G01 X2.8872 Y30.8704
G01 X2.8852 Y30.8773
G01 X2.8816 Y30.8864
G01 X2.8784 Y30.8929
G01 X2.8571 Y30.9281
G01 X2.8531 Y30.9342
G01 X2.8470 Y30.9419
G01 X2.7755 Y31.0241
G01 X2.7035 Y31.1312
G01 X2.6468 Y31.2463
G01 X2.6053 Y31.3685
G01 X2.5804 Y31.4944
G01 X2.5717 Y31.6230
G01 X2.5804 Y31.7516
G01 X2.6053 Y31.8775
G01 X2.6468 Y31.9997
G01 X2.7035 Y32.1148
G01 X2.7754 Y32.2218
G01 X2.8603 Y32.3187
G01 X2.9572 Y32.4036
G01 X3.0642 Y32.4755
G01 X3.1793 Y32.5322
G01 X3.3015 Y32.5737
G01 X3.4274 Y32.5986
G01 X3.5560 Y32.6073
G01 X3.6846 Y32.5986
G01 X3.8105 Y32.5737
G01 X3.9327 Y32.5322
G01 X4.0478 Y32.4755
G01 X4.1548 Y32.4036
G01 X4.2517 Y32.3187
G01 X4.3366 Y32.2218
G01 X4.4085 Y32.1148
G01 X4.4652 Y31.9997
G01 X4.5067 Y31.8775
G01 X4.5316 Y31.7516
G01 X4.5403 Y31.6230
G01 X4.5316 Y31.4944
G01 X4.5067 Y31.3685
G01 X4.4652 Y31.2463
G01 X4.4086 Y31.1312
G01 X4.3366 Y31.0241
G01 X4.2650 Y30.9419
G01 X4.2589 Y30.9342
G01 X4.2549 Y30.9281
G01 X4.2336 Y30.8929
G01 X4.2304 Y30.8864
G01 X4.2268 Y30.8773
G01 X4.2248 Y30.8704
G01 X4.2232 Y30.8632
G01 X4.2162 Y30.8246
G01 X4.2151 Y30.8143
G01 X4.2150 Y25.1216
G01 X4.2154 Y25.1120
G01 X4.2164 Y25.1049
G01 X4.2255 Y25.0585
G01 X4.2284 Y25.0488
G01 X4.2312 Y25.0418
G01 X4.2346 Y25.0351
G01 X4.2398 Y25.0264
G01 X4.2635 Y24.9915
G01 X4.2693 Y24.9840
G01 X4.2742 Y24.9788
G01 X4.9256 Y24.3269
G01 X4.9887 Y24.2479
G01 X5.0297 Y24.1803
G01 X5.0374 Y24.1653
G01 X5.0684 Y24.0903
G01 X5.0737 Y24.0740
G01 X5.0933 Y23.9950
G01 X5.0961 Y23.9780
G01 X5.1035 Y23.8978
G01 X5.1040 Y22.4546
G01 X5.1042 Y22.4474
G01 X5.1054 Y22.4378
G01 X5.1145 Y22.3915
G01 X5.1166 Y22.3842
G01 X5.1192 Y22.3771
G01 X5.1224 Y22.3703
G01 X5.1261 Y22.3637
G01 X5.1525 Y22.3245
G01 X5.1599 Y22.3152
G01 X5.4960 Y21.9790
G01 X5.5017 Y21.9737
G01 X5.5099 Y21.9674
G01 X5.5513 Y21.9405
G01 X5.5578 Y21.9370
G01 X5.5645 Y21.9340
G01 X5.5739 Y21.9308
G01 X5.5810 Y21.9290
G01 X5.6270 Y21.9215
G01 X5.6371 Y21.9204
G01 X5.6446 Y21.9203
G01 X5.6522 Y21.9207
G01 X5.6597 Y21.9217
G01 X5.6671 Y21.9233
G01 X5.7101 Y21.9340
G01 X5.7193 Y21.9370
G01 X5.7259 Y21.9399
G01 X5.7324 Y21.9432
G01 X5.7406 Y21.9483
G01 X5.7775 Y21.9766
G01 X5.7851 Y21.9830
G01 X5.7904 Y21.9884
G01 X5.7952 Y21.9941
G01 X5.7996 Y22.0002
G01 X5.8047 Y22.0087
G01 X5.8245 Y22.0458
G01 X5.8287 Y22.0547
G01 X5.8327 Y22.0663
G01 X5.8353 Y22.0783
G01 X5.8393 Y22.1297
G01 X5.8394 Y22.1368
G01 X5.8389 Y22.1440
G01 X5.8376 Y22.1534
G01 X5.8360 Y22.1604
G01 X5.8339 Y22.1673
G01 X5.8176 Y22.2135
G01 X5.8112 Y22.2261
G01 X5.7653 Y22.3017
G01 X5.7576 Y22.3167
G01 X5.7266 Y22.3917
G01 X5.7213 Y22.4080
G01 X5.7018 Y22.4870
G01 X5.6989 Y22.5040
G01 X5.6916 Y22.5842
G01 X5.6916 Y25.4218
G01 X5.6989 Y25.5020
G01 X5.7018 Y25.5190
G01 X5.7213 Y25.5980
G01 X5.7266 Y25.6143
G01 X5.7576 Y25.6893
G01 X5.7653 Y25.7043
G01 X5.8063 Y25.7719
G01 X5.8694 Y25.8509
G01 X6.5341 Y26.5156
G01 X6.6131 Y26.5787
G01 X6.6807 Y26.6197
G01 X6.6957 Y26.6274
G01 X6.7707 Y26.6584
G01 X6.7870 Y26.6637
G01 X6.8660 Y26.6832
G01 X6.8830 Y26.6861
G01 X6.9632 Y26.6934
G01 X8.5334 Y26.6940
G01 X8.5406 Y26.6942
G01 X8.5502 Y26.6954
G01 X8.5941 Y26.7039
G01 X8.6014 Y26.7058
G01 X8.6085 Y26.7083
G01 X8.6155 Y26.7113
G01 X8.6221 Y26.7148
G01 X8.6616 Y26.7411
G01 X8.6673 Y26.7453
G01 X8.6728 Y26.7499
G01 X8.9371 Y27.0142
G01 X8.9445 Y27.0235
G01 X8.9682 Y27.0584
G01 X8.9735 Y27.0671
G01 X8.9768 Y27.0738
G01 X8.9804 Y27.0832
G01 X8.9831 Y27.0929
G01 X8.9920 Y27.1392
G01 X8.9928 Y27.1464
G01 X8.9930 Y27.1536
G01 X8.9930 Y29.9573
G01 X8.9926 Y29.9671
G01 X8.9906 Y29.9793
G01 X8.9804 Y30.0243
G01 X8.9776 Y30.0335
G01 X8.9749 Y30.0402
G01 X8.9706 Y30.0488
G01 X8.9655 Y30.0570
G01 X8.9327 Y30.0997
G01 X8.9261 Y30.1068
G01 X8.9188 Y30.1132
G01 X8.9110 Y30.1188
G01 X8.9026 Y30.1237
G01 X8.8591 Y30.1462
G01 X8.8479 Y30.1505
G01 X8.8386 Y30.1530
G01 X8.8315 Y30.1543
G01 X8.8244 Y30.1551
G01 X8.7777 Y30.1572
G01 X8.7678 Y30.1572
G01 X8.7579 Y30.1562
G01 X8.7458 Y30.1535
G01 X8.7364 Y30.1503
G01 X8.6934 Y30.1321
G01 X8.6828 Y30.1268
G01 X8.6748 Y30.1217
G01 X8.5792 Y30.0541
G01 X8.4599 Y29.9898
G01 X8.3340 Y29.9410
G01 X8.2031 Y29.9084
G01 X8.0685 Y29.8917
G01 X7.9335 Y29.8917
G01 X7.7989 Y29.9084
G01 X7.6681 Y29.9410
G01 X7.5421 Y29.9898
G01 X7.4229 Y30.0541
G01 X7.3124 Y30.1324
G01 X7.2123 Y30.2232
G01 X7.1245 Y30.3259
G01 X7.0499 Y30.4387
G01 X6.9893 Y30.5598
G01 X6.9442 Y30.6873
G01 X6.9153 Y30.8195
G01 X6.9028 Y30.9540
G01 X6.9061 Y31.0605
G01 X6.9059 Y31.0708
G01 X6.9047 Y31.0809
G01 X6.8971 Y31.1240
G01 X6.8954 Y31.1313
G01 X6.8931 Y31.1385
G01 X6.8902 Y31.1455
G01 X6.8869 Y31.1522
G01 X6.8830 Y31.1587
G01 X6.8580 Y31.1971
G01 X6.8537 Y31.2026
G01 X6.8474 Y31.2096
G01 X5.8694 Y32.1881
G01 X5.8063 Y32.2671
G01 X5.7653 Y32.3347
G01 X5.7576 Y32.3497
G01 X5.7266 Y32.4247
G01 X5.7213 Y32.4410
G01 X5.7018 Y32.5200
G01 X5.6989 Y32.5370
G01 X5.6916 Y32.6173
G01 X5.6909 Y32.8756
G01 X5.6903 Y32.8827
G01 X5.6892 Y32.8897
G01 X5.6821 Y32.9263
G01 X5.6798 Y32.9356
G01 X5.6767 Y32.9446
G01 X5.6716 Y32.9553
G01 X5.6486 Y32.9931
G01 X5.6411 Y33.0031
G01 X5.6278 Y33.0182
G01 X5.5579 Y33.1198
G01 X5.5025 Y33.2298
G01 X5.4621 Y33.3458
G01 X5.4374 Y33.4663
G01 X5.4291 Y33.5890
G01 X5.4374 Y33.7116
G01 X5.4621 Y33.8322
G01 X5.5025 Y33.9486
G01 X5.5579 Y34.0581
G01 X5.6275 Y34.1597
G01 X5.6401 Y34.1736
G01 X5.6473 Y34.1830
G01 X5.6716 Y34.2226
G01 X5.6767 Y34.2333
G01 X5.6805 Y34.2446
G01 X5.6892 Y34.2882
G01 X5.6906 Y34.2977
G01 X5.6910 Y34.3073
G01 X5.6910 Y34.7742
G01 X5.6898 Y34.7870
G01 X5.6818 Y34.8304
G01 X5.6799 Y34.8374
G01 X5.6775 Y34.8443
G01 X5.6746 Y34.8510
G01 X5.6712 Y34.8574
G01 X5.6498 Y34.8926
G01 X5.6441 Y34.9006
G01 X5.5893 Y34.9636
G01 X5.5198 Y35.0676
G01 X5.4642 Y35.1802
G01 X5.4242 Y35.2989
G01 X5.3993 Y35.4224
G01 X5.3910 Y35.5473
G01 X5.3993 Y35.6722
G01 X5.4242 Y35.7951
G01 X5.4642 Y35.9139
G01 X5.5199 Y36.0266
G01 X5.5893 Y36.1310
G01 X5.6720 Y36.2251
G01 X5.7663 Y36.3075
G01 X5.8708 Y36.3774
G01 X5.9829 Y36.4326
G01 X6.1021 Y36.4731
G01 X6.2249 Y36.4975
G01 X6.3500 Y36.5058
G01 X6.4751 Y36.4975
G01 X6.5984 Y36.4731
G01 X6.7170 Y36.4326
G01 X6.8292 Y36.3774
G01 X6.9337 Y36.3075
G01 X7.0280 Y36.2251
G01 X7.1107 Y36.1310
G01 X7.1801 Y36.0266
G01 X7.2359 Y35.9137
G01 X7.2763 Y35.7951
G01 X7.3007 Y35.6724
G01 X7.3090 Y35.5473
G01 X7.3007 Y35.4222
G01 X7.2763 Y35.2989
G01 X7.2359 Y35.1804
G01 X7.1802 Y35.0676
G01 X7.1107 Y34.9636
G01 X7.0559 Y34.9006
G01 X7.0502 Y34.8926
G01 X7.0288 Y34.8574
G01 X7.0254 Y34.8510
G01 X7.0225 Y34.8443
G01 X7.0188 Y34.8328
G01 X7.0106 Y34.7896
G01 X7.0093 Y34.7793
G01 X7.0090 Y34.7716
G01 X7.0090 Y34.3044
G01 X7.0100 Y34.2927
G01 X7.0174 Y34.2497
G01 X7.0201 Y34.2404
G01 X7.0248 Y34.2292
G01 X7.0456 Y34.1914
G01 X7.0523 Y34.1818
G01 X7.1091 Y34.1098
G01 X7.1719 Y34.0041
G01 X7.2195 Y33.8910
G01 X7.2521 Y33.7721
G01 X7.2685 Y33.6503
G01 X7.2685 Y33.5276
G01 X7.2521 Y33.4058
G01 X7.2195 Y33.2869
G01 X7.1718 Y33.1737
G01 X7.0823 Y33.0221
G01 X7.0768 Y33.0114
G01 X7.0734 Y33.0024
G01 X7.0708 Y32.9931
G01 X7.0692 Y32.9836
G01 X7.0643 Y32.9446
G01 X7.0639 Y32.9320
G01 X7.0646 Y32.9221
G01 X7.0658 Y32.9146
G01 X7.0768 Y32.8717
G01 X7.0791 Y32.8645
G01 X7.0820 Y32.8574
G01 X7.0881 Y32.8463
G01 X7.1132 Y32.8100
G01 X7.1179 Y32.8040
G01 X7.1231 Y32.7984
G01 X7.7816 Y32.1394
G01 X7.7886 Y32.1333
G01 X7.7943 Y32.1291
G01 X7.8343 Y32.1032
G01 X7.8427 Y32.0986
G01 X7.8493 Y32.0957
G01 X7.8561 Y32.0932
G01 X7.8630 Y32.0913
G01 X7.8724 Y32.0894
G01 X7.9146 Y32.0833
G01 X7.9223 Y32.0825
G01 X7.9352 Y32.0825
G01 X8.0012 Y32.0867
G01 X8.1977 Y32.0749
G01 X8.2052 Y32.0747
G01 X8.2151 Y32.0753
G01 X8.2225 Y32.0765
G01 X8.2298 Y32.0781
G01 X8.2392 Y32.0812
G01 X8.2844 Y32.0999
G01 X8.2951 Y32.1061
G01 X8.3050 Y32.1136
G01 X8.3396 Y32.1479
G01 X8.3445 Y32.1534
G01 X8.3490 Y32.1593
G01 X8.3542 Y32.1676
G01 X8.3576 Y32.1741
G01 X8.3744 Y32.2119
G01 X8.3771 Y32.2187
G01 X8.3793 Y32.2257
G01 X8.3810 Y32.2328
G01 X8.3822 Y32.2400
G01 X8.3829 Y32.2498
G01 X8.3839 Y32.2933
G01 X8.3835 Y32.3006
G01 X8.3825 Y32.3078
G01 X8.3798 Y32.3197
G01 X8.3774 Y32.3266
G01 X8.3609 Y32.3693
G01 X8.3564 Y32.3779
G01 X8.2965 Y32.4795
G01 X8.2666 Y32.5517
G01 X8.2613 Y32.5680
G01 X8.2418 Y32.6470
G01 X8.2389 Y32.6640
G01 X8.2316 Y32.7442
G01 X8.2310 Y34.7716
G01 X8.2305 Y34.7819
G01 X8.2294 Y34.7896
G01 X8.2212 Y34.8328
G01 X8.2192 Y34.8397
G01 X8.2166 Y34.8466
G01 X8.2135 Y34.8532
G01 X8.2099 Y34.8595
G01 X8.1898 Y34.8926
G01 X8.1841 Y34.9006
G01 X8.1293 Y34.9636
G01 X8.0598 Y35.0676
G01 X8.0042 Y35.1802
G01 X7.9642 Y35.2989
G01 X7.9393 Y35.4224
G01 X7.9310 Y35.5473
G01 X7.9393 Y35.6722
G01 X7.9642 Y35.7951
G01 X8.0042 Y35.9139
G01 X8.0599 Y36.0266
G01 X8.1293 Y36.1310
G01 X8.2120 Y36.2251
G01 X8.3063 Y36.3075
G01 X8.4108 Y36.3774
G01 X8.5229 Y36.4326
G01 X8.6421 Y36.4731
G01 X8.7649 Y36.4975
G01 X8.8900 Y36.5058
G01 X9.0156 Y36.4974
G01 X9.0333 Y36.4942
G01 X9.0457 Y36.4933
G01 X9.0985 Y36.4941
G01 X9.1056 Y36.4950
G01 X9.1127 Y36.4963
G01 X9.1196 Y36.4982
G01 X9.1264 Y36.5006
G01 X9.1738 Y36.5228
G01 X9.1804 Y36.5264
G01 X9.1887 Y36.5320
G01 X9.1964 Y36.5384
G01 X9.2035 Y36.5456
G01 X9.2362 Y36.5844
G01 X9.2418 Y36.5926
G01 X9.2455 Y36.5992
G01 X9.2487 Y36.6060
G01 X9.2522 Y36.6154
G01 X9.2663 Y36.6661
G01 X9.2681 Y36.6783
G01 X9.2683 Y36.6906
G01 X9.2674 Y36.7004
G01 X9.2609 Y36.7454
G01 X9.2582 Y36.7571
G01 X9.2551 Y36.7662
G01 X9.2510 Y36.7750
G01 X9.2462 Y36.7833
G01 X9.2215 Y36.8213
G01 X9.2129 Y36.8323
G01 X8.4089 Y37.6364
G01 X8.3597 Y37.6963
G01 X8.3050 Y37.7837
G01 X8.2976 Y37.7980
G01 X8.2666 Y37.8730
G01 X8.2613 Y37.8893
G01 X8.2417 Y37.9679
G01 X8.2389 Y37.9848
G01 X8.2316 Y38.0650
G01 X8.2309 Y42.6772
G01 X8.2298 Y42.6877
G01 X8.2217 Y42.7308
G01 X8.2197 Y42.7381
G01 X8.2171 Y42.7452
G01 X8.2116 Y42.7566
G01 X8.1915 Y42.7903
G01 X8.1857 Y42.7990
G01 X8.1807 Y42.8051
G01 X8.1293 Y42.8636
G01 X8.0598 Y42.9680
G01 X8.0042 Y43.0802
G01 X7.9642 Y43.1988
G01 X7.9393 Y43.3223
G01 X7.9310 Y43.4472
G01 X7.9393 Y43.5721
G01 X7.9642 Y43.6951
G01 X8.0042 Y43.8143
G01 X8.0598 Y43.9264
G01 X8.1293 Y44.0309
G01 X8.2121 Y44.1251
G01 X8.3063 Y44.2079
G01 X8.4108 Y44.2774
G01 X8.5229 Y44.3330
G01 X8.6421 Y44.3730
G01 X8.7649 Y44.3979
G01 X8.8900 Y44.4057
G01 X9.0151 Y44.3979
G01 X9.1384 Y44.3730
G01 X9.2570 Y44.3330
G01 X9.3692 Y44.2774
G01 X9.4737 Y44.2079
G01 X9.5679 Y44.1251
G01 X9.6507 Y44.0309
G01 X9.7202 Y43.9264
G01 X9.7759 Y43.8141
G01 X9.8163 Y43.6951
G01 X9.8407 Y43.5723
G01 X9.8490 Y43.4472
G01 X9.8407 Y43.3221
G01 X9.8163 Y43.1988
G01 X9.7759 Y43.0803
G01 X9.7202 Y42.9680
G01 X9.6506 Y42.8634
G01 X9.5959 Y42.8005
G01 X9.5902 Y42.7925
G01 X9.5688 Y42.7574
G01 X9.5655 Y42.7510
G01 X9.5626 Y42.7443
G01 X9.5602 Y42.7375
G01 X9.5582 Y42.7305
G01 X9.5502 Y42.6877
G01 X9.5491 Y42.6772
G01 X9.5490 Y38.4434
G01 X9.5494 Y38.4337
G01 X9.5504 Y38.4264
G01 X9.5585 Y38.3854
G01 X9.5609 Y38.3757
G01 X9.5643 Y38.3663
G01 X9.5686 Y38.3573
G01 X9.5738 Y38.3487
G01 X9.5975 Y38.3138
G01 X9.6018 Y38.3081
G01 X9.6082 Y38.3011
G01 X11.3476 Y36.5612
G01 X11.3546 Y36.5548
G01 X11.3622 Y36.5491
G01 X11.3963 Y36.5261
G01 X11.4072 Y36.5204
G01 X11.4140 Y36.5176
G01 X11.4210 Y36.5154
G01 X11.4612 Y36.5050
G01 X11.4703 Y36.5033
G01 X11.5551 Y36.4975
G01 X11.6784 Y36.4731
