;FLAVOR:Marlin
;TIME:7132
;Filament used: 2.9315m
;Layer height: 0.2
;MINX:92.343
;MINY:67.142
;MINZ:0.2
;MAXX:130.756
;MAXY:152.794
;MAXZ:20
;TARGET_MACHINE.NAME:Creality Ender-3 Pro
;Generated with Cura_SteamEngine 5.6.0
M82 ;absolute extrusion mode
; Ender 3 Custom Start G-code
G92 E0 ; Reset Extruder
G28 ; Home all axes
G1 Z5.0 F3000 ; Move Z Axis up a bit during heating to not damage bed
M104 S120 ; Start heating up the nozzle most of the way
M190 S75 ; Start heating the bed, wait until target temperature reached
M109 S230.0 ; Finish heating the nozzle
G1 Z2.0 F3000 ; Move Z Axis up little to prevent scratching of Heat Bed
G1 X0.1 Y20 Z0.3 F5000.0 ; Move to start position
G1 X0.1 Y200.0 Z0.3 F1500.0 E15 ; Draw the first line
G1 X0.4 Y200.0 Z0.3 F5000.0 ; Move to side a little
G1 X0.4 Y20 Z0.3 F1500.0 E30 ; Draw the second line
G92 E0 ; Reset Extruder
G1 Z2.0 F3000 ; Move Z Axis up little to prevent scratching of Heat Bed
G1 X5 Y20 Z0.3 F5000.0 ; Move over to prevent blob squish
G92 E0
G92 E0
G1 F1500 E-0.8
;LAYER_COUNT:100
;LAYER:0
M107
G0 F6000 X94.318 Y69.694 Z0.2
;TYPE:SKIRT
G1 F1500 E0
G1 F900 X94.419 Y69.584 E0.00497
G1 X96.177 Y68.283 E0.07771
G1 X97.852 Y67.533 E0.13875
G1 X99.631 Y67.142 E0.19933
G1 X101.767 Y67.318 E0.27062
G1 X104 Y68.089 E0.34919
G1 X109.875 Y72.706 E0.59771
G1 X115.703 Y78.843 E0.8792
G1 X119.345 Y84.037 E1.09019
G1 X122.985 Y91.267 E1.35942
G1 X123.598 Y93.088 E1.42333
G1 X124.415 Y93.504 E1.45382
G1 X125.817 Y95.021 E1.52252
G1 X126.967 Y96.921 E1.59639
G1 X127.428 Y99.026 E1.66806
G1 X127.454 Y101.867 E1.76256
G1 X127.708 Y102.065 E1.77327
G1 X129.308 Y104.126 E1.86005
G1 X130.402 Y106.439 E1.94515
G1 X130.72 Y108.99 E2.03066
G1 X130.756 Y111.071 E2.09988
G1 X130.219 Y113.634 E2.18698
G1 X129.066 Y115.903 E2.27163
G1 X127.622 Y117.484 E2.34285
G1 X127.659 Y120.568 E2.44543
G1 X127.203 Y122.487 E2.51103
G1 X126.134 Y124.584 E2.58932
G1 X124.609 Y125.994 E2.6584
G1 X123.971 Y126.377 E2.68315
G1 X123.355 Y128.337 E2.75148
G1 X119.832 Y135.654 E3.02159
G1 X115.971 Y141.333 E3.24999
G1 X111.037 Y146.744 E3.49355
G1 X105.149 Y151.612 E3.74765
G1 X103.302 Y152.429 E3.81482
G1 X102.316 Y152.729 E3.8491
G1 X100.311 Y152.794 E3.91582
G1 X99.273 Y152.681 E3.95055
G1 X97.368 Y151.994 E4.0179
G1 X95.782 Y150.946 E4.08113
G1 X94.428 Y149.354 E4.15064
G1 X93.912 Y148.566 E4.18197
G1 X93.123 Y146.314 E4.26133
G1 X93.111 Y141.614 E4.41766
G1 X93.239 Y140.575 E4.45248
G1 X94.067 Y138.544 E4.52543
G1 X98.012 Y133.06 E4.75012
G1 X100.629 Y128.228 E4.93289
G1 X102.571 Y123.199 E5.11219
G1 X103.884 Y117.918 E5.29318
G1 X104.512 Y112.565 E5.47245
G1 X104.444 Y107.041 E5.65619
G1 X103.699 Y101.69 E5.83588
G1 X102.293 Y96.474 E6.01556
G1 X100.213 Y91.423 E6.19724
G1 X97.503 Y86.67 E6.37922
G1 X93.405 Y81.206 E6.60638
G1 X92.747 Y79.626 E6.66331
G1 X92.403 Y78.42 E6.70502
G1 X92.343 Y74.231 E6.84436
G1 X92.87 Y72.013 E6.92019
G1 X94.318 Y69.694 E7.01112
G0 F6000 X94.657 Y69.906
G1 F900 X96.381 Y68.63 E7.08246
G1 X97.977 Y67.915 E7.14062
G1 X99.658 Y67.546 E7.19787
G1 X101.685 Y67.713 E7.26551
G1 X103.805 Y68.445 E7.34011
G1 X109.628 Y73.021 E7.58643
G1 X115.375 Y79.073 E7.86402
G1 X119.017 Y84.267 E8.07501
G1 X122.606 Y91.395 E8.34044
G1 X123.271 Y93.37 E8.40975
G1 X124.167 Y93.826 E8.44319
G1 X125.498 Y95.266 E8.50841
G1 X126.59 Y97.07 E8.57855
G1 X127.028 Y99.072 E8.64671
G1 X127.056 Y102.078 E8.7467
G1 X127.392 Y102.31 E8.76028
G1 X128.964 Y104.335 E8.84554
G1 X130.013 Y106.553 E8.92715
G1 X130.32 Y108.997 E9.00907
G1 X130.355 Y111.035 E9.07687
G1 X129.839 Y113.497 E9.16053
G1 X128.733 Y115.674 E9.24175
G1 X127.22 Y117.331 E9.31638
G1 X127.258 Y120.525 E9.42262
G1 X126.825 Y122.348 E9.48494
G1 X125.811 Y124.337 E9.55919
G1 X124.366 Y125.673 E9.62465
G1 X123.634 Y126.113 E9.65306
G1 X122.973 Y128.217 E9.72641
G1 X119.501 Y135.429 E9.99263
G1 X115.675 Y141.063 E10.21914
G1 X110.741 Y146.474 E10.4627
G1 X104.938 Y151.268 E10.71305
G1 X103.185 Y152.046 E10.77684
G1 X102.249 Y152.331 E10.80938
G1 X100.354 Y152.396 E10.87245
G1 X99.362 Y152.288 E10.90564
G1 X97.551 Y151.635 E10.96967
G1 X96.049 Y150.642 E11.02955
G1 X94.763 Y149.135 E11.09545
G1 X94.274 Y148.388 E11.12514
G1 X93.523 Y146.244 E11.2007
G1 X93.508 Y141.663 E11.35306
G1 X93.63 Y140.675 E11.38617
G1 X94.418 Y138.742 E11.4556
G1 X98.352 Y133.273 E11.67967
G1 X100.991 Y128.401 E11.86396
G1 X102.953 Y123.319 E12.04515
G1 X104.278 Y117.991 E12.22776
G1 X104.912 Y112.584 E12.40883
G1 X104.844 Y107.013 E12.59413
G1 X104.092 Y101.61 E12.77557
G1 X102.672 Y96.344 E12.95697
G1 X100.575 Y91.251 E13.14017
G1 X97.836 Y86.447 E13.32409
G1 X93.755 Y81.006 E13.55031
G1 X93.132 Y79.516 E13.60402
G1 X92.802 Y78.36 E13.64401
G1 X92.744 Y74.274 E13.77992
G1 X93.244 Y72.169 E13.85188
G1 X94.657 Y69.906 E13.94062
G0 F6000 X94.956 Y70.182
G1 F900 X96.583 Y68.977 E14.00796
G1 X98.1 Y68.298 E14.06324
G1 X99.685 Y67.95 E14.11721
G1 X101.603 Y68.108 E14.18122
G1 X103.61 Y68.801 E14.25184
G1 X109.381 Y73.336 E14.49596
G1 X115.047 Y79.303 E14.76964
G1 X118.689 Y84.497 E14.98063
G1 X122.227 Y91.523 E15.24227
G1 X122.944 Y93.652 E15.31699
G1 X123.92 Y94.149 E15.35342
G1 X125.179 Y95.511 E15.41511
G1 X126.213 Y97.219 E15.48152
G1 X126.628 Y99.118 E15.54617
G1 X126.658 Y102.289 E15.65164
G1 X127.114 Y102.604 E15.67007
G1 X128.62 Y104.544 E15.75176
G1 X129.624 Y106.667 E15.82987
G1 X129.92 Y109.004 E15.90822
G1 X129.954 Y110.999 E15.97458
G1 X129.459 Y113.36 E16.05482
G1 X128.4 Y115.445 E16.13259
G1 X126.818 Y117.178 E16.21064
G1 X126.857 Y120.482 E16.32054
G1 X126.447 Y122.209 E16.37958
G1 X125.488 Y124.09 E16.4498
G1 X124.123 Y125.352 E16.51163
G1 X123.297 Y125.848 E16.54368
G1 X122.591 Y128.097 E16.62208
G1 X119.17 Y135.204 E16.88442
G1 X115.379 Y140.793 E17.10904
G1 X110.445 Y146.204 E17.35259
G1 X104.727 Y150.924 E17.5992
G1 X103.023 Y151.68 E17.6612
G1 X102.184 Y151.933 E17.69035
G1 X100.397 Y151.998 E17.74982
G1 X99.451 Y151.895 E17.78147
G1 X97.734 Y151.276 E17.84218
G1 X96.316 Y150.338 E17.89873
G1 X95.098 Y148.916 E17.961
G1 X94.636 Y148.21 E17.98906
G1 X93.923 Y146.174 E18.06081
G1 X93.905 Y141.712 E18.20922
G1 X94.021 Y140.775 E18.24062
G1 X94.769 Y138.94 E18.30653
G1 X98.69 Y133.489 E18.52986
G1 X101.354 Y128.57 E18.71592
G1 X103.335 Y123.441 E18.8988
G1 X104.672 Y118.062 E19.08315
G1 X105.312 Y112.603 E19.26596
G1 X105.244 Y106.985 E19.45283
G1 X104.485 Y101.53 E19.63601
G1 X103.051 Y96.214 E19.81914
G1 X100.937 Y91.079 E20.00384
G1 X98.169 Y86.224 E20.18971
G1 X94.105 Y80.807 E20.41495
G1 X93.517 Y79.406 E20.46549
G1 X93.201 Y78.3 E20.50375
G1 X93.145 Y74.317 E20.63623
G1 X93.618 Y72.325 E20.70433
G1 X94.956 Y70.182 E20.78836
G0 F6000 X95.254 Y70.459
G1 F900 X96.789 Y69.323 E20.85187
G1 X98.223 Y68.681 E20.90413
G1 X99.712 Y68.354 E20.95483
G1 X101.521 Y68.503 E21.01521
G1 X103.415 Y69.157 E21.08185
G1 X109.134 Y73.651 E21.32377
G1 X114.719 Y79.533 E21.59354
G1 X118.361 Y84.727 E21.80453
G1 X121.848 Y91.651 E22.06238
G1 X122.617 Y93.934 E22.14251
G1 X123.675 Y94.473 E22.182
G1 X124.858 Y95.753 E22.23997
G1 X125.836 Y97.368 E22.30277
G1 X126.228 Y99.164 E22.36391
G1 X126.26 Y102.5 E22.47487
G1 X126.837 Y102.899 E22.4982
G1 X128.276 Y104.753 E22.57626
G1 X129.235 Y106.781 E22.65087
G1 X129.52 Y109.011 E22.72565
G1 X129.553 Y110.963 E22.79058
G1 X129.079 Y113.223 E22.86738
G1 X128.067 Y115.216 E22.94173
G1 X126.416 Y117.025 E23.02319
G1 X126.456 Y120.439 E23.13674
G1 X126.069 Y122.07 E23.1925
G1 X125.165 Y123.843 E23.25869
G1 X123.88 Y125.031 E23.3169
G1 X122.96 Y125.584 E23.3526
G1 X122.209 Y127.977 E23.43602
G1 X118.839 Y134.98 E23.6945
G1 X115.083 Y140.523 E23.9172
G1 X110.149 Y145.934 E24.16076
G1 X104.514 Y150.581 E24.40369
G1 X102.907 Y151.297 E24.46221
G1 X102.118 Y151.535 E24.48962
G1 X100.44 Y151.6 E24.54547
G1 X99.54 Y151.502 E24.57558
G1 X97.917 Y150.917 E24.63296
G1 X96.582 Y150.034 E24.6862
G1 X95.433 Y148.697 E24.74483
G1 X94.998 Y148.032 E24.77126
G1 X94.323 Y146.104 E24.8392
G1 X94.302 Y141.761 E24.98365
G1 X94.412 Y140.875 E25.01335
G1 X95.12 Y139.138 E25.07573
G1 X99.03 Y133.702 E25.29845
G1 X101.716 Y128.743 E25.48603
G1 X103.717 Y123.561 E25.67078
G1 X105.066 Y118.135 E25.85675
G1 X105.712 Y112.622 E26.04136
G1 X105.644 Y106.957 E26.2298
G1 X104.878 Y101.45 E26.41472
G1 X103.43 Y96.083 E26.59961
G1 X101.299 Y90.907 E26.78579
G1 X98.502 Y86.001 E26.97362
G1 X94.455 Y80.607 E27.1979
G1 X93.902 Y79.296 E27.24523
G1 X93.6 Y78.24 E27.28176
G1 X93.546 Y74.36 E27.41082
G1 X93.992 Y72.481 E27.47505
G1 X95.254 Y70.459 E27.55433
G0 F6000 X95.553 Y70.735
G1 F900 X96.991 Y69.67 E27.61385
G1 X98.346 Y69.064 E27.66321
G1 X99.739 Y68.758 E27.71065
G1 X101.439 Y68.898 E27.76738
G1 X103.22 Y69.513 E27.83005
G1 X108.887 Y73.966 E28.06977
G1 X114.391 Y79.763 E28.33564
G1 X118.033 Y84.957 E28.54663
G1 X121.469 Y91.779 E28.80068
G1 X122.29 Y94.216 E28.88622
G1 X123.428 Y94.796 E28.9287
G1 X124.539 Y95.998 E28.98314
G1 X125.459 Y97.517 E29.0422
G1 X125.828 Y99.21 E29.09984
G1 X125.862 Y102.711 E29.21628
G1 X126.56 Y103.194 E29.24452
G1 X127.932 Y104.962 E29.31895
G1 X128.846 Y106.895 E29.39007
G1 X129.12 Y109.018 E29.46126
G1 X129.152 Y110.923 E29.52463
G1 X128.698 Y113.09 E29.59827
G1 X127.734 Y114.988 E29.66908
G1 X126.19 Y116.68 E29.74526
G1 X126.014 Y116.812 E29.75258
G1 X126.055 Y120.396 E29.87179
G1 X125.691 Y121.931 E29.92426
G1 X124.842 Y123.596 E29.98642
G1 X123.637 Y124.71 E30.041
G1 X122.623 Y125.319 E30.08034
G1 X121.827 Y127.857 E30.16881
G1 X118.508 Y134.756 E30.42345
G1 X114.787 Y140.253 E30.64423
G1 X109.853 Y145.664 E30.88778
G1 X104.302 Y150.237 E31.12699
G1 X102.791 Y150.914 E31.18206
G1 X102.052 Y151.137 E31.20774
G1 X100.483 Y151.202 E31.25997
G1 X99.629 Y151.109 E31.28854
G1 X98.1 Y150.558 E31.3426
G1 X96.848 Y149.73 E31.39252
G1 X95.768 Y148.478 E31.44751
G1 X95.36 Y147.854 E31.47231
G1 X94.723 Y146.034 E31.53645
G1 X94.699 Y141.81 E31.67694
G1 X94.803 Y140.975 E31.70493
G1 X95.471 Y139.336 E31.76379
G1 X99.37 Y133.915 E31.98589
G1 X102.078 Y128.916 E32.17498
G1 X104.099 Y123.681 E32.36163
G1 X105.46 Y118.208 E32.5492
G1 X106.112 Y112.641 E32.73563
G1 X106.044 Y106.929 E32.92562
G1 X105.271 Y101.37 E33.11229
G1 X103.809 Y95.952 E33.29894
G1 X101.661 Y90.735 E33.48659
G1 X98.835 Y85.778 E33.67637
G1 X94.805 Y80.407 E33.89971
G1 X94.271 Y79.141 E33.94541
G1 X93.999 Y78.181 E33.9786
G1 X93.947 Y74.403 E34.10426
G1 X94.366 Y72.637 E34.16463
G1 X95.553 Y70.735 E34.2392
G0 F6000 X95.852 Y71.011
G1 F900 X97.192 Y70.019 E34.29465
G1 X98.471 Y69.446 E34.34127
G1 X99.766 Y69.162 E34.38536
G1 X101.357 Y69.293 E34.43846
G1 X103.025 Y69.869 E34.49715
G1 X108.64 Y74.281 E34.73466
G1 X114.063 Y79.993 E34.99663
G1 X117.705 Y85.187 E35.20762
G1 X121.09 Y91.907 E35.45788
G1 X121.963 Y94.498 E35.54882
G1 X123.181 Y95.119 E35.59429
G1 X124.22 Y96.243 E35.6452
G1 X125.082 Y97.666 E35.70054
G1 X125.428 Y99.256 E35.75466
G1 X125.464 Y102.922 E35.8766
G1 X126.283 Y103.489 E35.90973
G1 X127.588 Y105.171 E35.98053
G1 X128.457 Y107.009 E36.04815
G1 X128.72 Y109.025 E36.11578
G1 X128.751 Y110.887 E36.17771
G1 X128.318 Y112.953 E36.24792
G1 X127.402 Y114.757 E36.31522
G1 X125.894 Y116.41 E36.38964
G1 X125.612 Y116.603 E36.401
G1 X125.654 Y120.353 E36.52573
G1 X125.313 Y121.792 E36.57492
G1 X124.519 Y123.349 E36.63305
G1 X123.394 Y124.389 E36.68401
G1 X122.286 Y125.054 E36.72699
G1 X121.445 Y127.737 E36.82051
G1 X118.177 Y134.532 E37.07129
G1 X114.491 Y139.983 E37.29015
G1 X109.557 Y145.394 E37.53371
G1 X104.09 Y149.894 E37.76922
G1 X102.675 Y150.531 E37.82083
G1 X101.986 Y150.739 E37.84477
G1 X100.526 Y150.804 E37.89337
G1 X99.718 Y150.716 E37.92041
G1 X98.281 Y150.198 E37.97121
G1 X97.114 Y149.427 E38.01773
G1 X96.103 Y148.259 E38.06911
G1 X95.722 Y147.676 E38.09228
G1 X95.123 Y145.964 E38.1526
G1 X95.096 Y141.86 E38.28911
G1 X95.194 Y141.075 E38.31542
G1 X95.822 Y139.534 E38.37076
G1 X99.708 Y134.131 E38.59212
G1 X102.441 Y129.085 E38.78299
G1 X104.481 Y123.803 E38.97131
G1 X105.854 Y118.279 E39.16063
G1 X106.512 Y112.66 E39.3488
G1 X106.444 Y106.901 E39.54036
G1 X105.664 Y101.29 E39.72878
G1 X104.188 Y95.821 E39.91718
G1 X102.023 Y90.563 E40.10631
G1 X99.168 Y85.555 E40.29804
G1 X95.155 Y80.207 E40.52043
G1 X94.64 Y78.986 E40.5645
G1 X94.398 Y78.123 E40.59431
G1 X94.348 Y74.446 E40.71662
G1 X94.74 Y72.793 E40.77312
G1 X95.852 Y71.011 E40.84299
G0 F6000 X96.151 Y71.287
G1 F900 X97.394 Y70.366 E40.89444
G1 X98.594 Y69.829 E40.93817
G1 X99.793 Y69.566 E40.97899
G1 X101.275 Y69.688 E41.02845
G1 X102.83 Y70.225 E41.08317
G1 X108.393 Y74.596 E41.31848
G1 X113.735 Y80.223 E41.57654
G1 X117.377 Y85.417 E41.78753
G1 X120.711 Y92.035 E42.034
G1 X121.636 Y94.78 E42.13034
G1 X122.936 Y95.443 E42.17888
G1 X123.899 Y96.485 E42.22607
G1 X124.705 Y97.815 E42.2778
G1 X125.028 Y99.301 E42.32837
G1 X125.066 Y103.133 E42.45583
G1 X126.005 Y103.782 E42.4938
G1 X127.244 Y105.38 E42.56105
G1 X128.068 Y107.123 E42.62518
G1 X128.32 Y109.032 E42.68922
G1 X128.35 Y110.851 E42.74973
G1 X127.938 Y112.816 E42.81651
G1 X127.07 Y114.526 E42.88029
G1 X125.598 Y116.14 E42.95294
G1 X125.209 Y116.382 E42.96818
G1 X125.253 Y120.31 E43.09884
G1 X124.935 Y121.653 E43.14474
G1 X124.196 Y123.102 E43.19884
G1 X123.151 Y124.068 E43.24617
G1 X121.949 Y124.79 E43.29281
G1 X121.063 Y127.617 E43.39134
G1 X117.846 Y134.308 E43.63827
G1 X114.195 Y139.713 E43.85521
G1 X109.261 Y145.124 E44.09877
G1 X103.878 Y149.551 E44.33058
G1 X102.511 Y150.166 E44.38044
G1 X101.922 Y150.341 E44.40087
G1 X100.569 Y150.406 E44.44593
G1 X99.807 Y150.323 E44.47142
G1 X98.464 Y149.839 E44.5189
G1 X97.381 Y149.123 E44.56208
G1 X96.438 Y148.04 E44.60984
G1 X96.084 Y147.498 E44.63138
G1 X95.523 Y145.894 E44.68789
G1 X95.493 Y141.91 E44.82041
G1 X95.585 Y141.175 E44.84504
G1 X96.173 Y139.732 E44.89687
G1 X100.048 Y134.344 E45.11761
G1 X102.803 Y129.258 E45.30999
G1 X104.863 Y123.923 E45.5002
G1 X106.248 Y118.352 E45.69114
G1 X106.912 Y112.679 E45.88111
G1 X106.844 Y106.873 E46.07423
G1 X106.057 Y101.21 E46.26439
G1 X104.567 Y95.69 E46.45456
G1 X102.385 Y90.391 E46.64516
G1 X99.501 Y85.332 E46.83885
G1 X95.505 Y80.007 E47.06028
G1 X95.009 Y78.831 E47.10273
G1 X94.797 Y78.067 E47.1291
G1 X94.749 Y74.489 E47.24812
G1 X95.114 Y72.949 E47.30075
G1 X96.151 Y71.287 E47.36591
G0 F6000 X96.449 Y71.564
G1 F900 X97.6 Y70.712 E47.41354
G1 X98.717 Y70.212 E47.45424
G1 X99.82 Y69.97 E47.4918
G1 X101.193 Y70.083 E47.53762
G1 X102.635 Y70.581 E47.58836
G1 X108.146 Y74.911 E47.82147
G1 X113.407 Y80.453 E48.07563
G1 X117.049 Y85.647 E48.28662
G1 X120.354 Y92.215 E48.53117
G1 X121.309 Y95.062 E48.63104
G1 X122.689 Y95.766 E48.68257
G1 X123.58 Y96.73 E48.72623
G1 X124.328 Y97.964 E48.77423
G1 X124.628 Y99.346 E48.82126
G1 X124.668 Y103.344 E48.95424
G1 X125.728 Y104.077 E48.99711
G1 X126.9 Y105.589 E49.06073
G1 X127.68 Y107.24 E49.12147
G1 X127.92 Y109.039 E49.18183
G1 X127.949 Y110.815 E49.24091
G1 X127.558 Y112.679 E49.30426
G1 X126.737 Y114.298 E49.36463
G1 X125.34 Y115.829 E49.43357
G1 X124.806 Y116.161 E49.45448
G1 X124.852 Y120.267 E49.59105
G1 X124.557 Y121.514 E49.63367
G1 X123.873 Y122.855 E49.68374
G1 X122.907 Y123.748 E49.7275
G1 X121.785 Y124.427 E49.77112
G1 X121.624 Y124.488 E49.77684
G1 X120.681 Y127.497 E49.88172
G1 X117.486 Y134.134 E50.12672
G1 X113.899 Y139.443 E50.33982
G1 X108.965 Y144.854 E50.58338
G1 X103.664 Y149.209 E50.81156
G1 X102.397 Y149.783 E50.85782
G1 X101.858 Y149.943 E50.87652
G1 X100.55 Y150.006 E50.92008
G1 X99.898 Y149.931 E50.94191
G1 X98.647 Y149.48 E50.98614
G1 X97.647 Y148.819 E51.02601
G1 X96.773 Y147.821 E51.07013
G1 X96.446 Y147.32 E51.09003
G1 X95.922 Y145.823 E51.14278
G1 X95.89 Y141.96 E51.27127
G1 X95.976 Y141.275 E51.29423
G1 X96.524 Y139.93 E51.34254
G1 X100.386 Y134.56 E51.56254
G1 X103.166 Y129.427 E51.75669
G1 X105.245 Y124.043 E51.94865
G1 X106.642 Y118.425 E52.1412
G1 X107.312 Y112.703 E52.33281
G1 X107.244 Y106.845 E52.52766
G1 X106.45 Y101.13 E52.71957
G1 X104.946 Y95.559 E52.91149
G1 X102.744 Y90.212 E53.10383
G1 X99.838 Y85.114 E53.299
G1 X95.855 Y79.807 E53.51969
G1 X95.378 Y78.676 E53.56052
G1 X95.196 Y78.01 E53.58348
G1 X95.15 Y74.532 E53.69917
G1 X95.488 Y73.105 E53.74795
