(G-CODE GENERATED BY FLATCAM v8.994 - www.flatcam.org - Version Date: 2020/11/7)

(Name: Drill_PTH_Through.DRL_cnc)
(Type: G-code from Geometry)
(Units: MM)

(Created on Tuesday, 10 June 2025 at 14:55)


;TOOLS DIAMETER: 
;Tool: 1 -> Dia: 0.712
;Tool: 2 -> Dia: 0.889
;Tool: 3 -> Dia: 0.9
;Tool: 4 -> Dia: 0.901
;Tool: 5 -> Dia: 0.915
;Tool: 6 -> Dia: 1.0

;FEEDRATE Z: 
;Tool: 1 -> Feedrate: 300
;Tool: 2 -> Feedrate: 300
;Tool: 3 -> Feedrate: 300
;Tool: 4 -> Feedrate: 300
;Tool: 5 -> Feedrate: 300
;Tool: 6 -> Feedrate: 300

;FEEDRATE RAPIDS: 
;Tool: 1 -> Feedrate Rapids: 1500
;Tool: 2 -> Feedrate Rapids: 1500
;Tool: 3 -> Feedrate Rapids: 1500
;Tool: 4 -> Feedrate Rapids: 1500
;Tool: 5 -> Feedrate Rapids: 1500
;Tool: 6 -> Feedrate Rapids: 1500

;Z_CUT: 
;Tool: 1 -> Z_Cut: -1.7
;Tool: 2 -> Z_Cut: -1.7
;Tool: 3 -> Z_Cut: -1.7
;Tool: 4 -> Z_Cut: -1.7
;Tool: 5 -> Z_Cut: -1.7
;Tool: 6 -> Z_Cut: -1.7

;Tools Offset: 
;Tool: 6 -> Offset Z: 0.0
;Tool: 5 -> Offset Z: 0.0
;Tool: 2 -> Offset Z: 0.0
;Tool: 3 -> Offset Z: 0.0
;Tool: 1 -> Offset Z: 0.0
;Tool: 4 -> Offset Z: 0.0

;Z_MOVE: 
;Tool: 1 -> Z_Move: 2
;Tool: 2 -> Z_Move: 2
;Tool: 3 -> Z_Move: 2
;Tool: 4 -> Z_Move: 2
;Tool: 5 -> Z_Move: 2
;Tool: 6 -> Z_Move: 2

;Z Toolchange: 15 mm
;X,Y Toolchange: 0.0000, 0.0000 mm
;Z Start: None mm
;Z End: 0.5 mm
;X,Y End: None mm
(Steps per circle: 64)
;Steps per circle: 64
;Preprocessor Excellon: Marlin

;X range:   -0.5770 ...   95.4460  mm
;Y range:  -95.3190 ...    0.1960  mm

;Spindle Speed: 24000 RPM)
G21
G90

G1 F300.00

M5
G0 Z15.0000
G0 X0.0000 Y0.0000                
T1
M6
;MSG, Change to Tool Dia = 0.7120, Total drills for tool T1 = 211
M0
G0 Z15.0000

G1 F300.00
M3 S24000
G0 X9.4690 Y-43.7460 F1500.00
G1 Z-1.7000 F300.00
G1 Z0 G1 F300.00
G0 Z2.0000 F1500.00
G0 X9.4690 Y-43.7460 F1500.00
G1 Z-1.7000 F300.00
G1 Z0 G1 F300.00
G0 Z2.0000 F1500.00
G0 X7.4930 Y-42.7990 F1500.00
G1 Z-1.7000 F300.00
G1 Z0 G1 F300.00
G0 Z2.0000 F1500.00
G0 X7.8030 Y-45.6620 F1500.00
G1 Z-1.7000 F300.00
G1 Z0 G1 F300.00
G0 Z2.0000 F1500.00
G0 X2.5400 Y-44.9580 F1500.00
G1 Z-1.7000 F300.00
G1 Z0 G1 F300.00
G0 Z2.0000 F1500.00
G0 X2.5400 Y-47.4980 F1500.00
G1 Z-1.7000 F300.00
G1 Z0 G1 F300.00
G0 Z2.0000 F1500.00
G0 X2.5400 Y-50.0380 F1500.00
G1 Z-1.7000 F300.00
G1 Z0 G1 F300.00
G0 Z2.0000 F1500.00
G0 X-0.1270 Y-42.7990 F1500.00
G1 Z-1.7000 F300.00
G1 Z0 G1 F300.00
G0 Z2.0000 F1500.00
G0 X4.9970 Y-32.7000 F1500.00
G1 Z-1.7000 F300.00
G1 Z0 G1 F300.00
G0 Z2.0000 F1500.00
G0 X5.9690 Y-30.3530 F1500.00
G1 Z-1.7000 F300.00
G1 Z0 G1 F300.00
G0 Z2.0000 F1500.00
G0 X6.9410 Y-28.0060 F1500.00
G1 Z-1.7000 F300.00
G1 Z0 G1 F300.00
G0 Z2.0000 F1500.00
G0 X10.9090 Y-29.0120 F1500.00
G1 Z-1.7000 F300.00
G1 Z0 G1 F300.00
G0 Z2.0000 F1500.00
G0 X9.9490 Y-31.9290 F1500.00
G1 Z-1.7000 F300.00
G1 Z0 G1 F300.00
G0 Z2.0000 F1500.00
G0 X12.4030 Y-32.5870 F1500.00
G1 Z-1.7000 F300.00
G1 Z0 G1 F300.00
G0 Z2.0000 F1500.00
G0 X6.8710 Y-22.5500 F1500.00
G1 Z-1.7000 F300.00
G1 Z0 G1 F300.00
G0 Z2.0000 F1500.00
G0 X13.8250 Y-17.5440 F1500.00
G1 Z-1.7000 F300.00
G1 Z0 G1 F300.00
G0 Z2.0000 F1500.00
G0 X15.6210 Y-15.7480 F1500.00
G1 Z-1.7000 F300.00
G1 Z0 G1 F300.00
G0 Z2.0000 F1500.00
G0 X17.4170 Y-13.9520 F1500.00
G1 Z-1.7000 F300.00
G1 Z0 G1 F300.00
G0 Z2.0000 F1500.00
G0 X19.5580 Y-15.1130 F1500.00
G1 Z-1.7000 F300.00
G1 Z0 G1 F300.00
G0 Z2.0000 F1500.00
G0 X21.7170 Y-15.3670 F1500.00
G1 Z-1.7000 F300.00
G1 Z0 G1 F300.00
G0 Z2.0000 F1500.00
G0 X19.5580 Y-17.6530 F1500.00
G1 Z-1.7000 F300.00
G1 Z0 G1 F300.00
G0 Z2.0000 F1500.00
G0 X21.7170 Y-7.7470 F1500.00
G1 Z-1.7000 F300.00
G1 Z0 G1 F300.00
G0 Z2.0000 F1500.00
G0 X27.8790 Y-6.9410 F1500.00
G1 Z-1.7000 F300.00
G1 Z0 G1 F300.00
G0 Z2.0000 F1500.00
G0 X30.2260 Y-5.9690 F1500.00
G1 Z-1.7000 F300.00
G1 Z0 G1 F300.00
G0 Z2.0000 F1500.00
G0 X32.5730 Y-4.9970 F1500.00
G1 Z-1.7000 F300.00
G1 Z0 G1 F300.00
G0 Z2.0000 F1500.00
G0 X33.4010 Y-9.0170 F1500.00
G1 Z-1.7000 F300.00
G1 Z0 G1 F300.00
G0 Z2.0000 F1500.00
G0 X35.8140 Y-9.0170 F1500.00
G1 Z-1.7000 F300.00
G1 Z0 G1 F300.00
G0 Z2.0000 F1500.00
G0 X30.8610 Y-9.0170 F1500.00
G1 Z-1.7000 F300.00
G1 Z0 G1 F300.00
G0 Z2.0000 F1500.00
G0 X31.6230 Y-12.9540 F1500.00
G1 Z-1.7000 F300.00
G1 Z0 G1 F300.00
G0 Z2.0000 F1500.00
G0 X31.6230 Y-15.4940 F1500.00
G1 Z-1.7000 F300.00
G1 Z0 G1 F300.00
G0 Z2.0000 F1500.00
G0 X31.6230 Y-18.0340 F1500.00
G1 Z-1.7000 F300.00
G1 Z0 G1 F300.00
G0 Z2.0000 F1500.00
G0 X31.6230 Y-20.5740 F1500.00
G1 Z-1.7000 F300.00
G1 Z0 G1 F300.00
G0 Z2.0000 F1500.00
G0 X31.6230 Y-23.1140 F1500.00
G1 Z-1.7000 F300.00
G1 Z0 G1 F300.00
G0 Z2.0000 F1500.00
G0 X31.6230 Y-25.6540 F1500.00
G1 Z-1.7000 F300.00
G1 Z0 G1 F300.00
G0 Z2.0000 F1500.00
G0 X31.6230 Y-28.1940 F1500.00
G1 Z-1.7000 F300.00
G1 Z0 G1 F300.00
G0 Z2.0000 F1500.00
G0 X31.6230 Y-30.7340 F1500.00
G1 Z-1.7000 F300.00
G1 Z0 G1 F300.00
G0 Z2.0000 F1500.00
G0 X34.9250 Y-20.5740 F1500.00
G1 Z-1.7000 F300.00
G1 Z0 G1 F300.00
G0 Z2.0000 F1500.00
G0 X36.8300 Y-18.0340 F1500.00
G1 Z-1.7000 F300.00
G1 Z0 G1 F300.00
G0 Z2.0000 F1500.00
G0 X43.9420 Y-19.0500 F1500.00
G1 Z-1.7000 F300.00
G1 Z0 G1 F300.00
G0 Z2.0000 F1500.00
G0 X43.9420 Y-21.5900 F1500.00
G1 Z-1.7000 F300.00
G1 Z0 G1 F300.00
G0 Z2.0000 F1500.00
G0 X43.9420 Y-24.1300 F1500.00
G1 Z-1.7000 F300.00
G1 Z0 G1 F300.00
G0 Z2.0000 F1500.00
G0 X43.9420 Y-26.6700 F1500.00
G1 Z-1.7000 F300.00
G1 Z0 G1 F300.00
G0 Z2.0000 F1500.00
G0 X43.9420 Y-29.2100 F1500.00
G1 Z-1.7000 F300.00
G1 Z0 G1 F300.00
G0 Z2.0000 F1500.00
G0 X43.9420 Y-31.7500 F1500.00
G1 Z-1.7000 F300.00
G1 Z0 G1 F300.00
G0 Z2.0000 F1500.00
G0 X43.8150 Y-36.0680 F1500.00
G1 Z-1.7000 F300.00
G1 Z0 G1 F300.00
G0 Z2.0000 F1500.00
G0 X43.8150 Y-38.6080 F1500.00
G1 Z-1.7000 F300.00
G1 Z0 G1 F300.00
G0 Z2.0000 F1500.00
G0 X43.8150 Y-41.1480 F1500.00
G1 Z-1.7000 F300.00
G1 Z0 G1 F300.00
G0 Z2.0000 F1500.00
G0 X43.8150 Y-43.6880 F1500.00
G1 Z-1.7000 F300.00
G1 Z0 G1 F300.00
G0 Z2.0000 F1500.00
G0 X43.8150 Y-46.2280 F1500.00
G1 Z-1.7000 F300.00
G1 Z0 G1 F300.00
G0 Z2.0000 F1500.00
G0 X43.8150 Y-48.7680 F1500.00
G1 Z-1.7000 F300.00
G1 Z0 G1 F300.00
G0 Z2.0000 F1500.00
G0 X43.8150 Y-51.3080 F1500.00
G1 Z-1.7000 F300.00
G1 Z0 G1 F300.00
G0 Z2.0000 F1500.00
G0 X43.8150 Y-53.8480 F1500.00
G1 Z-1.7000 F300.00
G1 Z0 G1 F300.00
G0 Z2.0000 F1500.00
G0 X37.2110 Y-54.9910 F1500.00
G1 Z-1.7000 F300.00
G1 Z0 G1 F300.00
G0 Z2.0000 F1500.00
G0 X37.2110 Y-61.2140 F1500.00
G1 Z-1.7000 F300.00
G1 Z0 G1 F300.00
G0 Z2.0000 F1500.00
G0 X37.2100 Y-63.2460 F1500.00
G1 Z-1.7000 F300.00
G1 Z0 G1 F300.00
G0 Z2.0000 F1500.00
G0 X34.6710 Y-63.2460 F1500.00
G1 Z-1.7000 F300.00
G1 Z0 G1 F300.00
G0 Z2.0000 F1500.00
G0 X32.1300 Y-63.2460 F1500.00
G1 Z-1.7000 F300.00
G1 Z0 G1 F300.00
G0 Z2.0000 F1500.00
G0 X29.5910 Y-63.2460 F1500.00
G1 Z-1.7000 F300.00
G1 Z0 G1 F300.00
G0 Z2.0000 F1500.00
G0 X25.4000 Y-68.9610 F1500.00
G1 Z-1.7000 F300.00
G1 Z0 G1 F300.00
G0 Z2.0000 F1500.00
G0 X29.5910 Y-78.4860 F1500.00
G1 Z-1.7000 F300.00
G1 Z0 G1 F300.00
G0 Z2.0000 F1500.00
G0 X32.1310 Y-78.4860 F1500.00
G1 Z-1.7000 F300.00
G1 Z0 G1 F300.00
G0 Z2.0000 F1500.00
G0 X34.6720 Y-78.4860 F1500.00
G1 Z-1.7000 F300.00
G1 Z0 G1 F300.00
G0 Z2.0000 F1500.00
G0 X37.2110 Y-78.4860 F1500.00
G1 Z-1.7000 F300.00
G1 Z0 G1 F300.00
G0 Z2.0000 F1500.00
G0 X39.7520 Y-78.4860 F1500.00
G1 Z-1.7000 F300.00
G1 Z0 G1 F300.00
G0 Z2.0000 F1500.00
G0 X42.2910 Y-78.4860 F1500.00
G1 Z-1.7000 F300.00
G1 Z0 G1 F300.00
G0 Z2.0000 F1500.00
G0 X44.8320 Y-78.4860 F1500.00
G1 Z-1.7000 F300.00
G1 Z0 G1 F300.00
G0 Z2.0000 F1500.00
G0 X47.3710 Y-78.4860 F1500.00
G1 Z-1.7000 F300.00
G1 Z0 G1 F300.00
G0 Z2.0000 F1500.00
G0 X49.9120 Y-78.4860 F1500.00
G1 Z-1.7000 F300.00
G1 Z0 G1 F300.00
G0 Z2.0000 F1500.00
G0 X52.4510 Y-78.4860 F1500.00
G1 Z-1.7000 F300.00
G1 Z0 G1 F300.00
G0 Z2.0000 F1500.00
G0 X54.9920 Y-78.4860 F1500.00
G1 Z-1.7000 F300.00
G1 Z0 G1 F300.00
G0 Z2.0000 F1500.00
G0 X57.5310 Y-78.4860 F1500.00
G1 Z-1.7000 F300.00
G1 Z0 G1 F300.00
G0 Z2.0000 F1500.00
G0 X60.0710 Y-78.4860 F1500.00
G1 Z-1.7000 F300.00
G1 Z0 G1 F300.00
G0 Z2.0000 F1500.00
G0 X62.6110 Y-78.4860 F1500.00
G1 Z-1.7000 F300.00
G1 Z0 G1 F300.00
G0 Z2.0000 F1500.00
G0 X65.1510 Y-78.4860 F1500.00
G1 Z-1.7000 F300.00
G1 Z0 G1 F300.00
G0 Z2.0000 F1500.00
G0 X72.6440 Y-80.0100 F1500.00
G1 Z-1.7000 F300.00
G1 Z0 G1 F300.00
G0 Z2.0000 F1500.00
G0 X75.1840 Y-81.0260 F1500.00
G1 Z-1.7000 F300.00
G1 Z0 G1 F300.00
G0 Z2.0000 F1500.00
G0 X77.5790 Y-81.1710 F1500.00
G1 Z-1.7000 F300.00
G1 Z0 G1 F300.00
G0 Z2.0000 F1500.00
G0 X79.3750 Y-79.3750 F1500.00
G1 Z-1.7000 F300.00
G1 Z0 G1 F300.00
G0 Z2.0000 F1500.00
G0 X81.1710 Y-77.5790 F1500.00
G1 Z-1.7000 F300.00
G1 Z0 G1 F300.00
G0 Z2.0000 F1500.00
G0 X75.1840 Y-78.4860 F1500.00
G1 Z-1.7000 F300.00
G1 Z0 G1 F300.00
G0 Z2.0000 F1500.00
G0 X72.6440 Y-87.6300 F1500.00
G1 Z-1.7000 F300.00
G1 Z0 G1 F300.00
G0 Z2.0000 F1500.00
G0 X67.1170 Y-88.1820 F1500.00
G1 Z-1.7000 F300.00
G1 Z0 G1 F300.00
G0 Z2.0000 F1500.00
G0 X64.7700 Y-89.1540 F1500.00
G1 Z-1.7000 F300.00
G1 Z0 G1 F300.00
G0 Z2.0000 F1500.00
G0 X62.4230 Y-90.1260 F1500.00
G1 Z-1.7000 F300.00
G1 Z0 G1 F300.00
G0 Z2.0000 F1500.00
G0 X60.9690 Y-87.6390 F1500.00
G1 Z-1.7000 F300.00
G1 Z0 G1 F300.00
G0 Z2.0000 F1500.00
G0 X59.1730 Y-85.8430 F1500.00
G1 Z-1.7000 F300.00
G1 Z0 G1 F300.00
G0 Z2.0000 F1500.00
G0 X57.4970 Y-86.5460 F1500.00
G1 Z-1.7000 F300.00
G1 Z0 G1 F300.00
G0 Z2.0000 F1500.00
G0 X59.8510 Y-93.7940 F1500.00
G1 Z-1.7000 F300.00
G1 Z0 G1 F300.00
G0 Z2.0000 F1500.00
G0 X50.0380 Y-92.5830 F1500.00
G1 Z-1.7000 F300.00
G1 Z0 G1 F300.00
G0 Z2.0000 F1500.00
G0 X47.4980 Y-92.5830 F1500.00
G1 Z-1.7000 F300.00
G1 Z0 G1 F300.00
G0 Z2.0000 F1500.00
G0 X44.9580 Y-92.5830 F1500.00
G1 Z-1.7000 F300.00
G1 Z0 G1 F300.00
G0 Z2.0000 F1500.00
G0 X41.7830 Y-94.8690 F1500.00
G1 Z-1.7000 F300.00
G1 Z0 G1 F300.00
G0 Z2.0000 F1500.00
G0 X44.8310 Y-88.2650 F1500.00
G1 Z-1.7000 F300.00
G1 Z0 G1 F300.00
G0 Z2.0000 F1500.00
G0 X44.8310 Y-85.7250 F1500.00
G1 Z-1.7000 F300.00
G1 Z0 G1 F300.00
G0 Z2.0000 F1500.00
G0 X41.7830 Y-87.2490 F1500.00
G1 Z-1.7000 F300.00
G1 Z0 G1 F300.00
G0 Z2.0000 F1500.00
G0 X32.5730 Y-90.1260 F1500.00
G1 Z-1.7000 F300.00
G1 Z0 G1 F300.00
G0 Z2.0000 F1500.00
G0 X30.2260 Y-89.1540 F1500.00
G1 Z-1.7000 F300.00
G1 Z0 G1 F300.00
G0 Z2.0000 F1500.00
G0 X27.8790 Y-88.1820 F1500.00
G1 Z-1.7000 F300.00
G1 Z0 G1 F300.00
G0 Z2.0000 F1500.00
G0 X27.5590 Y-85.7250 F1500.00
G1 Z-1.7000 F300.00
G1 Z0 G1 F300.00
G0 Z2.0000 F1500.00
G0 X25.0190 Y-85.7250 F1500.00
G1 Z-1.7000 F300.00
G1 Z0 G1 F300.00
G0 Z2.0000 F1500.00
G0 X24.9180 Y-89.8410 F1500.00
G1 Z-1.7000 F300.00
G1 Z0 G1 F300.00
G0 Z2.0000 F1500.00
G0 X21.8180 Y-82.8790 F1500.00
G1 Z-1.7000 F300.00
G1 Z0 G1 F300.00
G0 Z2.0000 F1500.00
G0 X17.5440 Y-81.1710 F1500.00
G1 Z-1.7000 F300.00
G1 Z0 G1 F300.00
G0 Z2.0000 F1500.00
G0 X15.7480 Y-79.3750 F1500.00
G1 Z-1.7000 F300.00
G1 Z0 G1 F300.00
G0 Z2.0000 F1500.00
G0 X13.9520 Y-77.5790 F1500.00
G1 Z-1.7000 F300.00
G1 Z0 G1 F300.00
G0 Z2.0000 F1500.00
G0 X13.3350 Y-75.4380 F1500.00
G1 Z-1.7000 F300.00
G1 Z0 G1 F300.00
G0 Z2.0000 F1500.00
G0 X10.7950 Y-75.4380 F1500.00
G1 Z-1.7000 F300.00
G1 Z0 G1 F300.00
G0 Z2.0000 F1500.00
G0 X7.4930 Y-73.2790 F1500.00
G1 Z-1.7000 F300.00
G1 Z0 G1 F300.00
G0 Z2.0000 F1500.00
G0 X6.9410 Y-67.1170 F1500.00
G1 Z-1.7000 F300.00
G1 Z0 G1 F300.00
G0 Z2.0000 F1500.00
G0 X5.9690 Y-64.7700 F1500.00
G1 Z-1.7000 F300.00
G1 Z0 G1 F300.00
G0 Z2.0000 F1500.00
G0 X4.9970 Y-62.4230 F1500.00
G1 Z-1.7000 F300.00
G1 Z0 G1 F300.00
G0 Z2.0000 F1500.00
G0 X7.7470 Y-61.9760 F1500.00
G1 Z-1.7000 F300.00
G1 Z0 G1 F300.00
G0 Z2.0000 F1500.00
G0 X9.0170 Y-59.8170 F1500.00
G1 Z-1.7000 F300.00
G1 Z0 G1 F300.00
G0 Z2.0000 F1500.00
G0 X10.2870 Y-61.9760 F1500.00
G1 Z-1.7000 F300.00
G1 Z0 G1 F300.00
G0 Z2.0000 F1500.00
G0 X1.3970 Y-59.8170 F1500.00
G1 Z-1.7000 F300.00
G1 Z0 G1 F300.00
G0 Z2.0000 F1500.00
G0 X15.1130 Y-73.2790 F1500.00
G1 Z-1.7000 F300.00
G1 Z0 G1 F300.00
G0 Z2.0000 F1500.00
G0 X39.7510 Y-63.2460 F1500.00
G1 Z-1.7000 F300.00
G1 Z0 G1 F300.00
G0 Z2.0000 F1500.00
G0 X42.2900 Y-63.2460 F1500.00
G1 Z-1.7000 F300.00
G1 Z0 G1 F300.00
G0 Z2.0000 F1500.00
G0 X44.8310 Y-63.2460 F1500.00
G1 Z-1.7000 F300.00
G1 Z0 G1 F300.00
G0 Z2.0000 F1500.00
G0 X47.3700 Y-63.2460 F1500.00
G1 Z-1.7000 F300.00
G1 Z0 G1 F300.00
G0 Z2.0000 F1500.00
G0 X49.9110 Y-63.2460 F1500.00
G1 Z-1.7000 F300.00
G1 Z0 G1 F300.00
G0 Z2.0000 F1500.00
G0 X48.6970 Y-61.0310 F1500.00
G1 Z-1.7000 F300.00
G1 Z0 G1 F300.00
G0 Z2.0000 F1500.00
G0 X52.1490 Y-61.0080 F1500.00
G1 Z-1.7000 F300.00
G1 Z0 G1 F300.00
G0 Z2.0000 F1500.00
G0 X52.4500 Y-63.2460 F1500.00
G1 Z-1.7000 F300.00
G1 Z0 G1 F300.00
G0 Z2.0000 F1500.00
G0 X54.9910 Y-63.2460 F1500.00
G1 Z-1.7000 F300.00
G1 Z0 G1 F300.00
G0 Z2.0000 F1500.00
G0 X57.5300 Y-63.2460 F1500.00
G1 Z-1.7000 F300.00
G1 Z0 G1 F300.00
G0 Z2.0000 F1500.00
G0 X60.0710 Y-63.2460 F1500.00
G1 Z-1.7000 F300.00
G1 Z0 G1 F300.00
G0 Z2.0000 F1500.00
G0 X62.6110 Y-63.2460 F1500.00
G1 Z-1.7000 F300.00
G1 Z0 G1 F300.00
G0 Z2.0000 F1500.00
G0 X65.1510 Y-63.2460 F1500.00
G1 Z-1.7000 F300.00
G1 Z0 G1 F300.00
G0 Z2.0000 F1500.00
G0 X66.4210 Y-60.4520 F1500.00
G1 Z-1.7000 F300.00
G1 Z0 G1 F300.00
G0 Z2.0000 F1500.00
G0 X75.3110 Y-52.0700 F1500.00
G1 Z-1.7000 F300.00
G1 Z0 G1 F300.00
G0 Z2.0000 F1500.00
G0 X75.3110 Y-50.0380 F1500.00
G1 Z-1.7000 F300.00
G1 Z0 G1 F300.00
G0 Z2.0000 F1500.00
G0 X73.1840 Y-49.6250 F1500.00
G1 Z-1.7000 F300.00
G1 Z0 G1 F300.00
G0 Z2.0000 F1500.00
G0 X75.3110 Y-47.4980 F1500.00
G1 Z-1.7000 F300.00
G1 Z0 G1 F300.00
G0 Z2.0000 F1500.00
G0 X73.2080 Y-46.1720 F1500.00
G1 Z-1.7000 F300.00
G1 Z0 G1 F300.00
G0 Z2.0000 F1500.00
G0 X75.3110 Y-44.9580 F1500.00
G1 Z-1.7000 F300.00
G1 Z0 G1 F300.00
G0 Z2.0000 F1500.00
G0 X75.3110 Y-42.4180 F1500.00
G1 Z-1.7000 F300.00
G1 Z0 G1 F300.00
G0 Z2.0000 F1500.00
G0 X81.7880 Y-32.5120 F1500.00
G1 Z-1.7000 F300.00
G1 Z0 G1 F300.00
G0 Z2.0000 F1500.00
G0 X84.3280 Y-32.5120 F1500.00
G1 Z-1.7000 F300.00
G1 Z0 G1 F300.00
G0 Z2.0000 F1500.00
G0 X85.8520 Y-34.9250 F1500.00
G1 Z-1.7000 F300.00
G1 Z0 G1 F300.00
G0 Z2.0000 F1500.00
G0 X89.9990 Y-32.7000 F1500.00
G1 Z-1.7000 F300.00
G1 Z0 G1 F300.00
G0 Z2.0000 F1500.00
G0 X89.0270 Y-30.3530 F1500.00
G1 Z-1.7000 F300.00
G1 Z0 G1 F300.00
G0 Z2.0000 F1500.00
G0 X88.0550 Y-28.0060 F1500.00
G1 Z-1.7000 F300.00
G1 Z0 G1 F300.00
G0 Z2.0000 F1500.00
G0 X88.2650 Y-22.9870 F1500.00
G1 Z-1.7000 F300.00
G1 Z0 G1 F300.00
G0 Z2.0000 F1500.00
G0 X84.2010 Y-20.1930 F1500.00
G1 Z-1.7000 F300.00
G1 Z0 G1 F300.00
G0 Z2.0000 F1500.00
G0 X81.6610 Y-20.1930 F1500.00
G1 Z-1.7000 F300.00
G1 Z0 G1 F300.00
G0 Z2.0000 F1500.00
G0 X81.1710 Y-17.5440 F1500.00
G1 Z-1.7000 F300.00
G1 Z0 G1 F300.00
G0 Z2.0000 F1500.00
G0 X79.3750 Y-15.7480 F1500.00
G1 Z-1.7000 F300.00
G1 Z0 G1 F300.00
G0 Z2.0000 F1500.00
G0 X77.5790 Y-13.9520 F1500.00
G1 Z-1.7000 F300.00
G1 Z0 G1 F300.00
G0 Z2.0000 F1500.00
G0 X77.8510 Y-10.9220 F1500.00
G1 Z-1.7000 F300.00
G1 Z0 G1 F300.00
G0 Z2.0000 F1500.00
G0 X70.2310 Y-10.9220 F1500.00
G1 Z-1.7000 F300.00
G1 Z0 G1 F300.00
G0 Z2.0000 F1500.00
G0 X67.8180 Y-9.5250 F1500.00
G1 Z-1.7000 F300.00
G1 Z0 G1 F300.00
G0 Z2.0000 F1500.00
G0 X65.2780 Y-9.5250 F1500.00
G1 Z-1.7000 F300.00
G1 Z0 G1 F300.00
G0 Z2.0000 F1500.00
G0 X67.1170 Y-6.9410 F1500.00
G1 Z-1.7000 F300.00
G1 Z0 G1 F300.00
G0 Z2.0000 F1500.00
G0 X64.7700 Y-5.9690 F1500.00
G1 Z-1.7000 F300.00
G1 Z0 G1 F300.00
G0 Z2.0000 F1500.00
G0 X62.4230 Y-4.9970 F1500.00
G1 Z-1.7000 F300.00
G1 Z0 G1 F300.00
G0 Z2.0000 F1500.00
G0 X63.8810 Y-12.9540 F1500.00
G1 Z-1.7000 F300.00
G1 Z0 G1 F300.00
G0 Z2.0000 F1500.00
G0 X63.8810 Y-15.4940 F1500.00
G1 Z-1.7000 F300.00
G1 Z0 G1 F300.00
G0 Z2.0000 F1500.00
G0 X63.8810 Y-18.0340 F1500.00
G1 Z-1.7000 F300.00
G1 Z0 G1 F300.00
G0 Z2.0000 F1500.00
G0 X63.8810 Y-20.5740 F1500.00
G1 Z-1.7000 F300.00
G1 Z0 G1 F300.00
G0 Z2.0000 F1500.00
G0 X63.8810 Y-23.1140 F1500.00
G1 Z-1.7000 F300.00
G1 Z0 G1 F300.00
G0 Z2.0000 F1500.00
G0 X63.8810 Y-25.6540 F1500.00
G1 Z-1.7000 F300.00
G1 Z0 G1 F300.00
G0 Z2.0000 F1500.00
G0 X63.8810 Y-28.1940 F1500.00
G1 Z-1.7000 F300.00
G1 Z0 G1 F300.00
G0 Z2.0000 F1500.00
G0 X63.8810 Y-30.7340 F1500.00
G1 Z-1.7000 F300.00
G1 Z0 G1 F300.00
G0 Z2.0000 F1500.00
G0 X53.7210 Y-31.7500 F1500.00
G1 Z-1.7000 F300.00
G1 Z0 G1 F300.00
G0 Z2.0000 F1500.00
G0 X51.5620 Y-31.7500 F1500.00
G1 Z-1.7000 F300.00
G1 Z0 G1 F300.00
G0 Z2.0000 F1500.00
G0 X51.5620 Y-29.2100 F1500.00
G1 Z-1.7000 F300.00
G1 Z0 G1 F300.00
G0 Z2.0000 F1500.00
G0 X51.5620 Y-26.6700 F1500.00
G1 Z-1.7000 F300.00
G1 Z0 G1 F300.00
G0 Z2.0000 F1500.00
G0 X51.5620 Y-24.1300 F1500.00
G1 Z-1.7000 F300.00
G1 Z0 G1 F300.00
G0 Z2.0000 F1500.00
G0 X51.5620 Y-21.5900 F1500.00
G1 Z-1.7000 F300.00
G1 Z0 G1 F300.00
G0 Z2.0000 F1500.00
G0 X51.5620 Y-19.0500 F1500.00
G1 Z-1.7000 F300.00
G1 Z0 G1 F300.00
G0 Z2.0000 F1500.00
G0 X51.5620 Y-16.5100 F1500.00
G1 Z-1.7000 F300.00
G1 Z0 G1 F300.00
G0 Z2.0000 F1500.00
G0 X51.5620 Y-13.9700 F1500.00
G1 Z-1.7000 F300.00
G1 Z0 G1 F300.00
G0 Z2.0000 F1500.00
G0 X52.8320 Y-7.8740 F1500.00
G1 Z-1.7000 F300.00
G1 Z0 G1 F300.00
G0 Z2.0000 F1500.00
G0 X50.8000 Y-5.4610 F1500.00
G1 Z-1.7000 F300.00
G1 Z0 G1 F300.00
G0 Z2.0000 F1500.00
G0 X48.2600 Y-5.4610 F1500.00
G1 Z-1.7000 F300.00
G1 Z0 G1 F300.00
G0 Z2.0000 F1500.00
G0 X47.4980 Y-2.5400 F1500.00
G1 Z-1.7000 F300.00
G1 Z0 G1 F300.00
G0 Z2.0000 F1500.00
G0 X44.9580 Y-2.5400 F1500.00
G1 Z-1.7000 F300.00
G1 Z0 G1 F300.00
G0 Z2.0000 F1500.00
G0 X50.0380 Y-2.5400 F1500.00
G1 Z-1.7000 F300.00
G1 Z0 G1 F300.00
G0 Z2.0000 F1500.00
G0 X52.8320 Y-0.2540 F1500.00
G1 Z-1.7000 F300.00
G1 Z0 G1 F300.00
G0 Z2.0000 F1500.00
G0 X43.9420 Y-13.9700 F1500.00
G1 Z-1.7000 F300.00
G1 Z0 G1 F300.00
G0 Z2.0000 F1500.00
G0 X43.9420 Y-16.5100 F1500.00
G1 Z-1.7000 F300.00
G1 Z0 G1 F300.00
G0 Z2.0000 F1500.00
G0 X35.8140 Y-1.3970 F1500.00
G1 Z-1.7000 F300.00
G1 Z0 G1 F300.00
G0 Z2.0000 F1500.00
G0 X51.4350 Y-36.0680 F1500.00
G1 Z-1.7000 F300.00
G1 Z0 G1 F300.00
G0 Z2.0000 F1500.00
G0 X51.4350 Y-38.6080 F1500.00
G1 Z-1.7000 F300.00
G1 Z0 G1 F300.00
G0 Z2.0000 F1500.00
G0 X51.4350 Y-41.1480 F1500.00
G1 Z-1.7000 F300.00
G1 Z0 G1 F300.00
G0 Z2.0000 F1500.00
G0 X51.4350 Y-43.6880 F1500.00
G1 Z-1.7000 F300.00
G1 Z0 G1 F300.00
G0 Z2.0000 F1500.00
G0 X51.4350 Y-46.2280 F1500.00
G1 Z-1.7000 F300.00
G1 Z0 G1 F300.00
G0 Z2.0000 F1500.00
G0 X51.4350 Y-48.7680 F1500.00
G1 Z-1.7000 F300.00
G1 Z0 G1 F300.00
G0 Z2.0000 F1500.00
G0 X51.4350 Y-51.3080 F1500.00
G1 Z-1.7000 F300.00
G1 Z0 G1 F300.00
G0 Z2.0000 F1500.00
G0 X51.4350 Y-53.8480 F1500.00
G1 Z-1.7000 F300.00
G1 Z0 G1 F300.00
G0 Z2.0000 F1500.00
G0 X53.7210 Y-53.8480 F1500.00
G1 Z-1.7000 F300.00
G1 Z0 G1 F300.00
G0 Z2.0000 F1500.00
G0 X52.3240 Y-66.6750 F1500.00
G1 Z-1.7000 F300.00
G1 Z0 G1 F300.00
G0 Z2.0000 F1500.00
G0 X81.6610 Y-70.3580 F1500.00
G1 Z-1.7000 F300.00
G1 Z0 G1 F300.00
G0 Z2.0000 F1500.00
G0 X82.2960 Y-67.3100 F1500.00
G1 Z-1.7000 F300.00
G1 Z0 G1 F300.00
G0 Z2.0000 F1500.00
G0 X84.8360 Y-67.3100 F1500.00
G1 Z-1.7000 F300.00
G1 Z0 G1 F300.00
G0 Z2.0000 F1500.00
G0 X88.1820 Y-67.1170 F1500.00
G1 Z-1.7000 F300.00
G1 Z0 G1 F300.00
G0 Z2.0000 F1500.00
G0 X89.1540 Y-64.7700 F1500.00
G1 Z-1.7000 F300.00
G1 Z0 G1 F300.00
G0 Z2.0000 F1500.00
G0 X90.1260 Y-62.4230 F1500.00
G1 Z-1.7000 F300.00
G1 Z0 G1 F300.00
G0 Z2.0000 F1500.00
G0 X89.2810 Y-70.3580 F1500.00
G1 Z-1.7000 F300.00
G1 Z0 G1 F300.00
G0 Z2.0000 F1500.00
G0 X82.4230 Y-58.0390 F1500.00
G1 Z-1.7000 F300.00
G1 Z0 G1 F300.00
G0 Z2.0000 F1500.00
G0 X85.2170 Y-55.4990 F1500.00
G1 Z-1.7000 F300.00
G1 Z0 G1 F300.00
G0 Z2.0000 F1500.00
G0 X87.3760 Y-53.2130 F1500.00
G1 Z-1.7000 F300.00
G1 Z0 G1 F300.00
G0 Z2.0000 F1500.00
G0 X87.5030 Y-50.1650 F1500.00
G1 Z-1.7000 F300.00
G1 Z0 G1 F300.00
G0 Z2.0000 F1500.00
G0 X84.9630 Y-50.1650 F1500.00
G1 Z-1.7000 F300.00
G1 Z0 G1 F300.00
G0 Z2.0000 F1500.00
G0 X92.4560 Y-50.0380 F1500.00
G1 Z-1.7000 F300.00
G1 Z0 G1 F300.00
G0 Z2.0000 F1500.00
G0 X92.4560 Y-47.4980 F1500.00
G1 Z-1.7000 F300.00
G1 Z0 G1 F300.00
G0 Z2.0000 F1500.00
G0 X92.4560 Y-44.9580 F1500.00
G1 Z-1.7000 F300.00
G1 Z0 G1 F300.00
G0 Z2.0000 F1500.00
G0 X94.9960 Y-53.2130 F1500.00
G1 Z-1.7000 F300.00
G1 Z0 G1 F300.00
G0 Z2.0000 F1500.00
G0 X93.4720 Y-34.9250 F1500.00
G1 Z-1.7000 F300.00
G1 Z0 G1 F300.00
G0 Z2.0000 F1500.00
G0 X80.6450 Y-22.9870 F1500.00
G1 Z-1.7000 F300.00
G1 Z0 G1 F300.00
G0 Z2.0000 F1500.00
G0 X25.4000 Y-40.0050 F1500.00
G1 Z-1.7000 F300.00
G1 Z0 G1 F300.00
G0 Z2.0000 F1500.00
M400
M5
G0 Z0.50 F1500.00


