(G-CODE GENERATED BY FLATCAM v8.994 - www.flatcam.org - Version Date: 2020/11/7)

(Name: Drill_NPTH_Through.DRL_cnc)
(Type: G-code from Geometry)
(Units: MM)

(Created on Tuesday, 10 June 2025 at 14:56)


;TOOLS DIAMETER: 
;Tool: 1 -> Dia: 2.794
;Tool: 2 -> Dia: 3.0

;FEEDRATE Z: 
;Tool: 1 -> Feedrate: 250.0
;Tool: 2 -> Feedrate: 250.0

;FEEDRATE RAPIDS: 
;Tool: 1 -> Feedrate Rapids: 1500
;Tool: 2 -> Feedrate Rapids: 1500

;Z_CUT: 
;Tool: 1 -> Z_Cut: -2.5
;Tool: 2 -> Z_Cut: -2.5

;Tools Offset: 
;Tool: 2 -> Offset Z: 0.0
;Tool: 1 -> Offset Z: 0.0

;Z_MOVE: 
;Tool: 1 -> Z_Move: 2
;Tool: 2 -> Z_Move: 2

;Z Toolchange: 15 mm
;X,Y Toolchange: 0.0000, 0.0000 mm
;Z Start: None mm
;Z End: 0.5 mm
;X,Y End: None mm
(Steps per circle: 64)
;Steps per circle: 64
;Preprocessor Excellon: Marlin

;X range:    1.8790 ...   93.1490  mm
;Y range:  -93.2000 ...   -1.9290  mm

;Spindle Speed: 18000 RPM)
G21
G90

G1 F250.00

M5
G0 Z15.0000
G0 X0.0000 Y0.0000                
T1
M6
;MSG, Change to Tool Dia = 2.7940, Total drills for tool T1 = 11
M0
G0 Z15.0000

G1 F250.00
M3 S18000
G0 X32.6390 Y-52.8320 F1500.00
G1 Z-2.5000 F250.00
G1 Z0 G1 F250.00
G0 Z2.0000 F1500.00
G0 X32.6390 Y-52.8320 F1500.00
G1 Z-2.5000 F250.00
G1 Z0 G1 F250.00
G0 Z2.0000 F1500.00
G0 X32.6390 Y-52.8320 F1500.00
G1 Z-2.5000 F250.00
G1 Z0 G1 F250.00
G0 Z2.0000 F1500.00
G0 X62.1030 Y-52.8320 F1500.00
G1 Z-2.5000 F250.00
G1 Z0 G1 F250.00
G0 Z2.0000 F1500.00
G0 X91.6490 Y-56.3430 F1500.00
G1 Z-2.5000 F250.00
G1 Z0 G1 F250.00
G0 Z2.0000 F1500.00
G0 X91.6490 Y-38.7850 F1500.00
G1 Z-2.5000 F250.00
G1 Z0 G1 F250.00
G0 Z2.0000 F1500.00
G0 X56.2930 Y-3.4290 F1500.00
G1 Z-2.5000 F250.00
G1 Z0 G1 F250.00
G0 Z2.0000 F1500.00
G0 X38.7350 Y-3.4290 F1500.00
G1 Z-2.5000 F250.00
G1 Z0 G1 F250.00
G0 Z2.0000 F1500.00
G0 X3.3790 Y-38.7850 F1500.00
G1 Z-2.5000 F250.00
G1 Z0 G1 F250.00
G0 Z2.0000 F1500.00
G0 X3.3790 Y-56.3430 F1500.00
G1 Z-2.5000 F250.00
G1 Z0 G1 F250.00
G0 Z2.0000 F1500.00
G0 X38.7350 Y-91.7000 F1500.00
G1 Z-2.5000 F250.00
G1 Z0 G1 F250.00
G0 Z2.0000 F1500.00
G0 X56.2930 Y-91.7000 F1500.00
G1 Z-2.5000 F250.00
G1 Z0 G1 F250.00
G0 Z2.0000 F1500.00
M400
M5
G0 Z0.50 F1500.00


