(G-CODE GENERATED BY FLATCAM v8.994 - www.flatcam.org - Version Date: 2020/11/7)

(Name: Gerber_TopLayer.GTL_iso_combined_cnc)
(Type: G-code from Geometry)
(Units: MM)

(Created on Tuesday, 10 June 2025 at 14:54)

(This preprocessor is the default preprocessor used by FlatCAM.)
(It is made to work with MACH3 compatible motion controllers.)

(TOOL DIAMETER: 0.2 mm)
(Feedrate_XY: 250.0 mm/min)
(Feedrate_Z: 60.0 mm/min)
(Feedrate rapids 1500.0 mm/min)

(Z_Cut: 0.0 mm)
(Z_Move: 2.0 mm)
(Z Start: None mm)
(Z End: 15.0 mm)
(X,Y End: None mm)
(Steps per circle: 64)
(Preprocessor Geometry: default)

(X range:   -1.3354 ...   96.3634  mm)
(Y range:  -96.4132 ...    1.2856  mm)

(Spindle Speed: 24000.0 RPM)
G21
G90
G94

G01 F250.00

M5
G00 Z15.0000
G00 X0.0000 Y0.0000
T1
M6    
(MSG, Change to Tool Dia = 0.2000)
M0
G00 Z15.0000

M03 S24000.0
G01 F250.00
G00 X17.4173 Y-12.9933
G01 F60.00
G01 Z0.0000
G01 F250.00
G01 X17.2917 Y-13.0015
G01 X17.1690 Y-13.0259
G01 X17.0502 Y-13.0664
G01 X16.9376 Y-13.1216
G01 X16.8338 Y-13.1914
G01 X16.7393 Y-13.2743
G01 X16.6564 Y-13.3687
G01 X16.5866 Y-13.4725
G01 X16.5315 Y-13.5851
G01 X16.4910 Y-13.7039
G01 X16.4666 Y-13.8266
G01 X16.4583 Y-13.9517
G01 X16.4666 Y-14.0773
G01 X16.4910 Y-14.2000
G01 X16.5315 Y-14.3188
G01 X16.5866 Y-14.4314
G01 X16.6564 Y-14.5352
G01 X16.7393 Y-14.6296
G01 X16.8338 Y-14.7126
G01 X16.9376 Y-14.7824
G01 X17.0502 Y-14.8375
G01 X17.1689 Y-14.8780
G01 X17.2917 Y-14.9024
G01 X17.4173 Y-14.9107
G01 X17.5424 Y-14.9024
G01 X17.6651 Y-14.8780
G01 X17.7839 Y-14.8375
G01 X17.8965 Y-14.7823
G01 X18.0017 Y-14.7119
G01 X18.0127 Y-14.7062
G01 X18.0447 Y-14.6919
G01 X18.0539 Y-14.6884
G01 X18.0658 Y-14.6852
G01 X18.0755 Y-14.6838
G01 X18.1149 Y-14.6809
G01 X18.1246 Y-14.6809
G01 X18.1343 Y-14.6818
G01 X18.1438 Y-14.6837
G01 X18.1869 Y-14.6957
G01 X18.1986 Y-14.7007
G01 X18.2094 Y-14.7071
G01 X18.2419 Y-14.7303
G01 X18.2508 Y-14.7379
G01 X18.7986 Y-15.2856
G01 X18.8036 Y-15.2909
G01 X18.8081 Y-15.2965
G01 X18.8122 Y-15.3025
G01 X18.8356 Y-15.3391
G01 X18.8402 Y-15.3471
G01 X18.8449 Y-15.3577
G01 X18.8709 Y-15.4269
G01 X18.9225 Y-15.5216
G01 X18.9870 Y-15.6076
G01 X19.0634 Y-15.6839
G01 X19.1494 Y-15.7485
G01 X19.2440 Y-15.8000
G01 X19.3449 Y-15.8377
G01 X19.4503 Y-15.8606
G01 X19.5580 Y-15.8682
G01 X19.6657 Y-15.8606
G01 X19.7711 Y-15.8377
G01 X19.8755 Y-15.7987
G01 X19.9086 Y-15.7838
G01 X19.9179 Y-15.7802
G01 X19.9252 Y-15.7780
G01 X19.9325 Y-15.7765
G01 X19.9673 Y-15.7722
G01 X19.9746 Y-15.7720
G01 X20.5713 Y-15.7720
G01 X20.5784 Y-15.7724
G01 X20.5854 Y-15.7733
G01 X20.6248 Y-15.7808
G01 X20.6342 Y-15.7831
G01 X20.6455 Y-15.7872
G01 X20.6541 Y-15.7914
G01 X20.6897 Y-15.8131
G01 X20.6957 Y-15.8170
G01 X20.7013 Y-15.8214
G01 X20.7067 Y-15.8261
G01 X20.7116 Y-15.8312
G01 X20.7177 Y-15.8386
G01 X20.7442 Y-15.8746
G01 X20.7491 Y-15.8832
G01 X20.7657 Y-15.9161
G01 X20.8404 Y-16.0291
G01 X20.9283 Y-16.1318
G01 X21.0284 Y-16.2226
G01 X21.1389 Y-16.3009
G01 X21.2581 Y-16.3652
G01 X21.3840 Y-16.4140
G01 X21.5149 Y-16.4466
G01 X21.6495 Y-16.4633
G01 X21.7845 Y-16.4633
G01 X21.9191 Y-16.4466
G01 X22.0499 Y-16.4140
G01 X22.1759 Y-16.3652
G01 X22.2951 Y-16.3009
G01 X22.4056 Y-16.2226
G01 X22.5057 Y-16.1318
G01 X22.5935 Y-16.0291
G01 X22.6681 Y-15.9163
G01 X22.7287 Y-15.7952
G01 X22.7738 Y-15.6677
G01 X22.8026 Y-15.5357
G01 X22.8147 Y-15.4010
G01 X22.8110 Y-15.2654
G01 X22.7901 Y-15.1321
G01 X22.7528 Y-15.0020
G01 X22.7002 Y-14.8772
G01 X22.6327 Y-14.7604
G01 X22.5512 Y-14.6523
G01 X22.4572 Y-14.5551
G01 X22.3516 Y-14.4704
G01 X22.2366 Y-14.3992
G01 X22.1137 Y-14.3428
G01 X21.9850 Y-14.3018
G01 X21.8519 Y-14.2767
G01 X21.7170 Y-14.2683
G01 X21.5821 Y-14.2767
G01 X21.4489 Y-14.3018
G01 X21.3203 Y-14.3428
G01 X21.1974 Y-14.3992
G01 X21.1514 Y-14.4273
G01 X21.1152 Y-14.4434
G01 X21.1082 Y-14.4458
G01 X21.0987 Y-14.4481
G01 X21.0611 Y-14.4536
G01 X21.0515 Y-14.4540
G01 X19.9746 Y-14.4540
G01 X19.9649 Y-14.4536
G01 X19.9375 Y-14.4503
G01 X19.9301 Y-14.4491
G01 X19.9227 Y-14.4473
G01 X19.9109 Y-14.4432
G01 X19.8754 Y-14.4272
G01 X19.8027 Y-14.3999
G01 X19.7942 Y-14.3962
G01 X19.7860 Y-14.3918
G01 X19.7475 Y-14.3672
G01 X19.7415 Y-14.3631
G01 X19.7359 Y-14.3586
G01 X19.7306 Y-14.3537
G01 X18.8475 Y-13.4710
G01 X18.7856 Y-13.4197
G01 X18.7715 Y-13.4098
G01 X18.7012 Y-13.3676
G01 X18.6860 Y-13.3598
G01 X18.6110 Y-13.3288
G01 X18.5947 Y-13.3235
G01 X18.5161 Y-13.3040
G01 X18.4989 Y-13.3011
G01 X18.4191 Y-13.2932
G01 X18.1866 Y-13.2926
G01 X18.1737 Y-13.2911
G01 X18.1381 Y-13.2845
G01 X18.1284 Y-13.2822
G01 X18.1190 Y-13.2789
G01 X18.1100 Y-13.2747
G01 X18.0688 Y-13.2503
G01 X18.0597 Y-13.2432
G01 X18.0004 Y-13.1914
G01 X17.8965 Y-13.1216
G01 X17.7839 Y-13.0664
G01 X17.6651 Y-13.0259
G01 X17.5424 Y-13.0015
G01 X17.4173 Y-12.9933
G00 Z2.0000
G00 X18.0863 Y-13.3517
G01 F60.00
G01 Z0.0000
G01 F250.00
G01 X18.0517 Y-13.3138
G01 X17.9917 Y-13.2595
G01 X17.9861 Y-13.2547
G01 X17.9170 Y-13.2036
G01 X17.8456 Y-13.1607
G01 X17.8391 Y-13.1571
G01 X17.7614 Y-13.1205
G01 X17.6783 Y-13.0907
G01 X17.5926 Y-13.0693
G01 X17.5101 Y-13.0569
G01 X17.5028 Y-13.0561
G01 X17.4170 Y-13.0520
G01 X17.3288 Y-13.0563
G01 X17.2414 Y-13.0693
G01 X17.1558 Y-13.0907
G01 X17.0726 Y-13.1205
G01 X16.9928 Y-13.1582
G01 X16.9170 Y-13.2036
G01 X16.8499 Y-13.2532
G01 X16.8442 Y-13.2578
G01 X16.7806 Y-13.3156
G01 X16.7213 Y-13.3810
G01 X16.6687 Y-13.4519
G01 X16.6233 Y-13.5277
G01 X16.5855 Y-13.6075
G01 X16.5558 Y-13.6907
G01 X16.5343 Y-13.7764
G01 X16.5214 Y-13.8637
G01 X16.5170 Y-13.9520
G01 X16.5214 Y-14.0402
G01 X16.5343 Y-14.1275
G01 X16.5558 Y-14.2132
G01 X16.5855 Y-14.2964
G01 X16.6233 Y-14.3762
G01 X16.6687 Y-14.4520
G01 X16.7183 Y-14.5190
G01 X16.7229 Y-14.5248
G01 X16.7806 Y-14.5884
G01 X16.8461 Y-14.6477
G01 X16.9170 Y-14.7003
G01 X16.9885 Y-14.7433
G01 X16.9972 Y-14.7479
G01 X17.0726 Y-14.7835
G01 X17.1511 Y-14.8117
G01 X17.1605 Y-14.8145
G01 X17.2367 Y-14.8336
G01 X17.2463 Y-14.8355
G01 X17.3288 Y-14.8476
G01 X17.4146 Y-14.8519
G01 X17.4219 Y-14.8518
G01 X17.5052 Y-14.8476
G01 X17.5926 Y-14.8347
G01 X17.6783 Y-14.8132
G01 X17.7614 Y-14.7835
G01 X17.8413 Y-14.7457
G01 X17.9129 Y-14.7029
G01 X17.9191 Y-14.6989
G01 X17.9841 Y-14.6507
G01 X17.9899 Y-14.6461
G01 X18.0517 Y-14.5901
G01 X18.0863 Y-14.5522
G01 X18.1483 Y-14.5522
G01 X18.8842 Y-15.2880
G01 X18.8918 Y-15.3176
G01 X18.9132 Y-15.3774
G01 X18.9423 Y-15.4393
G01 X18.9458 Y-15.4458
G01 X18.9785 Y-15.5002
G01 X19.0178 Y-15.5532
G01 X19.0225 Y-15.5588
G01 X19.0652 Y-15.6058
G01 X19.1159 Y-15.6517
G01 X19.1708 Y-15.6925
G01 X19.2295 Y-15.7276
G01 X19.2868 Y-15.7549
G01 X19.2959 Y-15.7586
G01 X19.3557 Y-15.7799
G01 X19.4173 Y-15.7954
G01 X19.4269 Y-15.7973
G01 X19.4897 Y-15.8065
G01 X19.5580 Y-15.8099
G01 X19.6214 Y-15.8069
G01 X19.6312 Y-15.8059
G01 X19.6940 Y-15.7965
G01 X19.7579 Y-15.7806
G01 X19.8201 Y-15.7586
G01 X19.8269 Y-15.7559
G01 X19.8843 Y-15.7287
G01 X19.9107 Y-15.7133
G01 X20.7377 Y-15.7133
G01 X20.7573 Y-15.7672
G01 X20.7988 Y-15.8550
G01 X20.8024 Y-15.8614
G01 X20.8498 Y-15.9405
G01 X20.8538 Y-15.9467
G01 X20.9102 Y-16.0228
G01 X20.9164 Y-16.0304
G01 X20.9818 Y-16.1022
G01 X21.0555 Y-16.1692
G01 X21.0612 Y-16.1738
G01 X21.1393 Y-16.2316
G01 X21.2226 Y-16.2816
G01 X21.2312 Y-16.2862
G01 X21.3191 Y-16.3276
G01 X21.4105 Y-16.3605
G01 X21.4199 Y-16.3633
G01 X21.5117 Y-16.3863
G01 X21.5190 Y-16.3877
G01 X21.6102 Y-16.4012
G01 X21.6200 Y-16.4022
G01 X21.7170 Y-16.4068
G01 X21.8189 Y-16.4018
G01 X21.9199 Y-16.3868
G01 X22.0141 Y-16.3633
G01 X22.0235 Y-16.3605
G01 X22.1103 Y-16.3294
G01 X22.1194 Y-16.3257
G01 X22.2072 Y-16.2840
G01 X22.2947 Y-16.2316
G01 X22.3766 Y-16.1708
G01 X22.4487 Y-16.1056
G01 X22.4556 Y-16.0987
G01 X22.5176 Y-16.0304
G01 X22.5238 Y-16.0228
G01 X22.5816 Y-15.9447
G01 X22.6328 Y-15.8593
G01 X22.6362 Y-15.8528
G01 X22.6776 Y-15.7649
G01 X22.7120 Y-15.6688
G01 X22.7368 Y-15.5699
G01 X22.7518 Y-15.4689
G01 X22.7568 Y-15.3670
G01 X22.7518 Y-15.2651
G01 X22.7368 Y-15.1641
G01 X22.7120 Y-15.0652
G01 X22.6776 Y-14.9691
G01 X22.6340 Y-14.8768
G01 X22.5816 Y-14.7893
G01 X22.5208 Y-14.7074
G01 X22.4522 Y-14.6318
G01 X22.3766 Y-14.5632
G01 X22.2947 Y-14.5024
G01 X22.2093 Y-14.4512
G01 X22.2028 Y-14.4478
G01 X22.1149 Y-14.4064
G01 X22.0235 Y-14.3735
G01 X22.0141 Y-14.3707
G01 X21.9199 Y-14.3472
G01 X21.8238 Y-14.3328
G01 X21.8140 Y-14.3318
G01 X21.7219 Y-14.3273
G01 X21.7145 Y-14.3272
G01 X21.6151 Y-14.3322
G01 X21.5190 Y-14.3463
G01 X21.5094 Y-14.3483
G01 X21.4152 Y-14.3720
G01 X21.3191 Y-14.4064
G01 X21.2312 Y-14.4478
G01 X21.2226 Y-14.4524
G01 X21.1435 Y-14.4998
G01 X21.1373 Y-14.5038
G01 X21.1252 Y-14.5127
G01 X19.9107 Y-14.5127
G01 X19.8843 Y-14.4973
G01 X19.8247 Y-14.4691
G01 X19.7626 Y-14.4468
G01 X19.7330 Y-14.4392
G01 X18.8214 Y-13.5275
G01 X18.7778 Y-13.4880
G01 X18.7345 Y-13.4557
G01 X18.7284 Y-13.4515
G01 X18.6799 Y-13.4226
G01 X18.6267 Y-13.3974
G01 X18.5712 Y-13.3776
G01 X18.5189 Y-13.3643
G01 X18.5092 Y-13.3624
G01 X18.4558 Y-13.3546
G01 X18.3994 Y-13.3517
G01 X18.0863 Y-13.3517
G00 Z2.0000
G00 X12.9748 Y-17.8367
G01 F60.00
G01 Z0.0000
G01 F250.00
G01 X12.9748 Y-30.2082
G01 X12.9789 Y-30.2916
G01 X12.9912 Y-30.3741
G01 X13.0115 Y-30.4551
G01 X13.0387 Y-30.5314
G01 X13.0416 Y-30.5381
G01 X13.0752 Y-30.6091
G01 X13.1181 Y-30.6807
G01 X13.1679 Y-30.7477
G01 X13.2239 Y-30.8095
G01 X20.4027 Y-37.9883
G01 X20.4609 Y-38.0412
G01 X20.4684 Y-38.0474
G01 X20.5316 Y-38.0941
G01 X20.6032 Y-38.1370
G01 X20.6786 Y-38.1727
G01 X20.7525 Y-38.1993
G01 X20.7619 Y-38.2021
G01 X20.8381 Y-38.2211
G01 X20.9207 Y-38.2333
G01 X21.0040 Y-38.2374
G01 X30.6849 Y-38.2374
G01 X30.7634 Y-38.2337
G01 X30.7732 Y-38.2327
G01 X30.8508 Y-38.2211
G01 X30.9271 Y-38.2021
G01 X30.9365 Y-38.1993
G01 X31.0104 Y-38.1727
G01 X31.0814 Y-38.1392
G01 X31.0880 Y-38.1358
G01 X31.1574 Y-38.0941
G01 X31.2206 Y-38.0474
G01 X31.2281 Y-38.0412
G01 X31.2863 Y-37.9883
G01 X44.3368 Y-24.9378
G01 X44.3684 Y-24.9225
G01 X44.4379 Y-24.8809
G01 X44.4440 Y-24.8769
G01 X44.5130 Y-24.8257
G01 X44.5784 Y-24.7664
G01 X44.6345 Y-24.7047
G01 X44.6407 Y-24.6971
G01 X44.6903 Y-24.6300
G01 X44.7357 Y-24.5543
G01 X44.7735 Y-24.4744
G01 X44.8017 Y-24.3959
G01 X44.8046 Y-24.3865
G01 X44.8247 Y-24.3056
G01 X44.8377 Y-24.2182
G01 X44.8419 Y-24.1349
G01 X44.8419 Y-24.1251
G01 X44.8377 Y-24.0418
G01 X44.8247 Y-23.9544
G01 X44.8046 Y-23.8735
G01 X44.8017 Y-23.8641
G01 X44.7753 Y-23.7902
G01 X44.7715 Y-23.7811
G01 X44.7357 Y-23.7057
G01 X44.6929 Y-23.6341
G01 X44.6875 Y-23.6260
G01 X44.6407 Y-23.5629
G01 X44.6345 Y-23.5553
G01 X44.5784 Y-23.4936
G01 X44.5130 Y-23.4343
G01 X44.4420 Y-23.3817
G01 X44.3705 Y-23.3387
G01 X44.3619 Y-23.3341
G01 X44.2909 Y-23.3005
G01 X44.2818 Y-23.2967
G01 X44.2033 Y-23.2688
G01 X44.1176 Y-23.2473
G01 X44.0302 Y-23.2343
G01 X43.9469 Y-23.2301
G01 X43.9371 Y-23.2301
G01 X43.8538 Y-23.2343
G01 X43.7664 Y-23.2473
G01 X43.6855 Y-23.2674
G01 X43.6761 Y-23.2703
G01 X43.5976 Y-23.2985
G01 X43.5177 Y-23.3363
G01 X43.4461 Y-23.3791
G01 X43.4380 Y-23.3845
G01 X43.3692 Y-23.4359
G01 X43.3056 Y-23.4936
G01 X43.2495 Y-23.5553
G01 X43.2448 Y-23.5610
G01 X43.1965 Y-23.6260
G01 X43.1923 Y-23.6320
G01 X43.1495 Y-23.7036
G01 X43.1342 Y-23.7352
G01 X30.3327 Y-36.5367
G01 X21.3563 Y-36.5367
G01 X14.6756 Y-29.8560
G01 X14.6756 Y-17.8353
G01 X14.6869 Y-17.8029
G01 X14.7066 Y-17.7244
G01 X14.7081 Y-17.7172
G01 X14.7206 Y-17.6322
G01 X14.7250 Y-17.5440
G01 X14.7206 Y-17.4558
G01 X14.7085 Y-17.3733
G01 X14.7066 Y-17.3637
G01 X14.6855 Y-17.2804
G01 X14.6565 Y-17.1996
G01 X14.6187 Y-17.1198
G01 X14.5733 Y-17.0440
G01 X14.5207 Y-16.9731
G01 X14.4614 Y-16.9076
G01 X14.3959 Y-16.8483
G01 X14.3250 Y-16.7957
G01 X14.2492 Y-16.7503
G01 X14.1694 Y-16.7125
G01 X14.0862 Y-16.6828
G01 X14.0005 Y-16.6613
G01 X13.9132 Y-16.6484
G01 X13.8250 Y-16.6440
G01 X13.7367 Y-16.6484
G01 X13.6494 Y-16.6613
G01 X13.5684 Y-16.6815
G01 X13.5614 Y-16.6835
G01 X13.4805 Y-16.7125
G01 X13.4007 Y-16.7503
G01 X13.3249 Y-16.7957
G01 X13.2540 Y-16.8483
G01 X13.1886 Y-16.9076
G01 X13.1293 Y-16.9731
G01 X13.0766 Y-17.0440
G01 X13.0337 Y-17.1155
G01 X13.0301 Y-17.1220
G01 X12.9935 Y-17.1996
G01 X12.9637 Y-17.2828
G01 X12.9423 Y-17.3684
G01 X12.9299 Y-17.4509
G01 X12.9291 Y-17.4583
G01 X12.9250 Y-17.5440
G01 X12.9289 Y-17.6274
G01 X12.9296 Y-17.6347
G01 X12.9414 Y-17.7148
G01 X12.9428 Y-17.7220
G01 X12.9630 Y-17.8029
G01 X12.9748 Y-17.8367
G00 Z2.0000
G00 X7.6104 Y-27.4060
G01 F60.00
G01 Z0.0000
G01 F250.00
G01 X7.5757 Y-27.3682
G01 X7.5157 Y-27.3138
G01 X7.5101 Y-27.3090
G01 X7.4411 Y-27.2580
G01 X7.3696 Y-27.2150
G01 X7.3631 Y-27.2114
G01 X7.2855 Y-27.1748
G01 X7.2023 Y-27.1450
G01 X7.1166 Y-27.1236
G01 X7.0317 Y-27.1109
G01 X7.0244 Y-27.1103
G01 X6.9411 Y-27.1063
G01 X6.8528 Y-27.1106
G01 X6.7655 Y-27.1236
G01 X6.6845 Y-27.1437
G01 X6.6751 Y-27.1466
G01 X6.6012 Y-27.1730
G01 X6.5921 Y-27.1768
G01 X6.5168 Y-27.2126
G01 X6.4452 Y-27.2553
G01 X6.4390 Y-27.2594
G01 X6.3701 Y-27.3106
G01 X6.3047 Y-27.3699
G01 X6.2453 Y-27.4353
G01 X6.1927 Y-27.5063
G01 X6.1473 Y-27.5820
G01 X6.1096 Y-27.6619
G01 X6.0798 Y-27.7450
G01 X6.0594 Y-27.8259
G01 X6.0575 Y-27.8355
G01 X6.0454 Y-27.9181
G01 X6.0412 Y-28.0014
G01 X6.0412 Y-28.0112
G01 X6.0450 Y-28.0896
G01 X6.0460 Y-28.0994
G01 X6.0583 Y-28.1819
G01 X6.0798 Y-28.2675
G01 X6.1096 Y-28.3507
G01 X6.1473 Y-28.4305
G01 X6.1927 Y-28.5063
G01 X6.2423 Y-28.5734
G01 X6.2485 Y-28.5810
G01 X6.3047 Y-28.6427
G01 X6.3664 Y-28.6988
G01 X6.3740 Y-28.7050
G01 X6.4410 Y-28.7546
G01 X6.5125 Y-28.7976
G01 X6.5212 Y-28.8022
G01 X6.5966 Y-28.8378
G01 X6.6751 Y-28.8660
G01 X6.6845 Y-28.8688
G01 X6.7655 Y-28.8890
G01 X6.8480 Y-28.9014
G01 X6.8577 Y-28.9023
G01 X6.9361 Y-28.9062
G01 X6.9460 Y-28.9062
G01 X7.0293 Y-28.9020
G01 X7.1118 Y-28.8898
G01 X7.1214 Y-28.8879
G01 X7.2023 Y-28.8675
G01 X7.2832 Y-28.8387
G01 X7.2900 Y-28.8358
G01 X7.3653 Y-28.8000
G01 X7.4369 Y-28.7572
G01 X7.4431 Y-28.7532
G01 X7.5081 Y-28.7050
G01 X7.5139 Y-28.7004
G01 X7.5757 Y-28.6444
G01 X7.6104 Y-28.6065
G01 X9.6546 Y-28.6065
G01 X9.8849 Y-28.8369
G01 X9.8742 Y-28.9101
G01 X9.8692 Y-29.0120
G01 X9.8742 Y-29.1140
G01 X9.8849 Y-29.1872
G01 X9.5248 Y-29.5473
G01 X9.4885 Y-29.5873
G01 X9.4837 Y-29.5929
G01 X9.4530 Y-29.6343
G01 X9.4476 Y-29.6424
G01 X9.4199 Y-29.6888
G01 X9.3967 Y-29.7376
G01 X9.3930 Y-29.7466
G01 X9.3749 Y-29.7975
G01 X9.3611 Y-29.8523
G01 X9.3597 Y-29.8595
G01 X9.3519 Y-29.9129
G01 X9.3490 Y-29.9718
G01 X9.3490 Y-31.5766
G01 X9.3335 Y-31.6030
G01 X9.3045 Y-31.6649
G01 X9.2824 Y-31.7270
G01 X9.2668 Y-31.7885
G01 X9.2653 Y-31.7957
G01 X9.2557 Y-31.8610
G01 X9.2524 Y-31.9293
G01 X9.2557 Y-31.9976
G01 X9.2649 Y-32.0604
G01 X9.2668 Y-32.0700
G01 X9.2824 Y-32.1316
G01 X9.3054 Y-32.1960
G01 X9.3347 Y-32.2578
G01 X9.3672 Y-32.3123
G01 X9.3727 Y-32.3205
G01 X9.4106 Y-32.3714
G01 X9.4531 Y-32.4185
G01 X9.4601 Y-32.4255
G01 X9.5035 Y-32.4648
G01 X9.5110 Y-32.4710
G01 X9.5621 Y-32.5087
G01 X9.6165 Y-32.5415
G01 X9.6251 Y-32.5461
G01 X9.6781 Y-32.5712
G01 X9.6872 Y-32.5749
G01 X9.7470 Y-32.5962
G01 X9.8085 Y-32.6117
G01 X9.8182 Y-32.6136
G01 X9.8810 Y-32.6228
G01 X9.9493 Y-32.6262
G01 X10.0176 Y-32.6228
G01 X10.0804 Y-32.6136
G01 X10.0900 Y-32.6117
G01 X10.1516 Y-32.5962
G01 X10.2114 Y-32.5749
G01 X10.2205 Y-32.5712
G01 X10.2778 Y-32.5439
G01 X10.3323 Y-32.5114
G01 X10.3405 Y-32.5059
G01 X10.3914 Y-32.4680
G01 X10.4385 Y-32.4255
G01 X10.4454 Y-32.4185
G01 X10.4880 Y-32.3714
G01 X10.5287 Y-32.3165
G01 X10.5639 Y-32.2578
G01 X10.5911 Y-32.2005
G01 X10.5949 Y-32.1914
G01 X10.6162 Y-32.1316
G01 X10.6317 Y-32.0700
G01 X10.6336 Y-32.0604
G01 X10.6426 Y-32.0000
G01 X10.6432 Y-31.9927
G01 X10.6462 Y-31.9293
G01 X10.6432 Y-31.8659
G01 X10.6422 Y-31.8561
G01 X10.6323 Y-31.7909
G01 X10.6162 Y-31.7270
G01 X10.5940 Y-31.6649
G01 X10.5650 Y-31.6030
G01 X10.5495 Y-31.5766
G01 X10.5495 Y-30.2204
G01 X10.7338 Y-30.0361
G01 X10.8071 Y-30.0468
G01 X10.9090 Y-30.0518
G01 X11.0109 Y-30.0468
G01 X11.1070 Y-30.0327
G01 X11.1166 Y-30.0308
G01 X11.2061 Y-30.0084
G01 X11.2155 Y-30.0055
G01 X11.3069 Y-29.9727
G01 X11.3948 Y-29.9313
G01 X11.4034 Y-29.9267
G01 X11.4867 Y-29.8766
G01 X11.5686 Y-29.8158
G01 X11.6442 Y-29.7473
G01 X11.7096 Y-29.6754
G01 X11.7158 Y-29.6678
G01 X11.7736 Y-29.5897
G01 X11.8236 Y-29.5065
G01 X11.8282 Y-29.4978
G01 X11.8696 Y-29.4100
G01 X11.9025 Y-29.3185
G01 X11.9053 Y-29.3092
G01 X11.9288 Y-29.2149
G01 X11.9438 Y-29.1140
G01 X11.9487 Y-29.0170
G01 X11.9487 Y-29.0071
G01 X11.9438 Y-28.9101
G01 X11.9288 Y-28.8092
G01 X11.9040 Y-28.7102
G01 X11.8714 Y-28.6187
G01 X11.8677 Y-28.6096
G01 X11.8260 Y-28.5219
G01 X11.7762 Y-28.4385
G01 X11.7707 Y-28.4304
G01 X11.7128 Y-28.3524
G01 X11.6476 Y-28.2804
G01 X11.6407 Y-28.2734
G01 X11.5686 Y-28.2083
G01 X11.4907 Y-28.1503
G01 X11.4846 Y-28.1461
G01 X11.3991 Y-28.0950
G01 X11.3069 Y-28.0514
G01 X11.2108 Y-28.0170
G01 X11.1118 Y-27.9922
G01 X11.0109 Y-27.9773
G01 X10.9090 Y-27.9723
G01 X10.8071 Y-27.9773
G01 X10.7338 Y-27.9880
G01 X10.3277 Y-27.5818
G01 X10.2859 Y-27.5439
G01 X10.2802 Y-27.5393
G01 X10.2367 Y-27.5072
G01 X10.1862 Y-27.4769
G01 X10.1329 Y-27.4517
G01 X10.0821 Y-27.4334
G01 X10.0751 Y-27.4312
G01 X10.0203 Y-27.4176
G01 X9.9669 Y-27.4095
G01 X9.9572 Y-27.4086
G01 X9.9032 Y-27.4060
G01 X7.6104 Y-27.4060
G00 Z2.0000
G00 X6.9408 Y-27.0476
G01 F60.00
G01 Z0.0000
G01 F250.00
G01 X6.8157 Y-27.0559
G01 X6.6930 Y-27.0802
G01 X6.5742 Y-27.1207
G01 X6.4616 Y-27.1759
G01 X6.3578 Y-27.2457
G01 X6.2634 Y-27.3286
G01 X6.1805 Y-27.4230
G01 X6.1107 Y-27.5268
G01 X6.0555 Y-27.6394
G01 X6.0150 Y-27.7582
G01 X5.9906 Y-27.8814
G01 X5.9823 Y-28.0065
G01 X5.9906 Y-28.1316
G01 X6.0150 Y-28.2544
G01 X6.0555 Y-28.3731
G01 X6.1107 Y-28.4857
G01 X6.1805 Y-28.5895
G01 X6.2634 Y-28.6840
G01 X6.3578 Y-28.7669
G01 X6.4616 Y-28.8367
G01 X6.5742 Y-28.8918
G01 X6.6930 Y-28.9324
G01 X6.8157 Y-28.9567
G01 X6.9408 Y-28.9650
G01 X7.0659 Y-28.9567
G01 X7.1892 Y-28.9323
G01 X7.3079 Y-28.8918
G01 X7.4205 Y-28.8367
G01 X7.5244 Y-28.7668
G01 X7.5891 Y-28.7107
G01 X7.5967 Y-28.7055
G01 X7.6318 Y-28.6847
G01 X7.6430 Y-28.6794
G01 X7.6549 Y-28.6754
G01 X7.6978 Y-28.6672
G01 X7.7055 Y-28.6660
G01 X7.7160 Y-28.6655
G01 X9.5468 Y-28.6655
G01 X9.5566 Y-28.6660
G01 X9.5662 Y-28.6674
G01 X9.6072 Y-28.6755
G01 X9.6143 Y-28.6774
G01 X9.6212 Y-28.6797
G01 X9.6301 Y-28.6836
G01 X9.6386 Y-28.6884
G01 X9.6778 Y-28.7145
G01 X9.6838 Y-28.7193
G01 X9.6895 Y-28.7245
G01 X9.7602 Y-28.7962
G01 X9.7673 Y-28.8054
G01 X9.7938 Y-28.8466
G01 X9.7974 Y-28.8530
G01 X9.8015 Y-28.8620
G01 X9.8039 Y-28.8690
G01 X9.8064 Y-28.8786
G01 X9.8132 Y-28.9296
G01 X9.8139 Y-28.9400
G01 X9.8136 Y-28.9504
G01 X9.8111 Y-28.9823
G01 X9.8144 Y-29.0843
G01 X9.8142 Y-29.0946
G01 X9.8130 Y-29.1048
G01 X9.8049 Y-29.1504
G01 X9.8014 Y-29.1624
G01 X9.7975 Y-29.1716
G01 X9.7927 Y-29.1804
G01 X9.7690 Y-29.2171
G01 X9.7650 Y-29.2228
G01 X9.7590 Y-29.2300
G01 X9.4680 Y-29.5217
G01 X9.4188 Y-29.5811
G01 X9.3659 Y-29.6655
G01 X9.3261 Y-29.7584
G01 X9.3209 Y-29.7743
G01 X9.3009 Y-29.8529
G01 X9.2981 Y-29.8695
G01 X9.2907 Y-29.9497
G01 X9.2901 Y-31.5194
G01 X9.2860 Y-31.5532
G01 X9.2847 Y-31.5605
G01 X9.2820 Y-31.5699
G01 X9.2784 Y-31.5791
G01 X9.2558 Y-31.6295
G01 X9.2195 Y-31.7338
G01 X9.1993 Y-31.8396
G01 X9.1939 Y-31.9473
G01 X9.2042 Y-32.0543
G01 X9.2298 Y-32.1594
G01 X9.2698 Y-32.2595
G01 X9.3235 Y-32.3526
G01 X9.3904 Y-32.4374
G01 X9.4685 Y-32.5119
G01 X9.5558 Y-32.5742
G01 X9.6519 Y-32.6236
G01 X9.7538 Y-32.6591
G01 X9.8595 Y-32.6796
G01 X9.9670 Y-32.6846
G01 X10.0747 Y-32.6743
G01 X10.1792 Y-32.6487
G01 X10.2793 Y-32.6087
G01 X10.3725 Y-32.5550
G01 X10.4573 Y-32.4881
G01 X10.5319 Y-32.4099
G01 X10.5946 Y-32.3225
G01 X10.6438 Y-32.2268
G01 X10.6789 Y-32.1249
G01 X10.6995 Y-32.0190
G01 X10.7044 Y-31.9115
G01 X10.6941 Y-31.8041
G01 X10.6690 Y-31.6992
G01 X10.6230 Y-31.5852
G01 X10.6199 Y-31.5764
G01 X10.6177 Y-31.5674
G01 X10.6101 Y-31.5293
G01 X10.6089 Y-31.5220
G01 X10.6083 Y-31.5146
G01 X10.6081 Y-30.3281
G01 X10.6087 Y-30.3177
G01 X10.6098 Y-30.3100
G01 X10.6190 Y-30.2664
G01 X10.6226 Y-30.2544
G01 X10.6266 Y-30.2452
G01 X10.6315 Y-30.2364
G01 X10.6576 Y-30.1972
G01 X10.6656 Y-30.1876
G01 X10.6899 Y-30.1633
G01 X10.6971 Y-30.1570
G01 X10.7029 Y-30.1528
G01 X10.7425 Y-30.1274
G01 X10.7510 Y-30.1227
G01 X10.7623 Y-30.1181
G01 X10.7693 Y-30.1160
G01 X10.7764 Y-30.1144
G01 X10.8205 Y-30.1074
G01 X10.8300 Y-30.1064
G01 X10.8420 Y-30.1064
G01 X10.9135 Y-30.1106
G01 X11.0484 Y-30.1017
G01 X11.1811 Y-30.0761
G01 X11.3102 Y-30.0346
G01 X11.4326 Y-29.9779
G01 X11.5475 Y-29.9062
G01 X11.6522 Y-29.8211
G01 X11.7464 Y-29.7232
G01 X11.8273 Y-29.6153
G01 X11.8943 Y-29.4975
G01 X11.9465 Y-29.3727
G01 X11.9828 Y-29.2427
G01 X12.0033 Y-29.1086
G01 X12.0070 Y-28.9737
G01 X11.9940 Y-28.8393
G01 X11.9642 Y-28.7070
G01 X11.9190 Y-28.5798
G01 X11.8580 Y-28.4588
G01 X11.7831 Y-28.3466
G01 X11.6947 Y-28.2442
G01 X11.5941 Y-28.1535
G01 X11.4833 Y-28.0757
G01 X11.3641 Y-28.0124
G01 X11.2374 Y-27.9640
G01 X11.1062 Y-27.9314
G01 X10.9722 Y-27.9156
G01 X10.8294 Y-27.9160
G01 X10.8196 Y-27.9156
G01 X10.8099 Y-27.9142
G01 X10.7660 Y-27.9055
G01 X10.7565 Y-27.9027
G01 X10.7451 Y-27.8978
G01 X10.7365 Y-27.8930
G01 X10.7009 Y-27.8693
G01 X10.6930 Y-27.8634
G01 X10.6875 Y-27.8586
G01 X10.3537 Y-27.5253
G01 X10.2918 Y-27.4740
G01 X10.2778 Y-27.4641
G01 X10.2075 Y-27.4219
G01 X10.1921 Y-27.4141
G01 X10.1176 Y-27.3831
G01 X10.1015 Y-27.3778
G01 X10.0224 Y-27.3583
G01 X10.0052 Y-27.3554
G01 X9.9250 Y-27.3476
G01 X7.7160 Y-27.3471
G01 X7.7055 Y-27.3465
G01 X7.6978 Y-27.3454
G01 X7.6550 Y-27.3372
G01 X7.6480 Y-27.3351
G01 X7.6412 Y-27.3324
G01 X7.6302 Y-27.3270
G01 X7.5987 Y-27.3087
G01 X7.5905 Y-27.3034
G01 X7.5829 Y-27.2973
G01 X7.5243 Y-27.2457
G01 X7.4205 Y-27.1759
G01 X7.3079 Y-27.1207
G01 X7.1892 Y-27.0802
G01 X7.0659 Y-27.0559
G01 X6.9408 Y-27.0476
G00 Z2.0000
G00 X5.2882 Y-33.5503
G01 F60.00
G01 Z0.0000
G01 F250.00
G01 X6.5667 Y-33.5503
G01 X15.9087 Y-42.8923
G01 X15.9705 Y-42.9483
G01 X16.0376 Y-42.9981
G01 X16.1091 Y-43.0410
G01 X16.1801 Y-43.0747
G01 X16.1869 Y-43.0776
G01 X16.2631 Y-43.1048
G01 X16.3441 Y-43.1250
G01 X16.4266 Y-43.1373
G01 X16.5100 Y-43.1414
G01 X30.8610 Y-43.1414
G01 X30.9395 Y-43.1376
G01 X30.9468 Y-43.1370
G01 X31.0269 Y-43.1250
G01 X31.1079 Y-43.1048
G01 X31.1864 Y-43.0766
G01 X31.2575 Y-43.0432
G01 X31.2661 Y-43.0385
G01 X31.3293 Y-43.0007
G01 X31.3375 Y-42.9952
G01 X31.4005 Y-42.9483
G01 X31.4605 Y-42.8940
G01 X44.3368 Y-30.0178
G01 X44.3684 Y-30.0025
G01 X44.4379 Y-29.9609
G01 X44.4440 Y-29.9569
G01 X44.5130 Y-29.9057
G01 X44.5784 Y-29.8464
G01 X44.6377 Y-29.7810
G01 X44.6875 Y-29.7140
G01 X44.6929 Y-29.7059
G01 X44.7333 Y-29.6385
G01 X44.7379 Y-29.6299
G01 X44.7735 Y-29.5544
G01 X44.8017 Y-29.4759
G01 X44.8046 Y-29.4665
G01 X44.8247 Y-29.3856
G01 X44.8377 Y-29.2982
G01 X44.8420 Y-29.2100
G01 X44.8380 Y-29.1267
G01 X44.8374 Y-29.1193
G01 X44.8247 Y-29.0344
G01 X44.8046 Y-28.9535
G01 X44.8017 Y-28.9441
G01 X44.7735 Y-28.8656
G01 X44.7379 Y-28.7901
G01 X44.7333 Y-28.7815
G01 X44.6903 Y-28.7100
G01 X44.6407 Y-28.6429
G01 X44.6345 Y-28.6353
G01 X44.5784 Y-28.5736
G01 X44.5167 Y-28.5175
G01 X44.5091 Y-28.5113
G01 X44.4420 Y-28.4617
G01 X44.3705 Y-28.4187
G01 X44.3619 Y-28.4141
G01 X44.2864 Y-28.3785
G01 X44.2079 Y-28.3503
G01 X44.1985 Y-28.3474
G01 X44.1176 Y-28.3273
G01 X44.0302 Y-28.3143
G01 X43.9469 Y-28.3101
G01 X43.9371 Y-28.3101
G01 X43.8538 Y-28.3143
G01 X43.7713 Y-28.3265
G01 X43.7616 Y-28.3284
G01 X43.6807 Y-28.3488
G01 X43.6022 Y-28.3767
G01 X43.5931 Y-28.3805
G01 X43.5177 Y-28.4163
G01 X43.4461 Y-28.4591
G01 X43.4380 Y-28.4645
G01 X43.3692 Y-28.5159
G01 X43.3056 Y-28.5736
G01 X43.2495 Y-28.6353
G01 X43.2448 Y-28.6410
G01 X43.1965 Y-28.7060
G01 X43.1923 Y-28.7120
G01 X43.1495 Y-28.7836
G01 X43.1342 Y-28.8152
G01 X30.5088 Y-41.4406
G01 X16.8622 Y-41.4406
G01 X7.5203 Y-32.0986
G01 X7.4584 Y-32.0426
G01 X7.3914 Y-31.9929
G01 X7.3241 Y-31.9524
G01 X7.3154 Y-31.9478
G01 X7.2444 Y-31.9143
G01 X7.1705 Y-31.8877
G01 X7.1611 Y-31.8849
G01 X7.0848 Y-31.8659
G01 X7.0072 Y-31.8543
G01 X6.9999 Y-31.8535
G01 X6.9189 Y-31.8496
G01 X5.2896 Y-31.8496
G01 X5.2558 Y-31.8378
G01 X5.1773 Y-31.8181
G01 X5.1701 Y-31.8165
G01 X5.0852 Y-31.8040
G01 X4.9994 Y-31.7997
G01 X4.9136 Y-31.8037
G01 X4.9039 Y-31.8046
G01 X4.8214 Y-31.8170
G01 X4.7357 Y-31.8385
G01 X4.6525 Y-31.8682
G01 X4.5771 Y-31.9038
G01 X4.5684 Y-31.9084
G01 X4.5011 Y-31.9488
G01 X4.4929 Y-31.9542
G01 X4.4260 Y-32.0040
G01 X4.3605 Y-32.0633
G01 X4.3012 Y-32.1287
G01 X4.2486 Y-32.1997
G01 X4.2032 Y-32.2754
G01 X4.1654 Y-32.3553
G01 X4.1357 Y-32.4384
G01 X4.1153 Y-32.5193
G01 X4.1134 Y-32.5290
G01 X4.1013 Y-32.6115
G01 X4.0971 Y-32.6948
G01 X4.0971 Y-32.7046
G01 X4.1009 Y-32.7830
G01 X4.1019 Y-32.7928
G01 X4.1142 Y-32.8753
G01 X4.1357 Y-32.9610
G01 X4.1654 Y-33.0441
G01 X4.2021 Y-33.1218
G01 X4.2056 Y-33.1282
G01 X4.2486 Y-33.1997
G01 X4.3012 Y-33.2707
G01 X4.3605 Y-33.3361
G01 X4.4223 Y-33.3922
G01 X4.4299 Y-33.3984
G01 X4.4929 Y-33.4452
G01 X4.5011 Y-33.4506
G01 X4.5727 Y-33.4934
G01 X4.6480 Y-33.5292
G01 X4.6548 Y-33.5321
G01 X4.7357 Y-33.5609
G01 X4.8214 Y-33.5824
G01 X4.9087 Y-33.5954
G01 X4.9945 Y-33.5997
G01 X5.0018 Y-33.5996
G01 X5.0852 Y-33.5954
G01 X5.1701 Y-33.5829
G01 X5.1773 Y-33.5813
G01 X5.2558 Y-33.5616
G01 X5.2882 Y-33.5503
G00 Z2.0000
G00 X3.4214 Y-37.1272
G01 F60.00
G01 Z0.0000
G01 F250.00
G01 X3.2508 Y-37.1315
G01 X3.0811 Y-37.1536
G01 X2.9150 Y-37.1923
G01 X2.7541 Y-37.2488
G01 X2.5991 Y-37.3213
G01 X2.4526 Y-37.4089
G01 X2.3161 Y-37.5114
G01 X2.1906 Y-37.6273
G01 X2.0780 Y-37.7557
G01 X1.9788 Y-37.8951
G01 X1.8950 Y-38.0436
G01 X1.8265 Y-38.2003
G01 X1.7748 Y-38.3627
G01 X1.7398 Y-38.5300
G01 X1.7220 Y-38.7001
G01 X1.7220 Y-38.8705
G01 X1.7398 Y-39.0406
G01 X1.7748 Y-39.2079
G01 X1.8265 Y-39.3703
G01 X1.8950 Y-39.5269
G01 X1.9788 Y-39.6754
G01 X2.0780 Y-39.8149
G01 X2.1906 Y-39.9432
G01 X2.3161 Y-40.0591
G01 X2.4526 Y-40.1616
G01 X2.5991 Y-40.2493
G01 X2.7541 Y-40.3217
G01 X2.9150 Y-40.3782
G01 X3.0811 Y-40.4170
G01 X3.2508 Y-40.4391
G01 X3.4214 Y-40.4434
G01 X3.5919 Y-40.4304
G01 X3.7595 Y-40.3998
G01 X3.9239 Y-40.3519
G01 X4.0819 Y-40.2877
G01 X4.2323 Y-40.2072
G01 X4.3743 Y-40.1118
G01 X4.5056 Y-40.0026
G01 X4.6248 Y-39.8805
G01 X4.7306 Y-39.7464
G01 X4.8222 Y-39.6020
G01 X4.8988 Y-39.4498
G01 X4.9587 Y-39.2899
G01 X5.0023 Y-39.1244
G01 X5.0287 Y-38.9559
G01 X5.0373 Y-38.7853
G01 X5.0287 Y-38.6147
G01 X5.0023 Y-38.4461
G01 X4.9587 Y-38.2807
G01 X4.8988 Y-38.1208
G01 X4.8222 Y-37.9685
G01 X4.7306 Y-37.8242
G01 X4.6248 Y-37.6901
G01 X4.5056 Y-37.5680
G01 X4.3743 Y-37.4588
G01 X4.2323 Y-37.3633
G01 X4.0819 Y-37.2829
G01 X3.9239 Y-37.2187
G01 X3.7595 Y-37.1708
G01 X3.5919 Y-37.1401
G01 X3.4214 Y-37.1272
G00 Z2.0000
G00 X7.5270 Y-41.7008
G01 F60.00
G01 Z0.0000
G01 F250.00
G01 X7.3916 Y-41.7050
G01 X7.2581 Y-41.7259
G01 X7.1280 Y-41.7632
G01 X7.0032 Y-41.8158
G01 X6.8864 Y-41.8833
G01 X6.7783 Y-41.9648
G01 X6.6811 Y-42.0588
G01 X6.5964 Y-42.1644
G01 X6.5252 Y-42.2794
G01 X6.4688 Y-42.4023
G01 X6.4278 Y-42.5309
G01 X6.4027 Y-42.6641
G01 X6.3943 Y-42.7990
G01 X6.4027 Y-42.9339
G01 X6.4278 Y-43.0670
G01 X6.4688 Y-43.1957
G01 X6.5252 Y-43.3186
G01 X6.5964 Y-43.4336
G01 X6.6811 Y-43.5392
G01 X6.7783 Y-43.6332
G01 X6.8864 Y-43.7147
G01 X7.0029 Y-43.7820
G01 X7.0223 Y-43.7900
G01 X7.0327 Y-43.7954
G01 X7.0750 Y-43.8243
G01 X7.0806 Y-43.8289
G01 X7.0875 Y-43.8356
G01 X7.0922 Y-43.8410
G01 X7.0965 Y-43.8467
G01 X7.1223 Y-43.8859
G01 X7.1268 Y-43.8945
G01 X7.1305 Y-43.9035
G01 X7.1339 Y-43.9152
G01 X7.1420 Y-43.9562
G01 X7.1434 Y-43.9658
G01 X7.1439 Y-43.9755
G01 X7.1438 Y-44.1026
G01 X7.1423 Y-44.1155
G01 X7.1325 Y-44.1615
G01 X7.1303 Y-44.1687
G01 X7.1276 Y-44.1758
G01 X7.1219 Y-44.1870
G01 X7.0973 Y-44.2243
G01 X7.0900 Y-44.2340
G01 X7.0833 Y-44.2411
G01 X7.0740 Y-44.2490
G01 X7.0349 Y-44.2756
G01 X7.0284 Y-44.2794
G01 X7.0217 Y-44.2827
G01 X7.0124 Y-44.2863
G01 X7.0052 Y-44.2884
G01 X6.9593 Y-44.2976
G01 X6.9496 Y-44.2988
G01 X6.9423 Y-44.2990
G01 X3.3100 Y-44.2989
G01 X3.2997 Y-44.2978
G01 X3.2564 Y-44.2898
G01 X3.2494 Y-44.2879
G01 X3.2425 Y-44.2855
G01 X3.2358 Y-44.2826
G01 X3.2294 Y-44.2792
G01 X3.1941 Y-44.2578
G01 X3.1860 Y-44.2519
G01 X3.1237 Y-44.1973
G01 X3.0192 Y-44.1278
G01 X2.9071 Y-44.0722
G01 X2.7879 Y-44.0322
G01 X2.6651 Y-44.0073
G01 X2.5400 Y-43.9995
G01 X2.4149 Y-44.0073
G01 X2.2921 Y-44.0322
G01 X2.1729 Y-44.0722
G01 X2.0608 Y-44.1278
G01 X1.9563 Y-44.1973
G01 X1.8621 Y-44.2801
G01 X1.7793 Y-44.3743
G01 X1.7098 Y-44.4788
G01 X1.6542 Y-44.5909
G01 X1.6142 Y-44.7101
G01 X1.5893 Y-44.8329
G01 X1.5815 Y-44.9580
G01 X1.5893 Y-45.0831
G01 X1.6142 Y-45.2059
G01 X1.6542 Y-45.3251
G01 X1.7098 Y-45.4372
G01 X1.7793 Y-45.5417
G01 X1.8621 Y-45.6359
G01 X1.9563 Y-45.7187
G01 X2.0608 Y-45.7882
G01 X2.1729 Y-45.8438
G01 X2.2921 Y-45.8838
G01 X2.4149 Y-45.9087
G01 X2.5400 Y-45.9165
G01 X2.6651 Y-45.9087
G01 X2.7879 Y-45.8838
G01 X2.9071 Y-45.8438
G01 X3.0192 Y-45.7882
G01 X3.1236 Y-45.7187
G01 X3.1860 Y-45.6640
G01 X3.1941 Y-45.6582
G01 X3.2294 Y-45.6368
G01 X3.2358 Y-45.6334
G01 X3.2425 Y-45.6305
G01 X3.2540 Y-45.6268
G01 X3.2972 Y-45.6186
G01 X3.3074 Y-45.6173
G01 X3.3152 Y-45.6170
G01 X6.7417 Y-45.6170
G01 X6.7537 Y-45.6177
G01 X6.8024 Y-45.6269
G01 X6.8121 Y-45.6296
G01 X6.8215 Y-45.6332
G01 X6.8282 Y-45.6365
G01 X6.8347 Y-45.6404
G01 X6.8699 Y-45.6641
G01 X6.8775 Y-45.6698
G01 X6.8845 Y-45.6762
G01 X7.0435 Y-45.8352
G01 X7.0500 Y-45.8423
G01 X7.0544 Y-45.8481
G01 X7.0804 Y-45.8887
G01 X7.0852 Y-45.8969
G01 X7.0900 Y-45.9078
G01 X7.1149 Y-45.9752
G01 X7.1664 Y-46.0698
G01 X7.2310 Y-46.1563
G01 X7.3072 Y-46.2325
G01 X7.3934 Y-46.2972
G01 X7.4881 Y-46.3492
G01 X7.5890 Y-46.3869
G01 X7.6939 Y-46.4102
G01 X7.8014 Y-46.4178
G01 X7.9093 Y-46.4102
G01 X8.0146 Y-46.3878
G01 X8.1153 Y-46.3502
G01 X8.2102 Y-46.2985
G01 X8.2967 Y-46.2343
G01 X8.3728 Y-46.1582
G01 X8.4375 Y-46.0720
G01 X8.4895 Y-45.9774
G01 X8.5272 Y-45.8765
G01 X8.5505 Y-45.7711
G01 X8.5581 Y-45.6634
G01 X8.5509 Y-45.5562
G01 X8.5281 Y-45.4510
G01 X8.4891 Y-45.3461
G01 X8.4738 Y-45.3121
G01 X8.4701 Y-45.3027
G01 X8.4673 Y-45.2930
G01 X8.4659 Y-45.2855
G01 X8.4619 Y-45.2509
G01 X8.4618 Y-43.3629
G01 X8.4623 Y-43.3532
G01 X8.4659 Y-43.3233
G01 X8.4673 Y-43.3159
G01 X8.4693 Y-43.3085
G01 X8.4728 Y-43.2990
G01 X8.4899 Y-43.2611
G01 X8.5400 Y-43.1319
G01 X8.5726 Y-43.0011
G01 X8.5893 Y-42.8665
G01 X8.5893 Y-42.7315
G01 X8.5726 Y-42.5969
G01 X8.5400 Y-42.4660
G01 X8.4912 Y-42.3401
G01 X8.4269 Y-42.2209
G01 X8.3486 Y-42.1104
G01 X8.2578 Y-42.0103
G01 X8.1551 Y-41.9224
G01 X8.0423 Y-41.8479
G01 X7.9212 Y-41.7873
G01 X7.7937 Y-41.7422
G01 X7.6615 Y-41.7133
G01 X7.5270 Y-41.7008
G00 Z2.0000
G00 X3.2093 Y-44.3577
G01 F60.00
G01 Z0.0000
G01 F250.00
G01 X3.1746 Y-44.3199
G01 X3.1147 Y-44.2655
G01 X3.1090 Y-44.2608
G01 X3.0400 Y-44.2097
G01 X2.9685 Y-44.1667
G01 X2.9621 Y-44.1631
G01 X2.8844 Y-44.1265
G01 X2.8013 Y-44.0968
G01 X2.7156 Y-44.0753
G01 X2.6331 Y-44.0629
G01 X2.6258 Y-44.0621
G01 X2.5400 Y-44.0580
G01 X2.4518 Y-44.0623
G01 X2.3644 Y-44.0753
G01 X2.2787 Y-44.0968
G01 X2.1956 Y-44.1265
G01 X2.1157 Y-44.1643
G01 X2.0400 Y-44.2097
G01 X1.9729 Y-44.2593
G01 X1.9672 Y-44.2639
G01 X1.9036 Y-44.3216
G01 X1.8443 Y-44.3870
G01 X1.7917 Y-44.4580
G01 X1.7463 Y-44.5337
G01 X1.7085 Y-44.6136
G01 X1.6788 Y-44.6967
G01 X1.6573 Y-44.7824
G01 X1.6443 Y-44.8698
G01 X1.6400 Y-44.9580
G01 X1.6443 Y-45.0462
G01 X1.6573 Y-45.1336
G01 X1.6788 Y-45.2193
G01 X1.7085 Y-45.3024
G01 X1.7463 Y-45.3823
G01 X1.7917 Y-45.4580
G01 X1.8413 Y-45.5251
G01 X1.8459 Y-45.5308
G01 X1.9036 Y-45.5944
G01 X1.9653 Y-45.6505
G01 X1.9729 Y-45.6567
G01 X2.0400 Y-45.7063
G01 X2.1115 Y-45.7493
G01 X2.1201 Y-45.7539
G01 X2.1911 Y-45.7875
G01 X2.2002 Y-45.7913
G01 X2.2787 Y-45.8192
G01 X2.3644 Y-45.8407
G01 X2.4518 Y-45.8537
G01 X2.5400 Y-45.8580
G01 X2.6282 Y-45.8537
G01 X2.7156 Y-45.8407
G01 X2.8013 Y-45.8192
G01 X2.8798 Y-45.7913
G01 X2.8867 Y-45.7885
G01 X2.9643 Y-45.7517
G01 X3.0359 Y-45.7089
G01 X3.0420 Y-45.7049
G01 X3.1071 Y-45.6567
G01 X3.1128 Y-45.6521
G01 X3.1746 Y-45.5961
G01 X3.2093 Y-45.5583
G01 X6.8497 Y-45.5583
G01 X7.1290 Y-45.8375
G01 X7.1366 Y-45.8671
G01 X7.1599 Y-45.9314
G01 X7.1882 Y-45.9910
G01 X7.2207 Y-46.0455
G01 X7.2247 Y-46.0517
G01 X7.2641 Y-46.1046
G01 X7.3100 Y-46.1552
G01 X7.3607 Y-46.2012
G01 X7.4116 Y-46.2391
G01 X7.4198 Y-46.2445
G01 X7.4743 Y-46.2771
G01 X7.5316 Y-46.3043
G01 X7.5407 Y-46.3081
G01 X7.5958 Y-46.3278
G01 X7.6052 Y-46.3307
G01 X7.6668 Y-46.3460
G01 X7.7345 Y-46.3560
G01 X7.8028 Y-46.3594
G01 X7.8662 Y-46.3564
G01 X7.8760 Y-46.3554
G01 X7.9388 Y-46.3460
G01 X8.0004 Y-46.3307
G01 X8.0098 Y-46.3278
G01 X8.0672 Y-46.3072
G01 X8.1269 Y-46.2793
G01 X8.1356 Y-46.2747
G01 X8.1900 Y-46.2419
G01 X8.2410 Y-46.2042
G01 X8.2486 Y-46.1980
G01 X8.2956 Y-46.1552
G01 X8.3383 Y-46.1083
G01 X8.3445 Y-46.1007
G01 X8.3823 Y-46.0496
G01 X8.4150 Y-45.9952
G01 X8.4196 Y-45.9866
G01 X8.4467 Y-45.9292
G01 X8.4697 Y-45.8648
G01 X8.4852 Y-45.8032
G01 X8.4871 Y-45.7936
G01 X8.4963 Y-45.7308
G01 X8.4997 Y-45.6625
G01 X8.4967 Y-45.5990
G01 X8.4957 Y-45.5893
G01 X8.4858 Y-45.5241
G01 X8.4697 Y-45.4602
G01 X8.4476 Y-45.3980
G01 X8.4185 Y-45.3361
G01 X8.4031 Y-45.3097
G01 X8.4031 Y-43.3010
G01 X8.4088 Y-43.2913
G01 X8.4122 Y-43.2848
G01 X8.4536 Y-43.1969
G01 X8.4865 Y-43.1055
G01 X8.4893 Y-43.0961
G01 X8.5128 Y-43.0019
G01 X8.5272 Y-42.9058
G01 X8.5282 Y-42.8960
G01 X8.5328 Y-42.8015
G01 X8.5327 Y-42.7941
G01 X8.5278 Y-42.6971
G01 X8.5128 Y-42.5961
G01 X8.4880 Y-42.4972
G01 X8.4546 Y-42.4034
G01 X8.4517 Y-42.3966
G01 X8.4122 Y-42.3132
G01 X8.4076 Y-42.3046
G01 X8.3576 Y-42.2213
G01 X8.2998 Y-42.1432
G01 X8.2936 Y-42.1356
G01 X8.2282 Y-42.0638
G01 X8.1564 Y-41.9984
G01 X8.1488 Y-41.9922
G01 X8.0707 Y-41.9344
G01 X7.9874 Y-41.8844
G01 X7.9788 Y-41.8798
G01 X7.8909 Y-41.8384
G01 X7.7995 Y-41.8055
G01 X7.7901 Y-41.8027
G01 X7.6959 Y-41.7792
G01 X7.5949 Y-41.7642
G01 X7.4979 Y-41.7593
G01 X7.4881 Y-41.7593
G01 X7.3911 Y-41.7642
G01 X7.2901 Y-41.7792
G01 X7.1959 Y-41.8027
G01 X7.1865 Y-41.8055
G01 X7.0951 Y-41.8384
G01 X7.0072 Y-41.8798
G01 X6.9986 Y-41.8844
G01 X6.9153 Y-41.9344
G01 X6.8372 Y-41.9922
G01 X6.8296 Y-41.9984
G01 X6.7578 Y-42.0638
G01 X6.6924 Y-42.1356
G01 X6.6862 Y-42.1432
G01 X6.6313 Y-42.2173
G01 X6.6271 Y-42.2234
G01 X6.5760 Y-42.3088
G01 X6.5343 Y-42.3966
G01 X6.5306 Y-42.4057
G01 X6.4995 Y-42.4925
G01 X6.4967 Y-42.5019
G01 X6.4732 Y-42.5961
G01 X6.4588 Y-42.6922
G01 X6.4578 Y-42.7020
G01 X6.4532 Y-42.7990
G01 X6.4582 Y-42.9009
G01 X6.4732 Y-43.0019
G01 X6.4973 Y-43.0985
G01 X6.4995 Y-43.1055
G01 X6.5324 Y-43.1969
G01 X6.5738 Y-43.2848
G01 X6.5784 Y-43.2934
G01 X6.6284 Y-43.3767
G01 X6.6862 Y-43.4548
G01 X6.6924 Y-43.4624
G01 X6.7578 Y-43.5342
G01 X6.8296 Y-43.5996
G01 X6.8372 Y-43.6058
G01 X6.9153 Y-43.6636
G01 X6.9986 Y-43.7136
G01 X7.0072 Y-43.7182
G01 X7.0951 Y-43.7596
G01 X7.1865 Y-43.7925
G01 X7.2025 Y-43.7970
G01 X7.2025 Y-44.3673
G01 X7.1572 Y-44.3606
G01 X7.0983 Y-44.3577
G01 X3.2093 Y-44.3577
G00 Z2.0000
G00 X0.5614 Y-43.5769
G01 F60.00
G01 Z0.0000
G01 F250.00
G01 X0.3655 Y-47.5638
G01 X0.5925 Y-52.1852
G01 X1.2715 Y-56.7620
G01 X1.7962 Y-58.8569
G01 X1.8828 Y-58.8978
G01 X1.8914 Y-58.9024
G01 X1.9747 Y-58.9524
G01 X2.0528 Y-59.0102
G01 X2.0604 Y-59.0164
G01 X2.1322 Y-59.0818
G01 X2.2008 Y-59.1574
G01 X2.2587 Y-59.2353
G01 X2.2642 Y-59.2435
G01 X2.3140 Y-59.3268
G01 X2.3557 Y-59.4146
G01 X2.3594 Y-59.4237
G01 X2.3920 Y-59.5152
G01 X2.4168 Y-59.6141
G01 X2.4318 Y-59.7151
G01 X2.4368 Y-59.8170
G01 X2.4318 Y-59.9189
G01 X2.4177 Y-60.0150
G01 X2.4157 Y-60.0246
G01 X2.3920 Y-60.1188
G01 X2.3594 Y-60.2103
G01 X2.3557 Y-60.2194
G01 X2.3162 Y-60.3028
G01 X2.3116 Y-60.3114
G01 X2.2616 Y-60.3947
G01 X2.2017 Y-60.4756
G01 X2.3957 Y-61.2503
G01 X3.9545 Y-65.6067
G01 X5.9327 Y-69.7894
G01 X7.4036 Y-72.2435
G01 X7.4930 Y-72.2392
G01 X7.5900 Y-72.2438
G01 X7.5998 Y-72.2448
G01 X7.6959 Y-72.2592
G01 X7.7901 Y-72.2827
G01 X7.7995 Y-72.2855
G01 X7.8909 Y-72.3184
G01 X7.9788 Y-72.3598
G01 X7.9874 Y-72.3644
G01 X8.0707 Y-72.4144
G01 X8.1488 Y-72.4722
G01 X8.1564 Y-72.4784
G01 X8.2282 Y-72.5438
G01 X8.2936 Y-72.6156
G01 X8.2998 Y-72.6232
G01 X8.3576 Y-72.7013
G01 X8.4100 Y-72.7888
G01 X8.4517 Y-72.8766
G01 X8.4554 Y-72.8857
G01 X8.4880 Y-72.9772
G01 X8.5117 Y-73.0714
G01 X8.5137 Y-73.0810
G01 X8.5278 Y-73.1771
G01 X8.5328 Y-73.2790
G01 X8.5278 Y-73.3809
G01 X8.5137 Y-73.4770
G01 X8.5117 Y-73.4866
G01 X8.4880 Y-73.5808
G01 X8.4554 Y-73.6723
G01 X8.4517 Y-73.6814
G01 X8.4100 Y-73.7692
G01 X8.3697 Y-73.8366
G01 X11.0677 Y-77.4745
G01 X14.1750 Y-80.9028
G01 X17.6033 Y-84.0101
G01 X21.3197 Y-86.7663
G01 X24.7407 Y-88.8168
G01 X24.8157 Y-88.8058
G01 X24.9177 Y-88.8008
G01 X25.0196 Y-88.8058
G01 X25.1157 Y-88.8200
G01 X25.1253 Y-88.8219
G01 X25.2148 Y-88.8443
G01 X25.2241 Y-88.8471
G01 X25.3156 Y-88.8800
G01 X25.4034 Y-88.9214
G01 X25.4121 Y-88.9260
G01 X25.4912 Y-88.9734
G01 X25.4993 Y-88.9789
G01 X25.5773 Y-89.0368
G01 X25.6493 Y-89.1020
G01 X25.6546 Y-89.1071
G01 X25.7214 Y-89.1810
G01 X25.7822 Y-89.2629
G01 X25.8347 Y-89.3505
G01 X25.8671 Y-89.4188
G01 X29.4711 Y-91.1233
G01 X33.8275 Y-92.6821
G01 X38.3158 Y-93.8063
G01 X40.9854 Y-94.2023
G01 X41.0478 Y-94.1338
G01 X41.1196 Y-94.0684
G01 X41.1272 Y-94.0622
G01 X41.2053 Y-94.0044
G01 X41.2886 Y-93.9544
G01 X41.2972 Y-93.9498
G01 X41.3851 Y-93.9084
G01 X41.4765 Y-93.8755
G01 X41.4859 Y-93.8727
G01 X41.5801 Y-93.8492
G01 X41.6762 Y-93.8348
G01 X41.6860 Y-93.8338
G01 X41.7830 Y-93.8292
G01 X41.8800 Y-93.8338
G01 X41.8898 Y-93.8348
G01 X41.9859 Y-93.8492
G01 X42.0848 Y-93.8740
G01 X42.1809 Y-93.9084
G01 X42.2732 Y-93.9520
G01 X42.3565 Y-94.0018
G01 X42.3627 Y-94.0058
G01 X42.4426 Y-94.0652
G01 X42.5147 Y-94.1304
G01 X42.5216 Y-94.1373
G01 X42.5868 Y-94.2094
G01 X42.6447 Y-94.2873
G01 X42.6502 Y-94.2955
G01 X42.7000 Y-94.3788
G01 X42.7398 Y-94.4626
G01 X42.8926 Y-94.4853
G01 X47.5140 Y-94.7123
G01 X52.1354 Y-94.4853
G01 X56.7122 Y-93.8063
G01 X58.9720 Y-93.2403
G01 X58.9882 Y-93.2138
G01 X59.0446 Y-93.1377
G01 X59.0492 Y-93.1320
G01 X59.1161 Y-93.0583
G01 X59.1880 Y-92.9929
G01 X59.1936 Y-92.9882
G01 X59.2737 Y-92.9289
G01 X59.3612 Y-92.8765
G01 X59.4534 Y-92.8329
G01 X59.5449 Y-92.8000
G01 X59.5543 Y-92.7972
G01 X59.6485 Y-92.7737
G01 X59.7494 Y-92.7587
G01 X59.8514 Y-92.7537
G01 X59.9484 Y-92.7584
G01 X59.9557 Y-92.7590
G01 X60.0542 Y-92.7737
G01 X60.1485 Y-92.7972
G01 X60.1555 Y-92.7992
G01 X60.2447 Y-92.8311
G01 X60.2515 Y-92.8338
G01 X60.3393 Y-92.8754
G01 X60.3661 Y-92.8911
G01 X61.2005 Y-92.6821
G01 X65.5570 Y-91.1233
G01 X69.7397 Y-89.1451
G01 X71.6691 Y-87.9886
G01 X71.6483 Y-87.9295
G01 X71.6253 Y-87.8376
G01 X71.6237 Y-87.8304
G01 X71.6092 Y-87.7319
G01 X71.6043 Y-87.6349
G01 X71.6042 Y-87.6275
G01 X71.6092 Y-87.5281
G01 X71.6242 Y-87.4271
G01 X71.6490 Y-87.3282
G01 X71.6824 Y-87.2344
G01 X71.6853 Y-87.2276
G01 X71.7270 Y-87.1398
G01 X71.7768 Y-87.0565
G01 X71.7823 Y-87.0483
G01 X71.8372 Y-86.9742
G01 X71.8434 Y-86.9666
G01 X71.9088 Y-86.8948
G01 X71.9844 Y-86.8262
G01 X72.0663 Y-86.7654
G01 X72.1538 Y-86.7130
G01 X72.2461 Y-86.6694
G01 X72.3375 Y-86.6365
G01 X72.3469 Y-86.6337
G01 X72.4364 Y-86.6113
G01 X72.4460 Y-86.6093
G01 X72.5421 Y-86.5952
G01 X72.6440 Y-86.5902
G01 X72.7459 Y-86.5952
G01 X72.8444 Y-86.6097
G01 X72.8516 Y-86.6113
G01 X72.9458 Y-86.6350
G01 X73.0373 Y-86.6676
G01 X73.0464 Y-86.6713
G01 X73.1298 Y-86.7108
G01 X73.1363 Y-86.7142
G01 X73.2217 Y-86.7654
G01 X73.3017 Y-86.8247
G01 X73.3074 Y-86.8294
G01 X73.3775 Y-86.8930
G01 X73.4198 Y-86.9393
G01 X73.7083 Y-86.7663
G01 X77.4247 Y-84.0101
G01 X80.8530 Y-80.9028
G01 X83.9603 Y-77.4745
G01 X86.7166 Y-73.7581
G01 X88.4123 Y-70.9290
G01 X88.3640 Y-70.8482
G01 X88.3223 Y-70.7604
G01 X88.3186 Y-70.7513
G01 X88.2860 Y-70.6598
G01 X88.2623 Y-70.5656
G01 X88.2603 Y-70.5560
G01 X88.2462 Y-70.4599
G01 X88.2413 Y-70.3629
G01 X88.2413 Y-70.3531
G01 X88.2462 Y-70.2561
G01 X88.2603 Y-70.1600
G01 X88.2623 Y-70.1504
G01 X88.2860 Y-70.0562
G01 X88.3186 Y-69.9647
G01 X88.3223 Y-69.9556
G01 X88.3640 Y-69.8678
G01 X88.4164 Y-69.7803
G01 X88.4742 Y-69.7022
G01 X88.4804 Y-69.6946
G01 X88.5458 Y-69.6228
G01 X88.6176 Y-69.5574
G01 X88.6252 Y-69.5512
G01 X88.7033 Y-69.4934
G01 X88.7887 Y-69.4422
G01 X88.7952 Y-69.4388
G01 X88.8786 Y-69.3993
G01 X88.8877 Y-69.3956
G01 X88.9792 Y-69.3630
G01 X89.0757 Y-69.3387
G01 X89.0830 Y-69.3373
G01 X89.1742 Y-69.3238
G01 X89.1815 Y-69.3230
G01 X89.2785 Y-69.3182
G01 X89.3174 Y-69.3199
G01 X91.0735 Y-65.6067
G01 X92.6323 Y-61.2503
G01 X92.9364 Y-60.0363
G01 X86.2330 Y-60.0363
G01 X86.1791 Y-60.0337
G01 X86.1693 Y-60.0328
G01 X86.1159 Y-60.0247
G01 X86.0635 Y-60.0117
G01 X86.0541 Y-60.0089
G01 X86.0033 Y-59.9906
G01 X85.9544 Y-59.9676
G01 X85.9458 Y-59.9630
G01 X85.8995 Y-59.9351
G01 X85.8561 Y-59.9030
G01 X85.8485 Y-59.8968
G01 X85.8086 Y-59.8604
G01 X78.6184 Y-52.6703
G01 X75.9291 Y-52.6703
G01 X75.9170 Y-52.6829
G01 X75.8578 Y-52.7363
G01 X75.7899 Y-52.7867
G01 X75.7173 Y-52.8302
G01 X75.6409 Y-52.8664
G01 X75.5612 Y-52.8949
G01 X75.4792 Y-52.9154
G01 X75.3955 Y-52.9278
G01 X75.3110 Y-52.9320
G01 X75.2265 Y-52.9278
G01 X75.1428 Y-52.9154
G01 X75.0608 Y-52.8949
G01 X74.9811 Y-52.8664
G01 X74.9047 Y-52.8302
G01 X74.8321 Y-52.7867
G01 X74.7642 Y-52.7363
G01 X74.7032 Y-52.6812
G01 X74.6981 Y-52.6760
G01 X74.6447 Y-52.6168
G01 X74.5971 Y-52.5529
G01 X74.5916 Y-52.5448
G01 X74.5532 Y-52.4806
G01 X74.5486 Y-52.4720
G01 X74.5146 Y-52.3999
G01 X74.4861 Y-52.3202
G01 X74.4656 Y-52.2382
G01 X74.4532 Y-52.1545
G01 X74.4491 Y-52.0749
G01 X74.4490 Y-52.0675
G01 X74.4532 Y-51.9855
G01 X74.4606 Y-51.9343
G01 X74.4606 Y-50.2913
G01 X74.4407 Y-50.2111
G01 X74.4285 Y-50.1299
G01 X74.4275 Y-50.1201
G01 X74.4236 Y-50.0355
G01 X74.4279 Y-49.9510
G01 X74.4398 Y-49.8697
G01 X74.4417 Y-49.8601
G01 X74.4605 Y-49.7851
G01 X74.4634 Y-49.7757
G01 X74.4911 Y-49.6984
G01 X74.5262 Y-49.6241
G01 X74.5308 Y-49.6154
G01 X74.5732 Y-49.5450
G01 X74.6250 Y-49.4750
G01 X74.6835 Y-49.4105
G01 X74.7480 Y-49.3520
G01 X74.8180 Y-49.3002
G01 X74.8927 Y-49.2554
G01 X74.9714 Y-49.2181
G01 X75.0534 Y-49.1888
G01 X75.1379 Y-49.1677
G01 X75.2240 Y-49.1549
G01 X75.3110 Y-49.1506
G01 X75.3931 Y-49.1545
G01 X75.4029 Y-49.1555
G01 X75.4841 Y-49.1677
G01 X75.5639 Y-49.1875
G01 X75.5733 Y-49.1904
G01 X75.6506 Y-49.2181
G01 X75.7249 Y-49.2532
G01 X75.7336 Y-49.2578
G01 X75.7999 Y-49.2975
G01 X75.8080 Y-49.3030
G01 X75.8740 Y-49.3520
G01 X75.9385 Y-49.4105
G01 X75.9970 Y-49.4750
G01 X76.0488 Y-49.5450
G01 X76.0912 Y-49.6154
G01 X76.0958 Y-49.6241
G01 X76.1309 Y-49.6984
G01 X76.1586 Y-49.7757
G01 X76.1615 Y-49.7851
G01 X76.1813 Y-49.8649
G01 X76.1935 Y-49.9461
G01 X76.1945 Y-49.9559
G01 X76.1984 Y-50.0380
G01 X76.1941 Y-50.1250
G01 X76.1813 Y-50.2111
G01 X76.1614 Y-50.2913
G01 X76.1614 Y-51.4697
G01 X78.8719 Y-51.4699
G01 X78.9258 Y-51.4726
G01 X78.9841 Y-51.4813
G01 X79.0412 Y-51.4956
G01 X79.0921 Y-51.5137
G01 X79.1012 Y-51.5174
G01 X79.1456 Y-51.5384
G01 X79.1542 Y-51.5430
G01 X79.2005 Y-51.5709
G01 X79.2478 Y-51.6060
G01 X79.2914 Y-51.6456
G01 X86.4816 Y-58.8357
G01 X93.2371 Y-58.8357
G01 X93.7566 Y-56.7620
G01 X94.1863 Y-53.8649
G01 X94.1314 Y-53.7907
G01 X94.0814 Y-53.7074
G01 X94.0768 Y-53.6988
G01 X94.0373 Y-53.6154
G01 X94.0336 Y-53.6063
G01 X94.0010 Y-53.5148
G01 X93.9773 Y-53.4206
G01 X93.9753 Y-53.4110
G01 X93.9612 Y-53.3149
G01 X93.9562 Y-53.2130
G01 X93.9612 Y-53.1111
G01 X93.9757 Y-53.0126
G01 X93.9773 Y-53.0054
G01 X94.0010 Y-52.9112
G01 X94.0354 Y-52.8151
G01 X94.0790 Y-52.7228
G01 X94.1314 Y-52.6353
G01 X94.1922 Y-52.5534
G01 X94.2608 Y-52.4778
G01 X94.3364 Y-52.4092
G01 X94.4104 Y-52.3542
G01 X94.4355 Y-52.1852
G01 X94.6625 Y-47.5638
G01 X94.4355 Y-42.9424
G01 X93.7566 Y-38.3656
G01 X93.1414 Y-35.9099
G01 X93.0741 Y-35.8856
G01 X92.9862 Y-35.8442
G01 X92.9776 Y-35.8396
G01 X92.8943 Y-35.7896
G01 X92.8162 Y-35.7318
G01 X92.8086 Y-35.7256
G01 X92.7368 Y-35.6602
G01 X92.6698 Y-35.5865
G01 X92.6652 Y-35.5808
G01 X92.6074 Y-35.5027
G01 X92.5574 Y-35.4194
G01 X92.5528 Y-35.4108
G01 X92.5114 Y-35.3229
G01 X92.4785 Y-35.2315
G01 X92.4757 Y-35.2221
G01 X92.4522 Y-35.1279
G01 X92.4372 Y-35.0269
G01 X92.4323 Y-34.9299
G01 X92.4323 Y-34.9201
G01 X92.4372 Y-34.8231
G01 X92.4513 Y-34.7270
G01 X92.4533 Y-34.7174
G01 X92.4763 Y-34.6255
G01 X92.4785 Y-34.6185
G01 X92.5114 Y-34.5271
G01 X92.5528 Y-34.4392
G01 X92.5562 Y-34.4327
G01 X92.6048 Y-34.3515
G01 X92.6103 Y-34.3433
G01 X92.6682 Y-34.2654
G01 X92.7162 Y-34.2122
G01 X92.6323 Y-33.8773
G01 X91.0735 Y-29.5208
G01 X89.0953 Y-25.3381
G01 X88.3081 Y-24.0248
G01 X88.2625 Y-24.0268
G01 X88.1655 Y-24.0220
G01 X88.1582 Y-24.0212
G01 X88.0670 Y-24.0077
G01 X88.0597 Y-24.0063
G01 X87.9632 Y-23.9820
G01 X87.8717 Y-23.9494
G01 X87.8626 Y-23.9457
G01 X87.7770 Y-23.9052
G01 X87.7706 Y-23.9016
G01 X87.6873 Y-23.8516
G01 X87.6092 Y-23.7938
G01 X87.6016 Y-23.7876
G01 X87.5298 Y-23.7222
G01 X87.4644 Y-23.6504
G01 X87.4582 Y-23.6428
G01 X87.4004 Y-23.5647
G01 X87.3480 Y-23.4772
G01 X87.3063 Y-23.3894
G01 X87.3026 Y-23.3803
G01 X87.2700 Y-23.2888
G01 X87.2463 Y-23.1946
G01 X87.2443 Y-23.1850
G01 X87.2302 Y-23.0889
G01 X87.2252 Y-22.9895
G01 X87.2253 Y-22.9821
G01 X87.2298 Y-22.8900
G01 X87.2308 Y-22.8802
G01 X87.2452 Y-22.7841
G01 X87.2693 Y-22.6875
G01 X87.2715 Y-22.6805
G01 X87.3026 Y-22.5937
G01 X87.3053 Y-22.5868
G01 X87.3468 Y-22.4990
G01 X87.3701 Y-22.4598
G01 X86.7166 Y-21.3695
G01 X83.9603 Y-17.6531
G01 X80.8530 Y-14.2248
G01 X78.2621 Y-11.8765
G01 X78.2512 Y-11.8817
G01 X78.2443 Y-11.8844
G01 X78.1575 Y-11.9155
G01 X78.1481 Y-11.9183
G01 X78.0539 Y-11.9418
G01 X77.9554 Y-11.9565
G01 X77.9480 Y-11.9572
G01 X77.8559 Y-11.9617
G01 X77.8461 Y-11.9617
G01 X77.7491 Y-11.9568
G01 X77.6758 Y-11.9460
G01 X73.7034 Y-15.9184
G01 X73.6598 Y-15.9580
G01 X73.6165 Y-15.9903
G01 X73.6083 Y-15.9957
G01 X73.5620 Y-16.0234
G01 X73.5132 Y-16.0466
G01 X73.5041 Y-16.0503
G01 X73.4532 Y-16.0684
G01 X73.3961 Y-16.0827
G01 X73.3427 Y-16.0908
G01 X73.3329 Y-16.0917
G01 X73.2790 Y-16.0943
G01 X64.4991 Y-16.0943
G01 X64.4870 Y-16.1069
G01 X64.4316 Y-16.1571
G01 X64.4240 Y-16.1634
G01 X64.3599 Y-16.2107
G01 X64.2873 Y-16.2542
G01 X64.2109 Y-16.2904
G01 X64.1359 Y-16.3173
G01 X64.1265 Y-16.3202
G01 X64.0540 Y-16.3384
G01 X64.0443 Y-16.3403
G01 X63.9655 Y-16.3518
G01 X63.8810 Y-16.3560
G01 X63.7965 Y-16.3518
G01 X63.7177 Y-16.3403
G01 X63.7080 Y-16.3384
G01 X63.6355 Y-16.3202
G01 X63.6261 Y-16.3173
G01 X63.5511 Y-16.2904
G01 X63.4747 Y-16.2542
G01 X63.4021 Y-16.2107
G01 X63.3380 Y-16.1634
G01 X63.3304 Y-16.1571
G01 X63.2750 Y-16.1069
G01 X63.2681 Y-16.1000
G01 X63.2147 Y-16.0408
G01 X63.1643 Y-15.9729
G01 X63.1208 Y-15.9003
G01 X63.0866 Y-15.8284
G01 X63.0828 Y-15.8193
G01 X63.0577 Y-15.7489
G01 X63.0548 Y-15.7395
G01 X63.0356 Y-15.6622
G01 X63.0232 Y-15.5785
G01 X63.0191 Y-15.4989
G01 X63.0191 Y-15.4891
G01 X63.0232 Y-15.4095
G01 X63.0356 Y-15.3258
G01 X63.0561 Y-15.2438
G01 X63.0828 Y-15.1687
G01 X63.0866 Y-15.1596
G01 X63.1208 Y-15.0877
G01 X63.1643 Y-15.0151
G01 X63.2116 Y-14.9510
G01 X63.2179 Y-14.9434
G01 X63.2681 Y-14.8880
G01 X63.2750 Y-14.8811
G01 X63.3342 Y-14.8277
G01 X63.4021 Y-14.7773
G01 X63.4747 Y-14.7338
G01 X63.5466 Y-14.6996
G01 X63.5557 Y-14.6958
G01 X63.6261 Y-14.6707
G01 X63.6355 Y-14.6678
G01 X63.7128 Y-14.6486
G01 X63.7916 Y-14.6368
G01 X63.8014 Y-14.6358
G01 X63.8810 Y-14.6320
G01 X63.9606 Y-14.6358
G01 X63.9704 Y-14.6368
G01 X64.0443 Y-14.6477
G01 X64.0540 Y-14.6496
G01 X64.1312 Y-14.6691
G01 X64.2063 Y-14.6958
G01 X64.2154 Y-14.6996
G01 X64.2873 Y-14.7338
G01 X64.3599 Y-14.7773
G01 X64.4278 Y-14.8277
G01 X64.4870 Y-14.8811
G01 X64.4991 Y-14.8937
G01 X73.0304 Y-14.8937
G01 X76.8270 Y-11.0972
G01 X76.8162 Y-11.0239
G01 X76.8113 Y-10.9269
G01 X76.8112 Y-10.9195
G01 X76.8158 Y-10.8250
G01 X76.8165 Y-10.8176
G01 X76.8307 Y-10.7216
G01 X76.8399 Y-10.6838
G01 X73.7083 Y-8.3612
G01 X69.7397 Y-5.9825
G01 X65.5570 Y-4.0043
G01 X61.2005 Y-2.4455
G01 X56.7122 Y-1.3212
G01 X53.6685 Y-0.8697
G01 X53.6342 Y-0.9155
G01 X53.5690 Y-0.9875
G01 X53.5637 Y-0.9926
G01 X53.4954 Y-1.0546
G01 X53.4897 Y-1.0593
G01 X53.4097 Y-1.1186
G01 X53.3264 Y-1.1686
G01 X53.3178 Y-1.1732
G01 X53.2322 Y-1.2137
G01 X53.2253 Y-1.2164
G01 X53.1385 Y-1.2475
G01 X53.1291 Y-1.2503
G01 X53.0349 Y-1.2738
G01 X52.9388 Y-1.2882
G01 X52.9290 Y-1.2892
G01 X52.8320 Y-1.2938
G01 X52.7350 Y-1.2892
G01 X52.7252 Y-1.2882
G01 X52.6291 Y-1.2738
G01 X52.5349 Y-1.2503
G01 X52.5255 Y-1.2475
G01 X52.4341 Y-1.2146
G01 X52.3462 Y-1.1732
G01 X52.3376 Y-1.1686
G01 X52.2543 Y-1.1186
G01 X52.1743 Y-1.0593
G01 X52.1686 Y-1.0546
G01 X52.1003 Y-0.9926
G01 X52.0934 Y-0.9857
G01 X52.0282 Y-0.9136
G01 X51.9703 Y-0.8357
G01 X51.9648 Y-0.8275
G01 X51.9174 Y-0.7484
G01 X51.9138 Y-0.7420
G01 X51.8723 Y-0.6542
G01 X51.8630 Y-0.6289
G01 X47.5140 Y-0.4153
G01 X42.8926 Y-0.6423
G01 X38.3158 Y-1.3212
G01 X36.8091 Y-1.6986
G01 X36.7764 Y-1.7903
G01 X36.7727 Y-1.7994
G01 X36.7310 Y-1.8872
G01 X36.6812 Y-1.9705
G01 X36.6757 Y-1.9787
G01 X36.6178 Y-2.0566
G01 X36.5526 Y-2.1287
G01 X36.5457 Y-2.1356
G01 X36.4736 Y-2.2008
G01 X36.3957 Y-2.2587
G01 X36.3875 Y-2.2642
G01 X36.3042 Y-2.3140
G01 X36.2164 Y-2.3557
G01 X36.2073 Y-2.3594
G01 X36.1158 Y-2.3920
G01 X36.0169 Y-2.4168
G01 X35.9159 Y-2.4318
G01 X35.8189 Y-2.4367
G01 X35.8091 Y-2.4367
G01 X35.7121 Y-2.4318
G01 X35.6160 Y-2.4177
G01 X35.6064 Y-2.4157
G01 X35.5122 Y-2.3920
G01 X35.4207 Y-2.3594
G01 X35.4116 Y-2.3557
G01 X35.3238 Y-2.3140
G01 X35.2405 Y-2.2642
G01 X35.2323 Y-2.2587
G01 X35.1544 Y-2.2008
G01 X35.0786 Y-2.1321
G01 X33.8275 Y-2.4455
G01 X29.4711 Y-4.0043
G01 X25.2884 Y-5.9825
G01 X22.7299 Y-7.5160
G01 X22.7373 Y-7.5466
G01 X22.7512 Y-7.6402
G01 X22.7520 Y-7.6475
G01 X22.7568 Y-7.7470
G01 X22.7520 Y-7.8465
G01 X22.7512 Y-7.8538
G01 X22.7377 Y-7.9450
G01 X22.7357 Y-7.9546
G01 X22.7120 Y-8.0488
G01 X22.6786 Y-8.1426
G01 X22.6757 Y-8.1494
G01 X22.6362 Y-8.2328
G01 X22.6316 Y-8.2414
G01 X22.5816 Y-8.3247
G01 X22.5208 Y-8.4066
G01 X22.4522 Y-8.4822
G01 X22.3804 Y-8.5476
G01 X22.3728 Y-8.5538
G01 X22.2947 Y-8.6116
G01 X22.2072 Y-8.6640
G01 X22.1194 Y-8.7057
G01 X22.1103 Y-8.7094
G01 X22.0188 Y-8.7420
G01 X21.9199 Y-8.7668
G01 X21.8238 Y-8.7812
G01 X21.8140 Y-8.7822
G01 X21.7219 Y-8.7867
G01 X21.7121 Y-8.7867
G01 X21.6151 Y-8.7818
G01 X21.5141 Y-8.7668
G01 X21.4152 Y-8.7420
G01 X21.3237 Y-8.7094
G01 X21.3146 Y-8.7057
G01 X21.2312 Y-8.6662
G01 X21.2226 Y-8.6616
G01 X21.1393 Y-8.6116
G01 X21.0607 Y-8.5534
G01 X17.6033 Y-11.1175
G01 X14.1750 Y-14.2248
G01 X11.0677 Y-17.6531
G01 X8.3115 Y-21.3695
G01 X7.8358 Y-22.1632
G01 X7.8660 Y-22.2481
G01 X7.8897 Y-22.3423
G01 X7.8917 Y-22.3519
G01 X7.9052 Y-22.4432
G01 X7.9062 Y-22.4529
G01 X7.9108 Y-22.5499
G01 X7.9058 Y-22.6519
G01 X7.8917 Y-22.7480
G01 X7.8897 Y-22.7576
G01 X7.8660 Y-22.8518
G01 X7.8334 Y-22.9433
G01 X7.8297 Y-22.9523
G01 X7.7880 Y-23.0401
G01 X7.7356 Y-23.1276
G01 X7.6748 Y-23.2096
G01 X7.6062 Y-23.2852
G01 X7.5306 Y-23.3537
G01 X7.4527 Y-23.4117
G01 X7.4445 Y-23.4171
G01 X7.3612 Y-23.4670
G01 X7.2734 Y-23.5086
G01 X7.2643 Y-23.5124
G01 X7.1775 Y-23.5434
G01 X7.1681 Y-23.5463
G01 X7.0739 Y-23.5698
G01 X6.9847 Y-23.5831
G01 X5.9327 Y-25.3381
G01 X3.9545 Y-29.5208
G01 X2.3957 Y-33.8773
G01 X1.2715 Y-38.3656
G01 X0.7059 Y-42.1784
G01 X0.7389 Y-42.2234
G01 X0.7876 Y-42.3046
G01 X0.7912 Y-42.3110
G01 X0.8336 Y-42.4011
G01 X0.8665 Y-42.4925
G01 X0.8687 Y-42.4995
G01 X0.8928 Y-42.5961
G01 X0.9078 Y-42.6971
G01 X0.9128 Y-42.7990
G01 X0.9082 Y-42.8960
G01 X0.9072 Y-42.9058
G01 X0.8928 Y-43.0019
G01 X0.8680 Y-43.1008
G01 X0.8336 Y-43.1969
G01 X0.7912 Y-43.2870
G01 X0.7876 Y-43.2934
G01 X0.7376 Y-43.3767
G01 X0.6783 Y-43.4567
G01 X0.6736 Y-43.4624
G01 X0.6100 Y-43.5325
G01 X0.5614 Y-43.5769
G00 Z2.0000
G00 X-1.1185 Y-43.1109
G01 F60.00
G01 Z0.0000
G01 F250.00
G01 X-1.3352 Y-47.5221
G01 X-1.3354 Y-47.6006
G01 X-1.1041 Y-52.3103
G01 X-1.0965 Y-52.3885
G01 X-0.4048 Y-57.0529
G01 X-0.3896 Y-57.1299
G01 X0.7561 Y-61.7040
G01 X0.7788 Y-61.7792
G01 X2.3672 Y-66.2190
G01 X2.3972 Y-66.2917
G01 X4.4131 Y-70.5544
G01 X4.4501 Y-70.6237
G01 X6.8742 Y-74.6683
G01 X6.9177 Y-74.7337
G01 X9.7266 Y-78.5212
G01 X9.7763 Y-78.5820
G01 X12.9429 Y-82.0759
G01 X12.9983 Y-82.1315
G01 X16.4958 Y-85.3015
G01 X16.5566 Y-85.3512
G01 X20.3421 Y-88.1587
G01 X20.4095 Y-88.2036
G01 X24.0241 Y-90.3701
G01 X24.0545 Y-90.4203
G01 X24.1123 Y-90.4983
G01 X24.1171 Y-90.5040
G01 X24.1790 Y-90.5723
G01 X24.1842 Y-90.5776
G01 X24.2580 Y-90.6444
G01 X24.3360 Y-90.7023
G01 X24.3441 Y-90.7078
G01 X24.4275 Y-90.7576
G01 X24.5152 Y-90.7993
G01 X24.5243 Y-90.8030
G01 X24.6158 Y-90.8356
G01 X24.7124 Y-90.8599
G01 X24.7196 Y-90.8613
G01 X24.8109 Y-90.8748
G01 X24.8182 Y-90.8756
G01 X24.9152 Y-90.8804
G01 X24.9740 Y-90.8778
G01 X28.7817 Y-92.6786
G01 X28.8565 Y-92.7097
G01 X33.2939 Y-94.2975
G01 X33.3690 Y-94.3204
G01 X37.9431 Y-95.4663
G01 X38.0201 Y-95.4817
G01 X42.6844 Y-96.1737
G01 X42.7626 Y-96.1815
G01 X47.4772 Y-96.4132
G01 X47.5557 Y-96.4130
G01 X52.2630 Y-96.1818
G01 X52.3436 Y-96.1737
G01 X57.0055 Y-95.4822
G01 X57.0850 Y-95.4663
G01 X59.6753 Y-94.8174
G01 X59.7494 Y-94.8283
G01 X59.8465 Y-94.8332
G01 X59.8563 Y-94.8332
G01 X59.9484 Y-94.8287
G01 X59.9581 Y-94.8277
G01 X60.0542 Y-94.8133
G01 X60.1532 Y-94.7885
G01 X60.2493 Y-94.7542
G01 X60.3415 Y-94.7105
G01 X60.4290 Y-94.6581
G01 X60.4893 Y-94.6135
G01 X61.6543 Y-94.3217
G01 X61.7318 Y-94.2983
G01 X66.1716 Y-92.7097
G01 X66.2464 Y-92.6786
G01 X70.5068 Y-90.6636
G01 X70.5782 Y-90.6253
G01 X74.6227 Y-88.2010
G01 X74.6879 Y-88.1573
G01 X78.4714 Y-85.3512
G01 X78.5322 Y-85.3015
G01 X82.0261 Y-82.1349
G01 X82.0818 Y-82.0795
G01 X85.2485 Y-78.5857
G01 X85.2984 Y-78.5250
G01 X88.1075 Y-74.7377
G01 X88.1512 Y-74.6724
G01 X90.5755 Y-70.6280
G01 X90.6127 Y-70.5588
G01 X92.6289 Y-66.2961
G01 X92.6590 Y-66.2236
G01 X94.2477 Y-61.7839
G01 X94.2706 Y-61.7088
G01 X95.4165 Y-57.1347
G01 X95.4319 Y-57.0577
G01 X95.9372 Y-53.6523
G01 X95.9576 Y-53.6086
G01 X95.9895 Y-53.5195
G01 X95.9917 Y-53.5125
G01 X96.0158 Y-53.4159
G01 X96.0302 Y-53.3198
G01 X96.0312 Y-53.3100
G01 X96.0357 Y-53.2179
G01 X96.0358 Y-53.2105
G01 X96.0310 Y-53.1135
G01 X96.0242 Y-53.0658
G01 X96.1239 Y-52.3934
G01 X96.1318 Y-52.3152
G01 X96.3633 Y-47.6055
G01 X96.3634 Y-47.5270
G01 X96.1321 Y-42.8173
G01 X96.1245 Y-42.7391
G01 X95.4328 Y-38.0747
G01 X95.4176 Y-37.9976
G01 X94.2719 Y-33.4235
G01 X94.2493 Y-33.3483
G01 X92.6608 Y-28.9085
G01 X92.6309 Y-28.8359
G01 X90.6149 Y-24.5732
G01 X90.5780 Y-24.5039
G01 X88.1539 Y-20.4593
G01 X88.1103 Y-20.3939
G01 X85.3015 Y-16.6064
G01 X85.2517 Y-16.5456
G01 X82.0852 Y-13.0517
G01 X82.0297 Y-12.9960
G01 X78.5359 Y-9.8293
G01 X78.4753 Y-9.7794
G01 X74.6879 Y-6.9703
G01 X74.6227 Y-6.9266
G01 X70.5782 Y-4.5023
G01 X70.5090 Y-4.4651
G01 X66.2464 Y-2.4489
G01 X66.1738 Y-2.4188
G01 X61.7341 Y-0.8301
G01 X61.6590 Y-0.8072
G01 X57.0850 Y0.3387
G01 X57.0079 Y0.3541
G01 X52.3436 Y1.0461
G01 X52.2654 Y1.0540
G01 X47.5557 Y1.2855
G01 X47.4772 Y1.2856
G01 X42.7675 Y1.0543
G01 X42.6893 Y1.0467
G01 X38.0249 Y0.3550
G01 X37.9479 Y0.3398
G01 X33.3738 Y-0.8059
G01 X33.2986 Y-0.8285
G01 X28.8588 Y-2.4170
G01 X28.7861 Y-2.4469
G01 X24.5234 Y-4.4629
G01 X24.4541 Y-4.4998
G01 X20.4095 Y-6.9239
G01 X20.3441 Y-6.9675
G01 X16.5566 Y-9.7763
G01 X16.4958 Y-9.8261
G01 X13.0019 Y-12.9926
G01 X12.9463 Y-13.0481
G01 X9.7795 Y-16.5419
G01 X9.7296 Y-16.6025
G01 X6.9205 Y-20.3899
G01 X6.8768 Y-20.4551
G01 X4.4525 Y-24.4996
G01 X4.4154 Y-24.5688
G01 X2.3992 Y-28.8314
G01 X2.3690 Y-28.9040
G01 X0.7803 Y-33.3437
G01 X0.7574 Y-33.4188
G01 X-0.3885 Y-37.9928
G01 X-0.4039 Y-38.0699
G01 X-1.0291 Y-42.2837
G01 X-1.0452 Y-42.3110
G01 X-1.0867 Y-42.3988
G01 X-1.0894 Y-42.4057
G01 X-1.1213 Y-42.4948
G01 X-1.1233 Y-42.5019
G01 X-1.1468 Y-42.5961
G01 X-1.1612 Y-42.6922
G01 X-1.1622 Y-42.7020
G01 X-1.1668 Y-42.7990
G01 X-1.1618 Y-42.9009
G01 X-1.1468 Y-43.0019
G01 X-1.1233 Y-43.0961
G01 X-1.1185 Y-43.1109
G00 Z2.0000
G00 X2.8320 Y-49.1876
G01 F60.00
G01 Z0.0000
G01 F250.00
G01 X2.7989 Y-49.1761
G01 X2.7204 Y-49.1564
G01 X2.7132 Y-49.1548
G01 X2.6282 Y-49.1423
G01 X2.5449 Y-49.1381
G01 X2.5375 Y-49.1380
G01 X2.4518 Y-49.1423
G01 X2.3644 Y-49.1553
G01 X2.2787 Y-49.1768
G01 X2.2002 Y-49.2047
G01 X2.1933 Y-49.2075
G01 X2.1157 Y-49.2443
G01 X2.0400 Y-49.2897
G01 X1.9690 Y-49.3423
G01 X1.9036 Y-49.4016
G01 X1.8443 Y-49.4670
G01 X1.7917 Y-49.5380
G01 X1.7463 Y-49.6137
G01 X1.7105 Y-49.6891
G01 X1.7076 Y-49.6959
G01 X1.6788 Y-49.7767
G01 X1.6573 Y-49.8624
G01 X1.6443 Y-49.9498
G01 X1.6400 Y-50.0380
G01 X1.6443 Y-50.1262
G01 X1.6573 Y-50.2136
G01 X1.6788 Y-50.2993
G01 X1.7085 Y-50.3824
G01 X1.7463 Y-50.4623
G01 X1.7917 Y-50.5380
G01 X1.8443 Y-50.6090
G01 X1.9036 Y-50.6744
G01 X1.9690 Y-50.7337
G01 X2.0400 Y-50.7863
G01 X2.1157 Y-50.8317
G01 X2.1956 Y-50.8695
G01 X2.2787 Y-50.8992
G01 X2.3644 Y-50.9207
G01 X2.4518 Y-50.9337
G01 X2.5400 Y-50.9380
G01 X2.6282 Y-50.9337
G01 X2.7132 Y-50.9212
G01 X2.7204 Y-50.9196
G01 X2.7989 Y-50.8999
G01 X2.8320 Y-50.8884
G01 X6.4795 Y-50.8883
G01 X6.5604 Y-50.8843
G01 X6.6429 Y-50.8720
G01 X6.7239 Y-50.8518
G01 X6.8024 Y-50.8236
G01 X6.8779 Y-50.7880
G01 X6.9494 Y-50.7451
G01 X7.0165 Y-50.6953
G01 X7.0783 Y-50.6393
G01 X12.6712 Y-45.0464
G01 X31.4960 Y-45.0464
G01 X31.5794 Y-45.0423
G01 X31.6619 Y-45.0300
G01 X31.7429 Y-45.0098
G01 X31.8214 Y-44.9816
G01 X31.8969 Y-44.9460
G01 X31.9684 Y-44.9031
G01 X32.0355 Y-44.8533
G01 X32.0973 Y-44.7973
G01 X44.3368 Y-32.5578
G01 X44.3684 Y-32.5425
G01 X44.4379 Y-32.5009
G01 X44.4440 Y-32.4969
G01 X44.5130 Y-32.4457
G01 X44.5748 Y-32.3898
G01 X44.5801 Y-32.3846
G01 X44.6377 Y-32.3210
G01 X44.6875 Y-32.2540
G01 X44.6929 Y-32.2459
G01 X44.7357 Y-32.1743
G01 X44.7735 Y-32.0944
G01 X44.8017 Y-32.0159
G01 X44.8046 Y-32.0065
G01 X44.8247 Y-31.9256
G01 X44.8377 Y-31.8382
G01 X44.8419 Y-31.7549
G01 X44.8419 Y-31.7451
G01 X44.8377 Y-31.6618
G01 X44.8247 Y-31.5744
G01 X44.8046 Y-31.4935
G01 X44.8017 Y-31.4841
G01 X44.7735 Y-31.4056
G01 X44.7379 Y-31.3301
G01 X44.7333 Y-31.3215
G01 X44.6903 Y-31.2500
G01 X44.6407 Y-31.1829
G01 X44.6345 Y-31.1753
G01 X44.5784 Y-31.1136
G01 X44.5130 Y-31.0543
G01 X44.4420 Y-31.0017
G01 X44.3705 Y-30.9587
G01 X44.3619 Y-30.9541
G01 X44.2864 Y-30.9185
G01 X44.2079 Y-30.8903
G01 X44.1985 Y-30.8874
G01 X44.1224 Y-30.8684
G01 X44.1127 Y-30.8665
G01 X44.0302 Y-30.8543
G01 X43.9420 Y-30.8500
G01 X43.8538 Y-30.8543
G01 X43.7713 Y-30.8665
G01 X43.7616 Y-30.8684
G01 X43.6855 Y-30.8874
G01 X43.6761 Y-30.8903
G01 X43.5976 Y-30.9185
G01 X43.5221 Y-30.9541
G01 X43.5135 Y-30.9587
G01 X43.4420 Y-31.0017
G01 X43.3749 Y-31.0513
G01 X43.3692 Y-31.0559
G01 X43.3056 Y-31.1136
G01 X43.2495 Y-31.1753
G01 X43.2448 Y-31.1810
G01 X43.1965 Y-31.2460
G01 X43.1923 Y-31.2520
G01 X43.1495 Y-31.3236
G01 X43.1342 Y-31.3552
G01 X31.1438 Y-43.3456
G01 X12.3190 Y-43.3456
G01 X12.2356 Y-43.3497
G01 X12.1531 Y-43.3620
G01 X12.0721 Y-43.3822
G01 X11.9982 Y-43.4086
G01 X11.9891 Y-43.4123
G01 X11.9181 Y-43.4460
G01 X11.8507 Y-43.4863
G01 X11.8425 Y-43.4918
G01 X11.7795 Y-43.5387
G01 X11.7195 Y-43.5930
G01 X6.1248 Y-49.1876
G01 X2.8320 Y-49.1876
G00 Z2.0000
G00 X3.4214 Y-54.6852
G01 F60.00
G01 Z0.0000
G01 F250.00
G01 X3.2508 Y-54.6895
G01 X3.0811 Y-54.7116
G01 X2.9150 Y-54.7503
G01 X2.7541 Y-54.8068
G01 X2.5991 Y-54.8793
G01 X2.4526 Y-54.9669
G01 X2.3161 Y-55.0694
G01 X2.1906 Y-55.1853
G01 X2.0780 Y-55.3137
G01 X1.9788 Y-55.4531
G01 X1.8950 Y-55.6016
G01 X1.8265 Y-55.7583
G01 X1.7748 Y-55.9207
G01 X1.7398 Y-56.0880
G01 X1.7220 Y-56.2581
G01 X1.7220 Y-56.4285
G01 X1.7398 Y-56.5986
G01 X1.7748 Y-56.7659
G01 X1.8265 Y-56.9283
G01 X1.8950 Y-57.0850
G01 X1.9788 Y-57.2335
G01 X2.0780 Y-57.3729
G01 X2.1906 Y-57.5012
G01 X2.3161 Y-57.6171
G01 X2.4526 Y-57.7197
G01 X2.5991 Y-57.8073
G01 X2.7541 Y-57.8798
G01 X2.9150 Y-57.9362
G01 X3.0811 Y-57.9750
G01 X3.2508 Y-57.9971
G01 X3.4214 Y-58.0014
G01 X3.5919 Y-57.9884
G01 X3.7595 Y-57.9578
G01 X3.9239 Y-57.9099
G01 X4.0819 Y-57.8457
G01 X4.2323 Y-57.7652
G01 X4.3743 Y-57.6698
G01 X4.5056 Y-57.5606
G01 X4.6248 Y-57.4385
G01 X4.7306 Y-57.3044
G01 X4.8222 Y-57.1600
G01 X4.8988 Y-57.0078
G01 X4.9587 Y-56.8479
G01 X5.0023 Y-56.6824
G01 X5.0287 Y-56.5139
G01 X5.0373 Y-56.3433
G01 X5.0287 Y-56.1727
G01 X5.0023 Y-56.0042
G01 X4.9587 Y-55.8387
G01 X4.8988 Y-55.6788
G01 X4.8222 Y-55.5265
G01 X4.7306 Y-55.3822
G01 X4.6248 Y-55.2481
G01 X4.5056 Y-55.1260
G01 X4.3743 Y-55.0168
G01 X4.2323 Y-54.9213
G01 X4.0819 Y-54.8409
G01 X3.9239 Y-54.7767
G01 X3.7595 Y-54.7288
G01 X3.5919 Y-54.6981
G01 X3.4214 Y-54.6852
G00 Z2.0000
G00 X9.0510 Y-58.7188
G01 F60.00
G01 Z0.0000
G01 F250.00
G01 X8.9156 Y-58.7230
G01 X8.7821 Y-58.7439
G01 X8.6520 Y-58.7812
G01 X8.5272 Y-58.8338
G01 X8.4104 Y-58.9013
G01 X8.3023 Y-58.9828
G01 X8.2051 Y-59.0768
G01 X8.1204 Y-59.1824
G01 X8.0492 Y-59.2974
G01 X7.9928 Y-59.4203
G01 X7.9518 Y-59.5489
G01 X7.9267 Y-59.6821
G01 X7.9183 Y-59.8169
G01 X7.9225 Y-59.8828
G01 X7.9225 Y-59.8957
G01 X7.9217 Y-59.9034
G01 X7.9143 Y-59.9527
G01 X7.9125 Y-59.9597
G01 X7.9102 Y-59.9665
G01 X7.9074 Y-59.9731
G01 X7.9030 Y-59.9816
G01 X7.8758 Y-60.0237
G01 X7.8702 Y-60.0311
G01 X7.8656 Y-60.0364
G01 X7.2664 Y-60.6361
G01 X7.2033 Y-60.7151
G01 X7.1623 Y-60.7827
G01 X7.1546 Y-60.7977
G01 X7.1236 Y-60.8727
G01 X7.1183 Y-60.8890
G01 X7.0987 Y-60.9680
G01 X7.0959 Y-60.9850
G01 X7.0885 Y-61.0652
G01 X7.0880 Y-61.5595
G01 X7.0876 Y-61.5692
G01 X7.0835 Y-61.6013
G01 X7.0814 Y-61.6109
G01 X7.0783 Y-61.6202
G01 X7.0668 Y-61.6481
G01 X7.0636 Y-61.6547
G01 X7.0600 Y-61.6610
G01 X7.0544 Y-61.6689
G01 X7.0253 Y-61.7060
G01 X7.0166 Y-61.7146
G01 X7.0109 Y-61.7192
G01 X7.0049 Y-61.7234
G01 X6.9675 Y-61.7460
G01 X6.9608 Y-61.7493
G01 X6.9514 Y-61.7529
G01 X6.9442 Y-61.7550
G01 X6.9369 Y-61.7566
G01 X6.8989 Y-61.7630
G01 X6.8868 Y-61.7641
G01 X5.7719 Y-61.7641
G01 X5.7588 Y-61.7632
G01 X5.7181 Y-61.7558
G01 X5.7108 Y-61.7542
G01 X5.6989 Y-61.7502
G01 X5.6877 Y-61.7448
G01 X5.6525 Y-61.7241
G01 X5.6449 Y-61.7189
G01 X5.5803 Y-61.6628
G01 X5.4764 Y-61.5929
G01 X5.3638 Y-61.5377
G01 X5.2450 Y-61.4972
G01 X5.1223 Y-61.4729
G01 X4.9972 Y-61.4646
G01 X4.8721 Y-61.4729
G01 X4.7488 Y-61.4972
G01 X4.6301 Y-61.5377
G01 X4.5175 Y-61.5929
G01 X4.4137 Y-61.6627
G01 X4.3193 Y-61.7456
G01 X4.2363 Y-61.8400
G01 X4.1665 Y-61.9438
G01 X4.1114 Y-62.0564
G01 X4.0709 Y-62.1752
G01 X4.0465 Y-62.2984
G01 X4.0382 Y-62.4235
G01 X4.0465 Y-62.5486
G01 X4.0709 Y-62.6714
G01 X4.1114 Y-62.7901
G01 X4.1665 Y-62.9027
G01 X4.2363 Y-63.0065
G01 X4.3193 Y-63.1010
G01 X4.4137 Y-63.1839
G01 X4.5175 Y-63.2537
G01 X4.6301 Y-63.3088
G01 X4.7488 Y-63.3493
G01 X4.8721 Y-63.3737
G01 X4.9972 Y-63.3820
G01 X5.1223 Y-63.3737
G01 X5.2450 Y-63.3494
G01 X5.3638 Y-63.3088
G01 X5.4764 Y-63.2537
G01 X5.5803 Y-63.1838
G01 X5.6449 Y-63.1277
G01 X5.6525 Y-63.1225
G01 X5.6877 Y-63.1017
G01 X5.6990 Y-63.0963
G01 X5.7110 Y-63.0924
G01 X5.7183 Y-63.0907
G01 X5.7595 Y-63.0833
G01 X5.7724 Y-63.0825
G01 X7.3215 Y-63.0820
G01 X7.4017 Y-63.0742
G01 X7.4188 Y-63.0713
G01 X7.4974 Y-63.0518
G01 X7.5137 Y-63.0464
G01 X7.5887 Y-63.0154
G01 X7.6040 Y-63.0076
G01 X7.6743 Y-62.9655
G01 X7.6883 Y-62.9556
G01 X7.7502 Y-62.9042
G01 X7.9197 Y-62.7353
G01 X7.9250 Y-62.7304
G01 X7.9306 Y-62.7259
G01 X7.9731 Y-62.6984
G01 X7.9811 Y-62.6938
G01 X7.9917 Y-62.6891
G01 X8.0609 Y-62.6631
G01 X8.1556 Y-62.6115
G01 X8.2416 Y-62.5469
G01 X8.3179 Y-62.4706
G01 X8.3825 Y-62.3846
G01 X8.4340 Y-62.2900
G01 X8.4717 Y-62.1891
G01 X8.4946 Y-62.0837
G01 X8.5022 Y-61.9760
G01 X8.4946 Y-61.8683
G01 X8.4717 Y-61.7629
G01 X8.4327 Y-61.6585
G01 X8.4178 Y-61.6254
G01 X8.4142 Y-61.6161
G01 X8.4120 Y-61.6088
G01 X8.4101 Y-61.5990
G01 X8.4061 Y-61.5643
G01 X8.4061 Y-61.4388
G01 X8.4074 Y-61.4269
G01 X8.4154 Y-61.3854
G01 X8.4171 Y-61.3780
G01 X8.4194 Y-61.3708
G01 X8.4222 Y-61.3638
G01 X8.4255 Y-61.3571
G01 X8.4308 Y-61.3484
G01 X8.4559 Y-61.3116
G01 X8.4603 Y-61.3060
G01 X8.4652 Y-61.3008
G01 X8.7971 Y-60.9689
G01 X8.8023 Y-60.9643
G01 X8.8098 Y-60.9586
G01 X8.8463 Y-60.9350
G01 X8.8550 Y-60.9300
G01 X8.8665 Y-60.9249
G01 X8.8785 Y-60.9214
G01 X8.9241 Y-60.9133
G01 X8.9340 Y-60.9121
G01 X8.9440 Y-60.9118
G01 X9.0509 Y-60.9147
G01 X9.1857 Y-60.9026
G01 X9.3177 Y-60.8738
G01 X9.4452 Y-60.8287
G01 X9.5663 Y-60.7681
G01 X9.6791 Y-60.6935
G01 X9.7818 Y-60.6057
G01 X9.8726 Y-60.5056
G01 X9.9509 Y-60.3951
G01 X10.0152 Y-60.2759
G01 X10.0640 Y-60.1499
G01 X10.0966 Y-60.0191
G01 X10.1133 Y-59.8845
G01 X10.1133 Y-59.7495
G01 X10.0966 Y-59.6149
G01 X10.0640 Y-59.4840
G01 X10.0152 Y-59.3581
G01 X9.9509 Y-59.2389
G01 X9.8726 Y-59.1284
G01 X9.7818 Y-59.0283
G01 X9.6791 Y-58.9404
G01 X9.5663 Y-58.8659
G01 X9.4452 Y-58.8053
G01 X9.3177 Y-58.7602
G01 X9.1855 Y-58.7313
G01 X9.0510 Y-58.7188
G00 Z2.0000
G00 X5.6663 Y-61.8230
G01 F60.00
G01 Z0.0000
G01 F250.00
G01 X5.6316 Y-61.7852
G01 X5.5716 Y-61.7308
G01 X5.5660 Y-61.7260
G01 X5.4970 Y-61.6750
G01 X5.4255 Y-61.6320
G01 X5.4190 Y-61.6284
G01 X5.3414 Y-61.5918
G01 X5.2582 Y-61.5620
G01 X5.1725 Y-61.5406
G01 X5.0900 Y-61.5282
G01 X5.0827 Y-61.5274
G01 X4.9969 Y-61.5233
G01 X4.9087 Y-61.5276
G01 X4.8214 Y-61.5406
G01 X4.7357 Y-61.5620
G01 X4.6525 Y-61.5918
G01 X4.5727 Y-61.6296
G01 X4.4969 Y-61.6750
G01 X4.4299 Y-61.7246
G01 X4.4241 Y-61.7292
G01 X4.3605 Y-61.7869
G01 X4.3012 Y-61.8523
G01 X4.2486 Y-61.9233
G01 X4.2032 Y-61.9990
G01 X4.1654 Y-62.0789
G01 X4.1357 Y-62.1620
G01 X4.1142 Y-62.2477
G01 X4.1013 Y-62.3351
G01 X4.0969 Y-62.4233
G01 X4.1013 Y-62.5115
G01 X4.1142 Y-62.5989
G01 X4.1357 Y-62.6845
G01 X4.1654 Y-62.7677
G01 X4.2032 Y-62.8475
G01 X4.2486 Y-62.9233
G01 X4.2982 Y-62.9904
G01 X4.3028 Y-62.9961
G01 X4.3605 Y-63.0597
G01 X4.4223 Y-63.1158
G01 X4.4299 Y-63.1220
G01 X4.4969 Y-63.1716
G01 X4.5684 Y-63.2146
G01 X4.5771 Y-63.2192
G01 X4.6480 Y-63.2528
G01 X4.6571 Y-63.2565
G01 X4.7357 Y-63.2845
G01 X4.8214 Y-63.3060
G01 X4.9087 Y-63.3190
G01 X4.9920 Y-63.3232
G01 X4.9994 Y-63.3233
G01 X5.0852 Y-63.3190
G01 X5.1725 Y-63.3060
G01 X5.2582 Y-63.2845
G01 X5.3368 Y-63.2565
G01 X5.3436 Y-63.2538
G01 X5.4212 Y-63.2170
G01 X5.4928 Y-63.1742
G01 X5.4990 Y-63.1702
G01 X5.5640 Y-63.1220
G01 X5.5698 Y-63.1174
G01 X5.6316 Y-63.0614
G01 X5.6663 Y-63.0235
G01 X7.3046 Y-63.0234
G01 X7.3536 Y-63.0210
G01 X7.3634 Y-63.0200
G01 X7.4168 Y-63.0120
G01 X7.4692 Y-62.9990
G01 X7.4786 Y-62.9962
G01 X7.5294 Y-62.9778
G01 X7.5783 Y-62.9549
G01 X7.5869 Y-62.9502
G01 X7.6332 Y-62.9224
G01 X7.6766 Y-62.8903
G01 X7.6842 Y-62.8841
G01 X7.7241 Y-62.8477
G01 X7.9220 Y-62.6498
G01 X7.9516 Y-62.6422
G01 X8.0114 Y-62.6208
G01 X8.0733 Y-62.5917
G01 X8.0798 Y-62.5882
G01 X8.1342 Y-62.5555
G01 X8.1852 Y-62.5177
G01 X8.1910 Y-62.5131
G01 X8.2398 Y-62.4688
G01 X8.2825 Y-62.4218
G01 X8.2887 Y-62.4142
G01 X8.3236 Y-62.3672
G01 X8.3291 Y-62.3590
G01 X8.3616 Y-62.3045
G01 X8.3889 Y-62.2472
G01 X8.3926 Y-62.2381
G01 X8.4139 Y-62.1783
G01 X8.4305 Y-62.1120
G01 X8.4405 Y-62.0443
G01 X8.4438 Y-61.9809
G01 X8.4438 Y-61.9711
G01 X8.4405 Y-61.9077
G01 X8.4313 Y-61.8449
G01 X8.4294 Y-61.8353
G01 X8.4146 Y-61.7761
G01 X8.3926 Y-61.7139
G01 X8.3899 Y-61.7071
G01 X8.3627 Y-61.6497
G01 X8.3473 Y-61.6233
G01 X8.3473 Y-61.3356
G01 X8.8418 Y-60.8410
G01 X8.9151 Y-60.8518
G01 X9.0121 Y-60.8567
G01 X9.0219 Y-60.8567
G01 X9.1140 Y-60.8522
G01 X9.1214 Y-60.8515
G01 X9.2199 Y-60.8368
G01 X9.3141 Y-60.8133
G01 X9.3235 Y-60.8105
G01 X9.4103 Y-60.7794
G01 X9.4172 Y-60.7767
G01 X9.5072 Y-60.7340
G01 X9.5905 Y-60.6842
G01 X9.5987 Y-60.6787
G01 X9.6766 Y-60.6208
G01 X9.7522 Y-60.5522
G01 X9.8176 Y-60.4804
G01 X9.8238 Y-60.4728
G01 X9.8787 Y-60.3987
G01 X9.8829 Y-60.3926
G01 X9.9340 Y-60.3072
G01 X9.9757 Y-60.2194
G01 X9.9794 Y-60.2103
G01 X10.0120 Y-60.1188
G01 X10.0357 Y-60.0246
G01 X10.0377 Y-60.0150
G01 X10.0518 Y-59.9189
G01 X10.0567 Y-59.8219
G01 X10.0567 Y-59.8121
G01 X10.0522 Y-59.7200
G01 X10.0512 Y-59.7102
G01 X10.0368 Y-59.6141
G01 X10.0133 Y-59.5199
G01 X10.0105 Y-59.5105
G01 X9.9776 Y-59.4191
G01 X9.9362 Y-59.3312
G01 X9.9316 Y-59.3226
G01 X9.8816 Y-59.2393
G01 X9.8208 Y-59.1574
G01 X9.7522 Y-59.0818
G01 X9.6766 Y-59.0132
G01 X9.5947 Y-58.9524
G01 X9.5072 Y-58.9000
G01 X9.4149 Y-58.8564
G01 X9.3188 Y-58.8220
G01 X9.2199 Y-58.7972
G01 X9.1189 Y-58.7822
G01 X9.0170 Y-58.7772
G01 X8.9151 Y-58.7822
G01 X8.8141 Y-58.7972
G01 X8.7152 Y-58.8220
G01 X8.6191 Y-58.8564
G01 X8.5312 Y-58.8978
G01 X8.5226 Y-58.9024
G01 X8.4393 Y-58.9524
G01 X8.3612 Y-59.0102
G01 X8.3536 Y-59.0164
G01 X8.2818 Y-59.0818
G01 X8.2132 Y-59.1574
G01 X8.1553 Y-59.2353
G01 X8.1498 Y-59.2435
G01 X8.1024 Y-59.3226
G01 X8.0978 Y-59.3312
G01 X8.0564 Y-59.4191
G01 X8.0235 Y-59.5105
G01 X8.0207 Y-59.5199
G01 X7.9983 Y-59.6094
G01 X7.9963 Y-59.6190
G01 X7.9822 Y-59.7151
G01 X7.9772 Y-59.8170
G01 X7.9822 Y-59.9189
G01 X7.9930 Y-59.9922
G01 X7.3208 Y-60.6643
G01 X7.2830 Y-60.7062
G01 X7.2507 Y-60.7495
G01 X7.2453 Y-60.7577
G01 X7.2165 Y-60.8062
G01 X7.1924 Y-60.8573
G01 X7.1726 Y-60.9128
G01 X7.1583 Y-60.9699
G01 X7.1502 Y-61.0233
G01 X7.1494 Y-61.0306
G01 X7.1467 Y-61.0870
G01 X7.1467 Y-61.6233
G01 X7.1313 Y-61.6497
G01 X7.1031 Y-61.7093
G01 X7.0808 Y-61.7714
G01 X7.0732 Y-61.8010
G01 X7.0511 Y-61.8230
G01 X5.6663 Y-61.8230
G00 Z2.0000
G00 X7.2330 Y-66.2663
G01 F60.00
G01 Z0.0000
G01 F250.00
G01 X7.1999 Y-66.2548
G01 X7.1214 Y-66.2351
G01 X7.1142 Y-66.2335
G01 X7.0293 Y-66.2210
G01 X6.9435 Y-66.2167
G01 X6.9361 Y-66.2168
G01 X6.8528 Y-66.2210
G01 X6.7703 Y-66.2332
G01 X6.7607 Y-66.2351
G01 X6.6775 Y-66.2562
G01 X6.5966 Y-66.2852
G01 X6.5168 Y-66.3230
G01 X6.4410 Y-66.3684
G01 X6.3740 Y-66.4180
G01 X6.3664 Y-66.4242
G01 X6.3082 Y-66.4769
G01 X6.3013 Y-66.4839
G01 X6.2453 Y-66.5457
G01 X6.1956 Y-66.6127
G01 X6.1914 Y-66.6187
G01 X6.1473 Y-66.6924
G01 X6.1096 Y-66.7723
G01 X6.0798 Y-66.8554
G01 X6.0594 Y-66.9363
G01 X6.0575 Y-66.9460
G01 X6.0460 Y-67.0236
G01 X6.0450 Y-67.0334
G01 X6.0411 Y-67.1167
G01 X6.0454 Y-67.2049
G01 X6.0583 Y-67.2923
G01 X6.0798 Y-67.3780
G01 X6.1096 Y-67.4611
G01 X6.1451 Y-67.5366
G01 X6.1497 Y-67.5452
G01 X6.1927 Y-67.6167
G01 X6.2423 Y-67.6838
G01 X6.2485 Y-67.6914
G01 X6.3013 Y-67.7495
G01 X6.3082 Y-67.7565
G01 X6.3701 Y-67.8124
G01 X6.4410 Y-67.8650
G01 X6.5168 Y-67.9104
G01 X6.5921 Y-67.9462
G01 X6.6012 Y-67.9500
G01 X6.6751 Y-67.9764
G01 X6.6845 Y-67.9793
G01 X6.7655 Y-67.9994
G01 X6.8480 Y-68.0118
G01 X6.8577 Y-68.0127
G01 X6.9410 Y-68.0167
G01 X7.0244 Y-68.0127
G01 X7.0317 Y-68.0121
G01 X7.1118 Y-68.0002
G01 X7.1190 Y-67.9989
G01 X7.1999 Y-67.9786
G01 X7.2330 Y-67.9671
G01 X8.7023 Y-67.9671
G01 X8.7807 Y-67.9633
G01 X8.7905 Y-67.9624
G01 X8.8682 Y-67.9507
G01 X8.9444 Y-67.9318
G01 X8.9538 Y-67.9289
G01 X9.0231 Y-67.9041
G01 X9.0322 Y-67.9004
G01 X9.1032 Y-67.8667
G01 X9.1747 Y-67.8238
G01 X9.2418 Y-67.7740
G01 X9.3036 Y-67.7180
G01 X13.5553 Y-63.4663
G01 X13.6081 Y-63.4082
G01 X13.6144 Y-63.4006
G01 X13.6611 Y-63.3374
G01 X13.7028 Y-63.2680
G01 X13.7062 Y-63.2615
G01 X13.7396 Y-63.1904
G01 X13.7662 Y-63.1165
G01 X13.7691 Y-63.1071
G01 X13.7880 Y-63.0309
G01 X13.7997 Y-62.9532
G01 X13.8006 Y-62.9435
G01 X13.8044 Y-62.8650
G01 X13.8044 Y-51.5332
G01 X18.3862 Y-46.9514
G01 X41.4020 Y-46.9514
G01 X41.4805 Y-46.9476
G01 X41.4902 Y-46.9467
G01 X41.5679 Y-46.9350
G01 X41.6441 Y-46.9161
G01 X41.6535 Y-46.9132
G01 X41.7274 Y-46.8866
G01 X41.8029 Y-46.8510
G01 X41.8703 Y-46.8107
G01 X41.8785 Y-46.8052
G01 X41.9376 Y-46.7614
G01 X41.9452 Y-46.7551
G01 X42.0033 Y-46.7023
G01 X44.2098 Y-44.4958
G01 X44.2414 Y-44.4805
G01 X44.3130 Y-44.4377
G01 X44.3190 Y-44.4335
G01 X44.3840 Y-44.3852
G01 X44.3897 Y-44.3805
G01 X44.4514 Y-44.3244
G01 X44.5107 Y-44.2590
G01 X44.5633 Y-44.1880
G01 X44.6063 Y-44.1165
G01 X44.6109 Y-44.1079
G01 X44.6465 Y-44.0324
G01 X44.6762 Y-43.9493
G01 X44.6966 Y-43.8684
G01 X44.6985 Y-43.8587
G01 X44.7101 Y-43.7811
G01 X44.7110 Y-43.7713
G01 X44.7150 Y-43.6880
G01 X44.7107 Y-43.5998
G01 X44.6977 Y-43.5124
G01 X44.6776 Y-43.4315
G01 X44.6747 Y-43.4221
G01 X44.6483 Y-43.3482
G01 X44.6445 Y-43.3391
G01 X44.6087 Y-43.2637
G01 X44.5647 Y-43.1900
G01 X44.5605 Y-43.1840
G01 X44.5107 Y-43.1170
G01 X44.4514 Y-43.0516
G01 X44.3860 Y-42.9923
G01 X44.3150 Y-42.9397
G01 X44.2393 Y-42.8943
G01 X44.1594 Y-42.8565
G01 X44.0763 Y-42.8268
G01 X43.9954 Y-42.8064
G01 X43.9857 Y-42.8045
G01 X43.9032 Y-42.7923
G01 X43.8150 Y-42.7880
G01 X43.7268 Y-42.7923
G01 X43.6443 Y-42.8045
G01 X43.6346 Y-42.8064
G01 X43.5585 Y-42.8254
G01 X43.5491 Y-42.8283
G01 X43.4706 Y-42.8565
G01 X43.3951 Y-42.8921
G01 X43.3865 Y-42.8967
G01 X43.3150 Y-42.9397
G01 X43.2479 Y-42.9893
G01 X43.2403 Y-42.9955
G01 X43.1786 Y-43.0516
G01 X43.1193 Y-43.1170
G01 X43.0681 Y-43.1860
G01 X43.0641 Y-43.1921
G01 X43.0225 Y-43.2616
G01 X43.0072 Y-43.2932
G01 X41.0498 Y-45.2506
G01 X18.0340 Y-45.2506
G01 X17.9555 Y-45.2544
G01 X17.9458 Y-45.2553
G01 X17.8681 Y-45.2670
G01 X17.7871 Y-45.2872
G01 X17.7132 Y-45.3136
G01 X17.7041 Y-45.3173
G01 X17.6331 Y-45.3510
G01 X17.5636 Y-45.3926
G01 X17.5575 Y-45.3968
G01 X17.4945 Y-45.4437
G01 X17.4327 Y-45.4997
G01 X12.3527 Y-50.5797
G01 X12.2967 Y-50.6415
G01 X12.2498 Y-50.7045
G01 X12.2443 Y-50.7127
G01 X12.2040 Y-50.7801
G01 X12.1703 Y-50.8511
G01 X12.1666 Y-50.8602
G01 X12.1410 Y-50.9318
G01 X12.1210 Y-51.0103
G01 X12.1191 Y-51.0199
G01 X12.1077 Y-51.0976
G01 X12.1036 Y-51.1810
G01 X12.1036 Y-62.5128
G01 X8.3501 Y-66.2663
G01 X7.2330 Y-66.2663
G00 Z2.0000
G00 X15.1470 Y-72.1808
G01 F60.00
G01 Z0.0000
G01 F250.00
G01 X15.0116 Y-72.1850
G01 X14.8781 Y-72.2059
G01 X14.7480 Y-72.2432
G01 X14.6232 Y-72.2958
G01 X14.5064 Y-72.3633
G01 X14.3983 Y-72.4448
G01 X14.3011 Y-72.5388
G01 X14.2164 Y-72.6444
G01 X14.1452 Y-72.7594
G01 X14.0888 Y-72.8823
G01 X14.0478 Y-73.0109
G01 X14.0227 Y-73.1441
G01 X14.0143 Y-73.2789
G01 X14.0186 Y-73.3474
G01 X14.0183 Y-73.3603
G01 X14.0116 Y-73.4076
G01 X14.0097 Y-73.4170
G01 X14.0078 Y-73.4239
G01 X14.0053 Y-73.4307
G01 X14.0024 Y-73.4373
G01 X13.9978 Y-73.4457
G01 X13.9718 Y-73.4857
G01 X13.9662 Y-73.4932
G01 X13.9616 Y-73.4984
G01 X12.8544 Y-74.6061
G01 X12.7913 Y-74.6851
G01 X12.7503 Y-74.7527
G01 X12.7426 Y-74.7677
G01 X12.7116 Y-74.8427
G01 X12.7063 Y-74.8590
G01 X12.6867 Y-74.9382
G01 X12.6839 Y-74.9548
G01 X12.6759 Y-75.0398
G01 X12.6747 Y-75.0470
G01 X12.6731 Y-75.0540
G01 X12.6585 Y-75.1028
G01 X12.6547 Y-75.1117
G01 X12.6479 Y-75.1243
G01 X12.6103 Y-75.2249
G01 X12.5874 Y-75.3303
G01 X12.5798 Y-75.4380
G01 X12.5874 Y-75.5457
G01 X12.6103 Y-75.6511
G01 X12.6479 Y-75.7520
G01 X12.6995 Y-75.8466
G01 X12.7640 Y-75.9326
G01 X12.8404 Y-76.0089
G01 X12.9264 Y-76.0735
G01 X13.0211 Y-76.1251
G01 X13.0903 Y-76.1511
G01 X13.1009 Y-76.1558
G01 X13.1089 Y-76.1604
G01 X13.1475 Y-76.1851
G01 X13.1534 Y-76.1894
G01 X13.1589 Y-76.1940
G01 X13.2375 Y-76.2726
G01 X13.2453 Y-76.2824
G01 X13.2685 Y-76.3175
G01 X13.2723 Y-76.3238
G01 X13.2757 Y-76.3303
G01 X13.2785 Y-76.3370
G01 X13.2809 Y-76.3439
G01 X13.2832 Y-76.3534
G01 X13.2913 Y-76.3943
G01 X13.2923 Y-76.4016
G01 X13.2928 Y-76.4113
G01 X13.2927 Y-76.8061
G01 X13.2916 Y-76.8190
G01 X13.2829 Y-76.8650
G01 X13.2789 Y-76.8769
G01 X13.2747 Y-76.8860
G01 X13.2503 Y-76.9272
G01 X13.2432 Y-76.9363
G01 X13.1914 Y-76.9956
G01 X13.1216 Y-77.0995
G01 X13.0664 Y-77.2121
G01 X13.0259 Y-77.3309
G01 X13.0015 Y-77.4536
G01 X12.9933 Y-77.5787
G01 X13.0015 Y-77.7043
G01 X13.0259 Y-77.8270
G01 X13.0664 Y-77.9458
G01 X13.1216 Y-78.0584
G01 X13.1914 Y-78.1622
G01 X13.2743 Y-78.2566
G01 X13.3687 Y-78.3396
G01 X13.4725 Y-78.4094
G01 X13.5851 Y-78.4645
G01 X13.7039 Y-78.5050
G01 X13.8266 Y-78.5294
G01 X13.9517 Y-78.5377
G01 X14.0773 Y-78.5294
G01 X14.2000 Y-78.5050
G01 X14.3188 Y-78.4645
G01 X14.4314 Y-78.4094
G01 X14.5352 Y-78.3396
G01 X14.6296 Y-78.2566
G01 X14.7126 Y-78.1622
G01 X14.7824 Y-78.0584
G01 X14.8375 Y-77.9458
G01 X14.8780 Y-77.8270
G01 X14.9024 Y-77.7043
G01 X14.9107 Y-77.5787
G01 X14.9024 Y-77.4536
G01 X14.8780 Y-77.3309
G01 X14.8375 Y-77.2121
G01 X14.7824 Y-77.0995
G01 X14.7125 Y-76.9956
G01 X14.6592 Y-76.9346
G01 X14.6511 Y-76.9234
G01 X14.6304 Y-76.8882
G01 X14.6270 Y-76.8816
G01 X14.6241 Y-76.8746
G01 X14.6218 Y-76.8675
G01 X14.6199 Y-76.8603
G01 X14.6128 Y-76.8223
G01 X14.6117 Y-76.8145
G01 X14.6112 Y-76.8041
G01 X14.6107 Y-76.0332
G01 X14.6028 Y-75.9530
G01 X14.6000 Y-75.9358
G01 X14.5804 Y-75.8573
G01 X14.5751 Y-75.8410
G01 X14.5441 Y-75.7660
G01 X14.5363 Y-75.7507
G01 X14.4941 Y-75.6804
G01 X14.4843 Y-75.6663
G01 X14.4329 Y-75.6044
G01 X14.2156 Y-75.3859
G01 X14.2076 Y-75.3758
G01 X14.1814 Y-75.3372
G01 X14.1780 Y-75.3308
G01 X14.1750 Y-75.3242
G01 X14.1725 Y-75.3174
G01 X14.1706 Y-75.3104
G01 X14.1615 Y-75.2643
G01 X14.1605 Y-75.2571
G01 X14.1601 Y-75.2499
G01 X14.1603 Y-75.2403
G01 X14.1611 Y-75.2331
G01 X14.1700 Y-75.1869
G01 X14.1733 Y-75.1753
G01 X14.1780 Y-75.1642
G01 X14.1839 Y-75.1537
G01 X14.2076 Y-75.1192
G01 X14.2123 Y-75.1129
G01 X14.2193 Y-75.1052
G01 X14.8914 Y-74.4326
G01 X14.8965 Y-74.4278
G01 X14.9039 Y-74.4220
G01 X14.9423 Y-74.3970
G01 X14.9510 Y-74.3920
G01 X14.9578 Y-74.3888
G01 X14.9649 Y-74.3861
G01 X14.9721 Y-74.3840
G01 X14.9794 Y-74.3824
G01 X15.0275 Y-74.3743
G01 X15.0400 Y-74.3738
G01 X15.1469 Y-74.3767
G01 X15.2817 Y-74.3646
G01 X15.4137 Y-74.3358
G01 X15.5412 Y-74.2907
G01 X15.6623 Y-74.2301
G01 X15.7751 Y-74.1555
G01 X15.8778 Y-74.0677
G01 X15.9686 Y-73.9676
G01 X16.0469 Y-73.8571
G01 X16.1112 Y-73.7379
G01 X16.1600 Y-73.6119
G01 X16.1926 Y-73.4811
G01 X16.2093 Y-73.3465
G01 X16.2093 Y-73.2115
G01 X16.1926 Y-73.0769
G01 X16.1600 Y-72.9460
G01 X16.1112 Y-72.8201
G01 X16.0469 Y-72.7009
G01 X15.9686 Y-72.5904
G01 X15.8778 Y-72.4903
G01 X15.7751 Y-72.4024
G01 X15.6623 Y-72.3279
G01 X15.5412 Y-72.2673
G01 X15.4137 Y-72.2222
G01 X15.2815 Y-72.1933
G01 X15.1470 Y-72.1808
G00 Z2.0000
G00 X12.7347 Y-75.0853
G01 F60.00
G01 Z0.0000
G01 F250.00
G01 X12.7193 Y-75.1117
G01 X12.6921 Y-75.1691
G01 X12.6894 Y-75.1759
G01 X12.6674 Y-75.2381
G01 X12.6515 Y-75.3020
G01 X12.6421 Y-75.3648
G01 X12.6411 Y-75.3746
G01 X12.6381 Y-75.4355
G01 X12.6382 Y-75.4429
G01 X12.6415 Y-75.5063
G01 X12.6507 Y-75.5691
G01 X12.6526 Y-75.5787
G01 X12.6681 Y-75.6403
G01 X12.6894 Y-75.7001
G01 X12.6931 Y-75.7092
G01 X12.7193 Y-75.7643
G01 X12.7228 Y-75.7708
G01 X12.7555 Y-75.8252
G01 X12.7963 Y-75.8801
G01 X12.8422 Y-75.9308
G01 X12.8910 Y-75.9751
G01 X12.8968 Y-75.9797
G01 X12.9478 Y-76.0175
G01 X13.0022 Y-76.0502
G01 X13.0087 Y-76.0537
G01 X13.0706 Y-76.0828
G01 X13.1304 Y-76.1042
G01 X13.1600 Y-76.1118
G01 X13.3517 Y-76.3036
G01 X13.3517 Y-76.9096
G01 X13.3138 Y-76.9443
G01 X13.2595 Y-77.0043
G01 X13.2547 Y-77.0099
G01 X13.2036 Y-77.0789
G01 X13.1607 Y-77.1504
G01 X13.1571 Y-77.1569
G01 X13.1205 Y-77.2345
G01 X13.0907 Y-77.3177
G01 X13.0693 Y-77.4034
G01 X13.0566 Y-77.4883
G01 X13.0521 Y-77.5741
G01 X13.0521 Y-77.5839
G01 X13.0563 Y-77.6672
G01 X13.0693 Y-77.7545
G01 X13.0894 Y-77.8355
G01 X13.0923 Y-77.8449
G01 X13.1205 Y-77.9234
G01 X13.1571 Y-78.0010
G01 X13.1607 Y-78.0075
G01 X13.2036 Y-78.0790
G01 X13.2563 Y-78.1499
G01 X13.3156 Y-78.2154
G01 X13.3810 Y-78.2747
G01 X13.4519 Y-78.3273
G01 X13.5277 Y-78.3727
G01 X13.6075 Y-78.4105
G01 X13.6907 Y-78.4402
G01 X13.7764 Y-78.4617
G01 X13.8637 Y-78.4746
G01 X13.9520 Y-78.4790
G01 X14.0402 Y-78.4746
G01 X14.1275 Y-78.4617
G01 X14.2132 Y-78.4402
G01 X14.2964 Y-78.4105
G01 X14.3740 Y-78.3738
G01 X14.4478 Y-78.3299
G01 X14.4560 Y-78.3245
G01 X14.5229 Y-78.2747
G01 X14.5884 Y-78.2154
G01 X14.6445 Y-78.1536
G01 X14.6507 Y-78.1460
G01 X14.7003 Y-78.0790
G01 X14.7457 Y-78.0032
G01 X14.7835 Y-77.9234
G01 X14.8117 Y-77.8449
G01 X14.8145 Y-77.8355
G01 X14.8347 Y-77.7545
G01 X14.8476 Y-77.6672
G01 X14.8518 Y-77.5839
G01 X14.8518 Y-77.5741
G01 X14.8474 Y-77.4883
G01 X14.8347 Y-77.4034
G01 X14.8132 Y-77.3177
G01 X14.7835 Y-77.2345
G01 X14.7468 Y-77.1569
G01 X14.7433 Y-77.1504
G01 X14.7003 Y-77.0789
G01 X14.6492 Y-77.0099
G01 X14.6445 Y-77.0043
G01 X14.5901 Y-76.9443
G01 X14.5522 Y-76.9096
G01 X14.5521 Y-76.0501
G01 X14.5493 Y-75.9961
G01 X14.5407 Y-75.9379
G01 X14.5264 Y-75.8807
G01 X14.5074 Y-75.8275
G01 X14.4835 Y-75.7764
G01 X14.4789 Y-75.7677
G01 X14.4510 Y-75.7215
G01 X14.4190 Y-75.6780
G01 X14.4144 Y-75.6723
G01 X14.3764 Y-75.6305
G01 X14.0088 Y-75.2630
G01 X14.0026 Y-75.2383
G01 X14.9378 Y-74.3030
G01 X15.0111 Y-74.3138
G01 X15.1081 Y-74.3187
G01 X15.1179 Y-74.3187
G01 X15.2149 Y-74.3138
G01 X15.3110 Y-74.2997
G01 X15.3206 Y-74.2977
G01 X15.4148 Y-74.2740
G01 X15.5109 Y-74.2396
G01 X15.5988 Y-74.1982
G01 X15.6074 Y-74.1936
G01 X15.6907 Y-74.1436
G01 X15.7726 Y-74.0828
G01 X15.8447 Y-74.0176
G01 X15.8516 Y-74.0107
G01 X15.9168 Y-73.9386
G01 X15.9747 Y-73.8607
G01 X15.9802 Y-73.8525
G01 X16.0276 Y-73.7734
G01 X16.0322 Y-73.7648
G01 X16.0736 Y-73.6769
G01 X16.1080 Y-73.5808
G01 X16.1328 Y-73.4819
G01 X16.1472 Y-73.3858
G01 X16.1482 Y-73.3760
G01 X16.1527 Y-73.2839
G01 X16.1527 Y-73.2741
G01 X16.1478 Y-73.1771
G01 X16.1328 Y-73.0761
G01 X16.1080 Y-72.9772
G01 X16.0754 Y-72.8857
G01 X16.0717 Y-72.8766
G01 X16.0322 Y-72.7932
G01 X16.0276 Y-72.7846
G01 X15.9776 Y-72.7013
G01 X15.9183 Y-72.6213
G01 X15.9136 Y-72.6156
G01 X15.8482 Y-72.5438
G01 X15.7726 Y-72.4752
G01 X15.6907 Y-72.4144
G01 X15.6032 Y-72.3620
G01 X15.5109 Y-72.3184
G01 X15.4148 Y-72.2840
G01 X15.3159 Y-72.2592
G01 X15.2149 Y-72.2442
G01 X15.1130 Y-72.2392
G01 X15.0111 Y-72.2442
G01 X14.9101 Y-72.2592
G01 X14.8112 Y-72.2840
G01 X14.7151 Y-72.3184
G01 X14.6228 Y-72.3620
G01 X14.5353 Y-72.4144
G01 X14.4553 Y-72.4737
G01 X14.4496 Y-72.4784
G01 X14.3778 Y-72.5438
G01 X14.3124 Y-72.6156
G01 X14.3062 Y-72.6232
G01 X14.2484 Y-72.7013
G01 X14.1984 Y-72.7846
G01 X14.1938 Y-72.7932
G01 X14.1543 Y-72.8766
G01 X14.1514 Y-72.8834
G01 X14.1180 Y-72.9772
G01 X14.0943 Y-73.0714
G01 X14.0923 Y-73.0810
G01 X14.0782 Y-73.1771
G01 X14.0733 Y-73.2741
G01 X14.0733 Y-73.2839
G01 X14.0782 Y-73.3809
G01 X14.0890 Y-73.4542
G01 X12.9106 Y-74.6326
G01 X12.8710 Y-74.6762
G01 X12.8359 Y-74.7235
G01 X12.8056 Y-74.7740
G01 X12.7804 Y-74.8273
G01 X12.7613 Y-74.8804
G01 X12.7593 Y-74.8875
G01 X12.7463 Y-74.9399
G01 X12.7379 Y-74.9957
G01 X12.7348 Y-75.0545
G01 X12.7347 Y-75.0853
G00 Z2.0000
G00 X16.6937 Y-80.8790
G01 F60.00
G01 Z0.0000
G01 F250.00
G01 X16.6821 Y-80.9121
G01 X16.6618 Y-80.9930
G01 X16.6605 Y-81.0003
G01 X16.6486 Y-81.0804
G01 X16.6480 Y-81.0877
G01 X16.6440 Y-81.1710
G01 X16.6482 Y-81.2568
G01 X16.6490 Y-81.2641
G01 X16.6613 Y-81.3466
G01 X16.6828 Y-81.4323
G01 X16.7125 Y-81.5154
G01 X16.7492 Y-81.5931
G01 X16.7527 Y-81.5996
G01 X16.7957 Y-81.6710
G01 X16.8483 Y-81.7420
G01 X16.9076 Y-81.8074
G01 X16.9731 Y-81.8667
G01 X17.0440 Y-81.9194
G01 X17.1198 Y-81.9648
G01 X17.1996 Y-82.0025
G01 X17.2804 Y-82.0315
G01 X17.2875 Y-82.0336
G01 X17.3684 Y-82.0537
G01 X17.4558 Y-82.0667
G01 X17.5440 Y-82.0710
G01 X17.6322 Y-82.0667
G01 X17.7196 Y-82.0537
G01 X17.8053 Y-82.0323
G01 X17.8884 Y-82.0025
G01 X17.9683 Y-81.9648
G01 X18.0440 Y-81.9194
G01 X18.1150 Y-81.8667
G01 X18.1804 Y-81.8074
G01 X18.2397 Y-81.7420
G01 X18.2924 Y-81.6710
G01 X18.3378 Y-81.5953
G01 X18.3755 Y-81.5154
G01 X18.4045 Y-81.4346
G01 X18.4257 Y-81.3514
G01 X18.4276 Y-81.3418
G01 X18.4397 Y-81.2592
G01 X18.4440 Y-81.1710
G01 X18.4397 Y-81.0828
G01 X18.4272 Y-80.9979
G01 X18.4257 Y-80.9907
G01 X18.4060 Y-80.9121
G01 X18.3944 Y-80.8790
G01 X18.3944 Y-54.4362
G01 X23.4662 Y-49.3644
G01 X41.5290 Y-49.3644
G01 X41.6124 Y-49.3603
G01 X41.6925 Y-49.3485
G01 X41.7711 Y-49.3291
G01 X41.7805 Y-49.3262
G01 X41.8544 Y-49.2996
G01 X41.9299 Y-49.2640
G01 X41.9973 Y-49.2237
G01 X42.0055 Y-49.2182
G01 X42.0685 Y-49.1713
G01 X42.1268 Y-49.1187
G01 X44.2098 Y-47.0358
G01 X44.2414 Y-47.0205
G01 X44.3130 Y-46.9777
G01 X44.3821 Y-46.9267
G01 X44.3878 Y-46.9221
G01 X44.4514 Y-46.8644
G01 X44.5075 Y-46.8027
G01 X44.5137 Y-46.7951
G01 X44.5619 Y-46.7300
G01 X44.5659 Y-46.7239
G01 X44.6087 Y-46.6523
G01 X44.6465 Y-46.5724
G01 X44.6762 Y-46.4893
G01 X44.6977 Y-46.4036
G01 X44.7107 Y-46.3162
G01 X44.7150 Y-46.2280
G01 X44.7107 Y-46.1398
G01 X44.6985 Y-46.0573
G01 X44.6966 Y-46.0476
G01 X44.6776 Y-45.9715
G01 X44.6747 Y-45.9621
G01 X44.6465 Y-45.8836
G01 X44.6109 Y-45.8081
G01 X44.6063 Y-45.7995
G01 X44.5633 Y-45.7280
G01 X44.5107 Y-45.6570
G01 X44.4514 Y-45.5916
G01 X44.3897 Y-45.5355
G01 X44.3840 Y-45.5308
G01 X44.3150 Y-45.4797
G01 X44.2435 Y-45.4367
G01 X44.2349 Y-45.4321
G01 X44.1639 Y-45.3985
G01 X44.1548 Y-45.3947
G01 X44.0763 Y-45.3668
G01 X43.9906 Y-45.3453
G01 X43.9032 Y-45.3323
G01 X43.8199 Y-45.3281
G01 X43.8101 Y-45.3281
G01 X43.7317 Y-45.3320
G01 X43.7219 Y-45.3329
G01 X43.6394 Y-45.3453
G01 X43.5537 Y-45.3668
G01 X43.4706 Y-45.3965
G01 X43.3951 Y-45.4321
G01 X43.3865 Y-45.4367
G01 X43.3150 Y-45.4797
G01 X43.2479 Y-45.5293
G01 X43.2403 Y-45.5355
G01 X43.1786 Y-45.5916
G01 X43.1209 Y-45.6552
G01 X43.1163 Y-45.6609
G01 X43.0653 Y-45.7300
G01 X43.0225 Y-45.8016
G01 X43.0072 Y-45.8332
G01 X41.1768 Y-47.6636
G01 X23.1140 Y-47.6636
G01 X23.0355 Y-47.6674
G01 X23.0258 Y-47.6683
G01 X22.9481 Y-47.6800
G01 X22.8671 Y-47.7002
G01 X22.7932 Y-47.7266
G01 X22.7841 Y-47.7303
G01 X22.7131 Y-47.7640
G01 X22.6457 Y-47.8043
G01 X22.6375 Y-47.8098
G01 X22.5745 Y-47.8567
G01 X22.5127 Y-47.9127
G01 X16.9427 Y-53.4827
G01 X16.8899 Y-53.5408
G01 X16.8851 Y-53.5464
G01 X16.8370 Y-53.6115
G01 X16.7941 Y-53.6831
G01 X16.7584 Y-53.7585
G01 X16.7318 Y-53.8324
G01 X16.7290 Y-53.8418
G01 X16.7111 Y-53.9133
G01 X16.7092 Y-53.9229
G01 X16.6977 Y-54.0006
G01 X16.6937 Y-54.0840
G01 X16.6937 Y-80.8790
G00 Z2.0000
G00 X21.8321 Y-81.7810
G01 F60.00
G01 Z0.0000
G01 F250.00
G01 X21.6966 Y-81.7875
G01 X21.5635 Y-81.8108
G01 X21.4341 Y-81.8503
G01 X21.3107 Y-81.9053
G01 X21.1947 Y-81.9752
G01 X21.0881 Y-82.0585
G01 X20.9933 Y-82.1542
G01 X20.9103 Y-82.2615
G01 X20.8409 Y-82.3778
G01 X20.7870 Y-82.5016
G01 X20.7483 Y-82.6311
G01 X20.7259 Y-82.7647
G01 X20.7199 Y-82.8996
G01 X20.7311 Y-83.0347
G01 X20.7581 Y-83.1670
G01 X20.8013 Y-83.2948
G01 X20.8605 Y-83.4169
G01 X20.9336 Y-83.5306
G01 X21.0201 Y-83.6342
G01 X21.1193 Y-83.7264
G01 X21.2288 Y-83.8062
G01 X21.3470 Y-83.8717
G01 X21.4726 Y-83.9220
G01 X21.6031 Y-83.9565
G01 X21.7371 Y-83.9751
G01 X21.8725 Y-83.9765
G01 X22.0065 Y-83.9616
G01 X22.1573 Y-83.9254
G01 X22.1699 Y-83.9239
G01 X22.2120 Y-83.9217
G01 X22.2246 Y-83.9227
G01 X22.2345 Y-83.9247
G01 X22.2724 Y-83.9351
G01 X22.2817 Y-83.9385
G01 X22.2906 Y-83.9427
G01 X22.2991 Y-83.9478
G01 X22.3291 Y-83.9691
G01 X22.3366 Y-83.9750
G01 X22.3419 Y-83.9799
G01 X24.2613 Y-85.8993
G01 X24.2661 Y-85.9047
G01 X24.2719 Y-85.9125
G01 X24.2966 Y-85.9511
G01 X24.3012 Y-85.9591
G01 X24.3059 Y-85.9697
G01 X24.3319 Y-86.0389
G01 X24.3835 Y-86.1336
G01 X24.4480 Y-86.2196
G01 X24.5244 Y-86.2959
G01 X24.6104 Y-86.3605
G01 X24.7050 Y-86.4120
G01 X24.8059 Y-86.4497
G01 X24.9113 Y-86.4726
G01 X25.0191 Y-86.4802
G01 X25.1392 Y-86.4721
G01 X25.1485 Y-86.4719
G01 X25.1578 Y-86.4725
G01 X25.2028 Y-86.4789
G01 X25.2127 Y-86.4809
G01 X25.2199 Y-86.4829
G01 X25.2270 Y-86.4856
G01 X25.2338 Y-86.4887
G01 X25.2425 Y-86.4937
G01 X25.2791 Y-86.5170
G01 X25.2869 Y-86.5226
G01 X25.2960 Y-86.5306
G01 X26.8652 Y-88.0998
G01 X26.8704 Y-88.1054
G01 X26.8751 Y-88.1114
G01 X26.8988 Y-88.1455
G01 X26.9049 Y-88.1561
G01 X26.9079 Y-88.1628
G01 X26.9104 Y-88.1698
G01 X26.9211 Y-88.2124
G01 X26.9229 Y-88.2221
G01 X26.9289 Y-88.3073
G01 X26.9532 Y-88.4300
G01 X26.9937 Y-88.5488
G01 X27.0489 Y-88.6614
G01 X27.1187 Y-88.7652
G01 X27.2016 Y-88.8596
G01 X27.2960 Y-88.9425
G01 X27.3998 Y-89.0123
G01 X27.5125 Y-89.0675
G01 X27.6312 Y-89.1080
G01 X27.7544 Y-89.1324
G01 X27.8795 Y-89.1406
G01 X28.0046 Y-89.1324
G01 X28.1274 Y-89.1080
G01 X28.2461 Y-89.0675
G01 X28.3588 Y-89.0123
G01 X28.4625 Y-88.9425
G01 X28.5570 Y-88.8596
G01 X28.6399 Y-88.7652
G01 X28.7097 Y-88.6614
G01 X28.7648 Y-88.5488
G01 X28.8054 Y-88.4300
G01 X28.8297 Y-88.3073
G01 X28.8380 Y-88.1822
G01 X28.8297 Y-88.0571
G01 X28.8053 Y-87.9338
G01 X28.7648 Y-87.8151
G01 X28.7097 Y-87.7025
G01 X28.6399 Y-87.5987
G01 X28.5570 Y-87.5043
G01 X28.4625 Y-87.4213
G01 X28.3587 Y-87.3515
G01 X28.2461 Y-87.2964
G01 X28.1274 Y-87.2559
G01 X28.0046 Y-87.2315
G01 X27.9219 Y-87.2259
G01 X27.9122 Y-87.2243
G01 X27.8718 Y-87.2145
G01 X27.8648 Y-87.2123
G01 X27.8579 Y-87.2096
G01 X27.8470 Y-87.2040
G01 X27.8108 Y-87.1792
G01 X27.8028 Y-87.1730
G01 X27.7972 Y-87.1678
G01 X25.8732 Y-85.2444
G01 X25.7942 Y-85.1813
G01 X25.7267 Y-85.1403
G01 X25.7116 Y-85.1326
G01 X25.6366 Y-85.1016
G01 X25.6204 Y-85.0963
G01 X25.5413 Y-85.0767
G01 X25.5248 Y-85.0740
G01 X25.4036 Y-85.0640
G01 X25.3916 Y-85.0619
G01 X25.3800 Y-85.0585
G01 X25.3365 Y-85.0393
G01 X25.2637 Y-85.0119
G01 X25.2552 Y-85.0082
G01 X25.2470 Y-85.0038
G01 X25.2085 Y-84.9792
G01 X25.2006 Y-84.9736
G01 X25.1951 Y-84.9690
G01 X22.9327 Y-82.7066
G01 X22.9117 Y-82.6801
G01 X22.9048 Y-82.6701
G01 X22.8992 Y-82.6593
G01 X22.8881 Y-82.6326
G01 X22.8839 Y-82.6204
G01 X22.8585 Y-82.5271
G01 X22.8078 Y-82.4020
G01 X22.7413 Y-82.2838
G01 X22.6611 Y-82.1747
G01 X22.5686 Y-82.0766
G01 X22.4639 Y-81.9905
G01 X22.3498 Y-81.9179
G01 X22.2278 Y-81.8601
G01 X22.0992 Y-81.8173
G01 X21.9667 Y-81.7908
G01 X21.8321 Y-81.7810
G00 Z2.0000
G00 X22.2631 Y-83.8180
G01 F60.00
G01 Z0.0000
G01 F250.00
G01 X24.3452 Y-85.9000
G01 X24.3528 Y-85.9296
G01 X24.3742 Y-85.9894
G01 X24.3771 Y-85.9962
G01 X24.4056 Y-86.0557
G01 X24.4395 Y-86.1122
G01 X24.4773 Y-86.1632
G01 X24.4835 Y-86.1708
G01 X24.5228 Y-86.2142
G01 X24.5298 Y-86.2212
G01 X24.5769 Y-86.2637
G01 X24.6278 Y-86.3016
G01 X24.6360 Y-86.3071
G01 X24.6905 Y-86.3396
G01 X24.7478 Y-86.3669
G01 X24.7569 Y-86.3706
G01 X24.8167 Y-86.3919
G01 X24.8806 Y-86.4080
G01 X24.9458 Y-86.4179
G01 X24.9556 Y-86.4189
G01 X25.0190 Y-86.4219
G01 X25.0824 Y-86.4189
G01 X25.0922 Y-86.4179
G01 X25.1550 Y-86.4085
G01 X25.2189 Y-86.3926
G01 X25.2354 Y-86.3870
G01 X26.9816 Y-88.1331
G01 X26.9793 Y-88.1844
G01 X26.9834 Y-88.2677
G01 X26.9842 Y-88.2750
G01 X26.9961 Y-88.3551
G01 X26.9977 Y-88.3623
G01 X27.0180 Y-88.4432
G01 X27.0460 Y-88.5218
G01 X27.0488 Y-88.5286
G01 X27.0834 Y-88.6018
G01 X27.0880 Y-88.6105
G01 X27.1310 Y-88.6820
G01 X27.1806 Y-88.7490
G01 X27.1868 Y-88.7566
G01 X27.2429 Y-88.8183
G01 X27.3046 Y-88.8744
G01 X27.3103 Y-88.8792
G01 X27.3793 Y-88.9303
G01 X27.4550 Y-88.9757
G01 X27.5349 Y-89.0134
G01 X27.6180 Y-89.0432
G01 X27.7037 Y-89.0646
G01 X27.7911 Y-89.0776
G01 X27.8793 Y-89.0819
G01 X27.9675 Y-89.0776
G01 X28.0549 Y-89.0646
G01 X28.1405 Y-89.0432
G01 X28.2237 Y-89.0134
G01 X28.3035 Y-88.9757
G01 X28.3793 Y-88.9303
G01 X28.4502 Y-88.8776
G01 X28.5157 Y-88.8183
G01 X28.5718 Y-88.7566
G01 X28.5765 Y-88.7510
G01 X28.6276 Y-88.6820
G01 X28.6730 Y-88.6062
G01 X28.7108 Y-88.5264
G01 X28.7405 Y-88.4432
G01 X28.7620 Y-88.3575
G01 X28.7750 Y-88.2702
G01 X28.7793 Y-88.1819
G01 X28.7753 Y-88.0986
G01 X28.7744 Y-88.0889
G01 X28.7620 Y-88.0064
G01 X28.7418 Y-87.9254
G01 X28.7390 Y-87.9160
G01 X28.7125 Y-87.8421
G01 X28.7088 Y-87.8330
G01 X28.6730 Y-87.7577
G01 X28.6276 Y-87.6819
G01 X28.5750 Y-87.6110
G01 X28.5191 Y-87.5491
G01 X28.5139 Y-87.5438
G01 X28.4502 Y-87.4862
G01 X28.3793 Y-87.4336
G01 X28.3035 Y-87.3882
G01 X28.2282 Y-87.3524
G01 X28.2214 Y-87.3495
G01 X28.1405 Y-87.3207
G01 X28.0597 Y-87.3003
G01 X28.0525 Y-87.2988
G01 X27.9724 Y-87.2869
G01 X27.9651 Y-87.2861
G01 X27.8817 Y-87.2820
G01 X27.8305 Y-87.2842
G01 X25.8468 Y-85.3006
G01 X25.8050 Y-85.2626
G01 X25.7993 Y-85.2580
G01 X25.7558 Y-85.2259
G01 X25.7053 Y-85.1956
G01 X25.6521 Y-85.1704
G01 X25.6013 Y-85.1521
G01 X25.5919 Y-85.1493
G01 X25.5395 Y-85.1363
G01 X25.4836 Y-85.1279
G01 X25.4248 Y-85.1248
G01 X25.3717 Y-85.1247
G01 X25.3453 Y-85.1093
G01 X25.2857 Y-85.0811
G01 X25.2236 Y-85.0588
G01 X25.1940 Y-85.0512
G01 X22.8416 Y-82.6987
G01 X22.8377 Y-82.6741
G01 X22.8147 Y-82.5823
G01 X22.8118 Y-82.5729
G01 X22.7790 Y-82.4815
G01 X22.7376 Y-82.3936
G01 X22.7329 Y-82.3850
G01 X22.6829 Y-82.3017
G01 X22.6221 Y-82.2197
G01 X22.5536 Y-82.1441
G01 X22.4817 Y-82.0788
G01 X22.4761 Y-82.0741
G01 X22.3960 Y-82.0148
G01 X22.3128 Y-81.9648
G01 X22.3041 Y-81.9602
G01 X22.2163 Y-81.9187
G01 X22.1248 Y-81.8859
G01 X22.1154 Y-81.8830
G01 X22.0212 Y-81.8596
G01 X21.9203 Y-81.8446
G01 X21.8232 Y-81.8397
G01 X21.8134 Y-81.8397
G01 X21.7164 Y-81.8446
G01 X21.6155 Y-81.8596
G01 X21.5212 Y-81.8830
G01 X21.5118 Y-81.8859
G01 X21.4204 Y-81.9187
G01 X21.3304 Y-81.9612
G01 X21.3239 Y-81.9648
G01 X21.2407 Y-82.0148
G01 X21.1587 Y-82.0756
G01 X21.0831 Y-82.1441
G01 X21.0146 Y-82.2197
G01 X20.9538 Y-82.3017
G01 X20.9013 Y-82.3892
G01 X20.8577 Y-82.4815
G01 X20.8233 Y-82.5775
G01 X20.7985 Y-82.6765
G01 X20.7835 Y-82.7775
G01 X20.7785 Y-82.8794
G01 X20.7835 Y-82.9813
G01 X20.7985 Y-83.0822
G01 X20.8233 Y-83.1812
G01 X20.8577 Y-83.2773
G01 X20.9002 Y-83.3674
G01 X20.9037 Y-83.3738
G01 X20.9538 Y-83.4571
G01 X21.0146 Y-83.5390
G01 X21.0831 Y-83.6146
G01 X21.1587 Y-83.6832
G01 X21.2407 Y-83.7439
G01 X21.3282 Y-83.7964
G01 X21.4204 Y-83.8400
G01 X21.5142 Y-83.8737
G01 X21.5212 Y-83.8757
G01 X21.6155 Y-83.8992
G01 X21.7164 Y-83.9142
G01 X21.8183 Y-83.9192
G01 X21.9178 Y-83.9144
G01 X21.9251 Y-83.9136
G01 X22.0212 Y-83.8992
G01 X22.1178 Y-83.8751
G01 X22.1248 Y-83.8729
G01 X22.2140 Y-83.8409
G01 X22.2631 Y-83.8180
G00 Z2.0000
G00 X29.5910 Y-77.5275
G01 F60.00
G01 Z0.0000
G01 F250.00
G01 X29.4659 Y-77.5353
G01 X29.3431 Y-77.5602
G01 X29.2239 Y-77.6002
G01 X29.1118 Y-77.6558
G01 X29.0073 Y-77.7253
G01 X28.9131 Y-77.8081
G01 X28.8303 Y-77.9023
G01 X28.7608 Y-78.0068
G01 X28.7052 Y-78.1189
G01 X28.6652 Y-78.2381
G01 X28.6403 Y-78.3609
G01 X28.6325 Y-78.4860
G01 X28.6403 Y-78.6111
G01 X28.6652 Y-78.7339
G01 X28.7052 Y-78.8531
G01 X28.7608 Y-78.9652
G01 X28.8303 Y-79.0697
G01 X28.9131 Y-79.1639
G01 X29.0073 Y-79.2467
G01 X29.1118 Y-79.3162
G01 X29.2239 Y-79.3718
G01 X29.3431 Y-79.4118
G01 X29.4659 Y-79.4367
G01 X29.5910 Y-79.4445
G01 X29.7161 Y-79.4367
G01 X29.8389 Y-79.4118
G01 X29.9581 Y-79.3718
G01 X30.0702 Y-79.3162
G01 X30.1747 Y-79.2467
G01 X30.2689 Y-79.1639
G01 X30.3517 Y-79.0697
G01 X30.4212 Y-78.9652
G01 X30.4768 Y-78.8531
G01 X30.5168 Y-78.7339
G01 X30.5417 Y-78.6111
G01 X30.5495 Y-78.4860
G01 X30.5417 Y-78.3609
G01 X30.5168 Y-78.2381
G01 X30.4768 Y-78.1189
G01 X30.4212 Y-78.0068
G01 X30.3517 Y-77.9023
G01 X30.2689 Y-77.8081
G01 X30.1747 Y-77.7253
G01 X30.0702 Y-77.6558
G01 X29.9581 Y-77.6002
G01 X29.8389 Y-77.5602
G01 X29.7161 Y-77.5353
G01 X29.5910 Y-77.5275
G00 Z2.0000
G00 X30.4909 Y-78.4909
G01 F60.00
G01 Z0.0000
G01 F250.00
G01 X30.4909 Y-78.4811
G01 X30.4867 Y-78.3978
G01 X30.4737 Y-78.3104
G01 X30.4522 Y-78.2247
G01 X30.4225 Y-78.1416
G01 X30.3847 Y-78.0617
G01 X30.3393 Y-77.9860
G01 X30.2867 Y-77.9150
G01 X30.2274 Y-77.8496
G01 X30.1620 Y-77.7903
G01 X30.0910 Y-77.7377
G01 X30.0153 Y-77.6923
G01 X29.9354 Y-77.6545
G01 X29.8523 Y-77.6248
G01 X29.7666 Y-77.6033
G01 X29.6792 Y-77.5903
G01 X29.5910 Y-77.5860
G01 X29.5028 Y-77.5903
G01 X29.4154 Y-77.6033
G01 X29.3297 Y-77.6248
G01 X29.2466 Y-77.6545
G01 X29.1667 Y-77.6923
G01 X29.0910 Y-77.7377
G01 X29.0200 Y-77.7903
G01 X28.9546 Y-77.8496
G01 X28.8953 Y-77.9150
G01 X28.8427 Y-77.9860
G01 X28.7973 Y-78.0617
G01 X28.7595 Y-78.1416
G01 X28.7298 Y-78.2247
G01 X28.7083 Y-78.3104
G01 X28.6953 Y-78.3978
G01 X28.6910 Y-78.4860
G01 X28.6953 Y-78.5742
G01 X28.7083 Y-78.6616
G01 X28.7298 Y-78.7473
G01 X28.7595 Y-78.8304
G01 X28.7973 Y-78.9103
G01 X28.8427 Y-78.9860
G01 X28.8953 Y-79.0570
G01 X28.9546 Y-79.1224
G01 X29.0200 Y-79.1817
G01 X29.0910 Y-79.2343
G01 X29.1667 Y-79.2797
G01 X29.2466 Y-79.3175
G01 X29.3297 Y-79.3472
G01 X29.4154 Y-79.3687
G01 X29.5028 Y-79.3817
G01 X29.5910 Y-79.3860
G01 X29.6792 Y-79.3817
G01 X29.7666 Y-79.3687
G01 X29.8523 Y-79.3472
G01 X29.9354 Y-79.3175
G01 X30.0153 Y-79.2797
G01 X30.0910 Y-79.2343
G01 X30.1620 Y-79.1817
G01 X30.2274 Y-79.1224
G01 X30.2867 Y-79.0570
G01 X30.3393 Y-78.9860
G01 X30.3847 Y-78.9103
G01 X30.4225 Y-78.8304
G01 X30.4522 Y-78.7473
G01 X30.4737 Y-78.6616
G01 X30.4867 Y-78.5742
G01 X30.4909 Y-78.4909
G00 Z2.0000
G00 X32.1310 Y-77.5275
G01 F60.00
G01 Z0.0000
G01 F250.00
G01 X32.0059 Y-77.5358
G01 X31.8829 Y-77.5602
G01 X31.7639 Y-77.6002
G01 X31.6518 Y-77.6558
G01 X31.5473 Y-77.7253
G01 X31.4531 Y-77.8081
G01 X31.3703 Y-77.9023
G01 X31.3008 Y-78.0068
G01 X31.2452 Y-78.1189
G01 X31.2052 Y-78.2379
G01 X31.1808 Y-78.3609
G01 X31.1725 Y-78.4860
G01 X31.1808 Y-78.6111
G01 X31.2052 Y-78.7345
G01 X31.2452 Y-78.8530
G01 X31.3008 Y-78.9652
G01 X31.3703 Y-79.0697
G01 X31.4531 Y-79.1639
G01 X31.5473 Y-79.2467
G01 X31.6518 Y-79.3162
G01 X31.7639 Y-79.3718
G01 X31.8831 Y-79.4118
G01 X32.0059 Y-79.4367
G01 X32.1310 Y-79.4445
G01 X32.2561 Y-79.4367
G01 X32.3794 Y-79.4118
G01 X32.4980 Y-79.3718
G01 X32.6102 Y-79.3162
G01 X32.7147 Y-79.2467
G01 X32.8089 Y-79.1639
G01 X32.8917 Y-79.0697
G01 X32.9612 Y-78.9652
G01 X33.0168 Y-78.8530
G01 X33.0568 Y-78.7344
G01 X33.0817 Y-78.6111
G01 X33.0895 Y-78.4860
G01 X33.0817 Y-78.3609
G01 X33.0568 Y-78.2381
G01 X33.0168 Y-78.1189
G01 X32.9612 Y-78.0068
G01 X32.8917 Y-77.9023
G01 X32.8089 Y-77.8081
G01 X32.7147 Y-77.7253
G01 X32.6102 Y-77.6558
G01 X32.4980 Y-77.6002
G01 X32.3795 Y-77.5602
G01 X32.2561 Y-77.5358
G01 X32.1310 Y-77.5275
G00 Z2.0000
G00 X33.0309 Y-78.4909
G01 F60.00
G01 Z0.0000
G01 F250.00
G01 X33.0309 Y-78.4811
G01 X33.0267 Y-78.3978
G01 X33.0137 Y-78.3104
G01 X32.9922 Y-78.2247
G01 X32.9625 Y-78.1416
G01 X32.9247 Y-78.0617
G01 X32.8793 Y-77.9860
G01 X32.8267 Y-77.9150
G01 X32.7674 Y-77.8496
G01 X32.7020 Y-77.7903
G01 X32.6310 Y-77.7377
G01 X32.5553 Y-77.6923
G01 X32.4754 Y-77.6545
G01 X32.3923 Y-77.6248
G01 X32.3066 Y-77.6033
G01 X32.2192 Y-77.5903
G01 X32.1310 Y-77.5860
G01 X32.0428 Y-77.5903
G01 X31.9554 Y-77.6033
G01 X31.8697 Y-77.6248
G01 X31.7866 Y-77.6545
G01 X31.7067 Y-77.6923
G01 X31.6310 Y-77.7377
G01 X31.5600 Y-77.7903
G01 X31.4946 Y-77.8496
G01 X31.4353 Y-77.9150
G01 X31.3827 Y-77.9860
G01 X31.3373 Y-78.0617
G01 X31.2995 Y-78.1416
G01 X31.2698 Y-78.2247
G01 X31.2483 Y-78.3104
G01 X31.2353 Y-78.3978
G01 X31.2310 Y-78.4860
G01 X31.2353 Y-78.5742
G01 X31.2483 Y-78.6616
G01 X31.2698 Y-78.7473
G01 X31.2995 Y-78.8304
G01 X31.3373 Y-78.9103
G01 X31.3827 Y-78.9860
G01 X31.4353 Y-79.0570
G01 X31.4946 Y-79.1224
G01 X31.5600 Y-79.1817
G01 X31.6310 Y-79.2343
G01 X31.7067 Y-79.2797
G01 X31.7866 Y-79.3175
G01 X31.8697 Y-79.3472
G01 X31.9554 Y-79.3687
G01 X32.0428 Y-79.3817
G01 X32.1310 Y-79.3860
G01 X32.2192 Y-79.3817
G01 X32.3066 Y-79.3687
G01 X32.3923 Y-79.3472
G01 X32.4754 Y-79.3175
G01 X32.5553 Y-79.2797
G01 X32.6310 Y-79.2343
G01 X32.7020 Y-79.1817
G01 X32.7674 Y-79.1224
G01 X32.8267 Y-79.0570
G01 X32.8793 Y-78.9860
G01 X32.9247 Y-78.9103
G01 X32.9625 Y-78.8304
G01 X32.9922 Y-78.7473
G01 X33.0137 Y-78.6616
G01 X33.0267 Y-78.5742
G01 X33.0309 Y-78.4909
G00 Z2.0000
G00 X34.8464 Y-77.6033
G01 F60.00
G01 Z0.0000
G01 F250.00
G01 X34.7592 Y-77.5903
G01 X34.6710 Y-77.5860
G01 X34.5828 Y-77.5903
G01 X34.4954 Y-77.6033
G01 X34.4097 Y-77.6248
G01 X34.3266 Y-77.6545
G01 X34.2467 Y-77.6923
G01 X34.1710 Y-77.7377
G01 X34.1000 Y-77.7903
G01 X34.0346 Y-77.8496
G01 X33.9753 Y-77.9150
G01 X33.9227 Y-77.9860
G01 X33.8773 Y-78.0617
G01 X33.8395 Y-78.1416
G01 X33.8098 Y-78.2247
G01 X33.7883 Y-78.3104
G01 X33.7753 Y-78.3978
G01 X33.7710 Y-78.4860
G01 X33.7753 Y-78.5742
G01 X33.7883 Y-78.6616
G01 X33.8098 Y-78.7473
G01 X33.8395 Y-78.8304
G01 X33.8773 Y-78.9103
G01 X33.9227 Y-78.9860
G01 X33.9753 Y-79.0570
G01 X34.0346 Y-79.1224
G01 X34.1000 Y-79.1817
G01 X34.1710 Y-79.2343
G01 X34.2467 Y-79.2797
G01 X34.3266 Y-79.3175
G01 X34.4097 Y-79.3472
G01 X34.4954 Y-79.3687
G01 X34.5828 Y-79.3817
G01 X34.6661 Y-79.3859
G01 X34.6759 Y-79.3859
G01 X34.7592 Y-79.3817
G01 X34.8417 Y-79.3695
G01 X34.8514 Y-79.3676
G01 X34.9323 Y-79.3472
G01 X35.0154 Y-79.3175
G01 X35.0909 Y-79.2819
G01 X35.0995 Y-79.2773
G01 X35.1710 Y-79.2343
G01 X35.2381 Y-79.1847
G01 X35.2457 Y-79.1785
G01 X35.3074 Y-79.1224
G01 X35.3635 Y-79.0607
G01 X35.3697 Y-79.0531
G01 X35.4193 Y-78.9860
G01 X35.4623 Y-78.9145
G01 X35.4669 Y-78.9059
G01 X35.5025 Y-78.8304
G01 X35.5322 Y-78.7473
G01 X35.5537 Y-78.6616
G01 X35.5661 Y-78.5791
G01 X35.5670 Y-78.5693
G01 X35.5710 Y-78.4860
G01 X35.5670 Y-78.4027
G01 X35.5661 Y-78.3929
G01 X35.5537 Y-78.3106
G01 X40.1047 Y-73.7597
G01 X40.1377 Y-73.7233
G01 X40.1669 Y-73.6839
G01 X40.1921 Y-73.6418
G01 X40.2131 Y-73.5974
G01 X40.2297 Y-73.5512
G01 X40.2416 Y-73.5036
G01 X40.2488 Y-73.4550
G01 X40.2512 Y-73.4060
G01 X40.2512 Y-63.9942
G01 X40.3181 Y-63.9447
G01 X40.3257 Y-63.9385
G01 X40.3874 Y-63.8824
G01 X40.4435 Y-63.8207
G01 X40.4497 Y-63.8131
G01 X40.4993 Y-63.7460
G01 X40.5447 Y-63.6703
G01 X40.5825 Y-63.5904
G01 X40.6107 Y-63.5119
G01 X40.6136 Y-63.5025
G01 X40.6337 Y-63.4216
G01 X40.6461 Y-63.3391
G01 X40.6470 Y-63.3293
G01 X40.6510 Y-63.2460
G01 X40.6467 Y-63.1578
G01 X40.6345 Y-63.0753
G01 X40.6326 Y-63.0656
G01 X40.6122 Y-62.9847
G01 X40.5843 Y-62.9062
G01 X40.5805 Y-62.8971
G01 X40.5447 Y-62.8217
G01 X40.5007 Y-62.7480
G01 X40.4497 Y-62.6789
G01 X40.4435 Y-62.6713
G01 X40.3874 Y-62.6096
G01 X40.3238 Y-62.5519
G01 X40.3181 Y-62.5473
G01 X40.2490 Y-62.4963
G01 X40.1753 Y-62.4523
G01 X40.1242 Y-62.4280
G01 X40.1242 Y-62.0562
G01 X46.3277 Y-55.8527
G01 X46.3575 Y-55.8200
G01 X46.3637 Y-55.8125
G01 X46.3899 Y-55.7769
G01 X46.4151 Y-55.7348
G01 X46.4361 Y-55.6904
