(G-CODE GENERATED BY FLATCAM v8.994 - www.flatcam.org - Version Date: 2020/11/7)

(Name: Gerber_BoardOutlineLayer.GKO_iso_combined_cnc)
(Type: G-code from Geometry)
(Units: MM)

(Created on Tuesday, 10 June 2025 at 14:55)

(This preprocessor is the default preprocessor used by FlatCAM.)
(It is made to work with MACH3 compatible motion controllers.)

(TOOL DIAMETER: 2.0 mm)
(Feedrate_XY: 400.0 mm/min)
(Feedrate_Z: 60.0 mm/min)
(Feedrate rapids 1500.0 mm/min)

(Z_Cut: -0.5 mm)
(Z_Move: 2.0 mm)
(Z Start: None mm)
(Z End: 15.0 mm)
(X,Y End: None mm)
(Steps per circle: 64)
(Preprocessor Geometry: default)

(X range:   -2.6127 ...   97.6408  mm)
(Y range:  -97.6907 ...    2.5832  mm)

(Spindle Speed: 24000.0 RPM)
G21
G90
G94

G01 F400.00

M5
G00 Z15.0000
G00 X0.0000 Y0.0000
T1
M6    
(MSG, Change to Tool Dia = 2.0000)
M0
G00 Z15.0000

M03 S24000.0
G01 F400.00
G00 X47.0979 Y2.5533
G01 F60.00
G01 Z-0.5000
G01 F400.00
G01 X42.4936 Y2.3097
G01 X42.4693 Y2.3081
G01 X42.4328 Y2.3047
G01 X42.4084 Y2.3019
G01 X42.3841 Y2.2986
G01 X37.6349 Y1.5786
G01 X37.6107 Y1.5746
G01 X37.5744 Y1.5676
G01 X37.5504 Y1.5624
G01 X37.5266 Y1.5567
G01 X32.8707 Y0.3752
G01 X32.8470 Y0.3688
G01 X32.8115 Y0.3583
G01 X32.7882 Y0.3508
G01 X32.7650 Y0.3428
G01 X28.2472 Y-1.2890
G01 X28.2242 Y-1.2976
G01 X28.1900 Y-1.3116
G01 X28.1675 Y-1.3213
G01 X28.1452 Y-1.3316
G01 X23.8088 Y-3.3978
G01 X23.7868 Y-3.4086
G01 X23.7541 Y-3.4259
G01 X23.7327 Y-3.4378
G01 X23.7115 Y-3.4502
G01 X19.5983 Y-5.9311
G01 X19.5775 Y-5.9440
G01 X19.5466 Y-5.9644
G01 X19.5264 Y-5.9783
G01 X19.5066 Y-5.9927
G01 X15.6560 Y-8.8644
G01 X15.6366 Y-8.8793
G01 X15.6079 Y-8.9026
G01 X15.5891 Y-8.9185
G01 X15.5708 Y-8.9347
G01 X12.0199 Y-12.1697
G01 X12.0020 Y-12.1864
G01 X11.9757 Y-12.2124
G01 X11.9587 Y-12.2300
G01 X11.9420 Y-12.2480
G01 X8.7249 Y-15.8151
G01 X8.7087 Y-15.8335
G01 X8.6851 Y-15.8619
G01 X8.6699 Y-15.8811
G01 X8.6551 Y-15.9007
G01 X5.8027 Y-19.7656
G01 X5.7884 Y-19.7855
G01 X5.7677 Y-19.8161
G01 X5.7543 Y-19.8367
G01 X5.7415 Y-19.8576
G01 X3.2813 Y-23.9833
G01 X3.2690 Y-24.0045
G01 X3.2514 Y-24.0370
G01 X3.2402 Y-24.0588
G01 X3.2294 Y-24.0808
G01 X1.1850 Y-28.4275
G01 X1.1748 Y-28.4498
G01 X1.1605 Y-28.4839
G01 X1.1514 Y-28.5067
G01 X1.1429 Y-28.5297
G01 X-0.4661 Y-33.0557
G01 X-0.4740 Y-33.0789
G01 X-0.4850 Y-33.1142
G01 X-0.4917 Y-33.1378
G01 X-0.4979 Y-33.1615
G01 X-1.6561 Y-37.8233
G01 X-1.6617 Y-37.8471
G01 X-1.6691 Y-37.8834
G01 X-1.6736 Y-37.9075
G01 X-1.6774 Y-37.9317
G01 X-2.3735 Y-42.6845
G01 X-2.3768 Y-42.7088
G01 X-2.3807 Y-42.7455
G01 X-2.3827 Y-42.7700
G01 X-2.3842 Y-42.7945
G01 X-2.6116 Y-47.5926
G01 X-2.6125 Y-47.6171
G01 X-2.6127 Y-47.6540
G01 X-2.6124 Y-47.6786
G01 X-2.6114 Y-47.7031
G01 X-2.3679 Y-52.5004
G01 X-2.3664 Y-52.5248
G01 X-2.3630 Y-52.5617
G01 X-2.3603 Y-52.5860
G01 X-2.3569 Y-52.6103
G01 X-1.6449 Y-57.3608
G01 X-1.6410 Y-57.3850
G01 X-1.6340 Y-57.4213
G01 X-1.6289 Y-57.4452
G01 X-1.6232 Y-57.4691
G01 X-0.4495 Y-62.1270
G01 X-0.4432 Y-62.1507
G01 X-0.4327 Y-62.1861
G01 X-0.4252 Y-62.2095
G01 X-0.4172 Y-62.2327
G01 X1.2069 Y-66.7533
G01 X1.2155 Y-66.7762
G01 X1.2294 Y-66.8105
G01 X1.2391 Y-66.8330
G01 X1.2493 Y-66.8553
G01 X3.3083 Y-71.1951
G01 X3.3191 Y-71.2171
G01 X3.3363 Y-71.2499
G01 X3.3482 Y-71.2713
G01 X3.3605 Y-71.2925
G01 X5.8345 Y-75.4099
G01 X5.8474 Y-75.4307
G01 X5.8677 Y-75.4616
G01 X5.8816 Y-75.4818
G01 X5.8960 Y-75.5017
G01 X8.7613 Y-79.3570
G01 X8.7762 Y-79.3765
G01 X8.7994 Y-79.4053
G01 X8.8152 Y-79.4240
G01 X8.8315 Y-79.4424
G01 X12.0605 Y-82.9987
G01 X12.0772 Y-83.0166
G01 X12.1031 Y-83.0430
G01 X12.1207 Y-83.0601
G01 X12.1387 Y-83.0767
G01 X15.7003 Y-86.2998
G01 X15.7187 Y-86.3160
G01 X15.7471 Y-86.3397
G01 X15.7663 Y-86.3550
G01 X15.7858 Y-86.3698
G01 X19.6460 Y-89.2286
G01 X19.6658 Y-89.2430
G01 X19.6964 Y-89.2637
G01 X19.7170 Y-89.2771
G01 X19.7379 Y-89.2900
G01 X23.8594 Y-91.7571
G01 X23.8806 Y-91.7694
G01 X23.9130 Y-91.7871
G01 X23.9348 Y-91.7984
G01 X23.9569 Y-91.8091
G01 X28.3001 Y-93.8608
G01 X28.3224 Y-93.8710
G01 X28.3565 Y-93.8854
G01 X28.3792 Y-93.8945
G01 X28.4022 Y-93.9031
G01 X32.9255 Y-95.5197
G01 X32.9487 Y-95.5276
G01 X32.9840 Y-95.5386
G01 X33.0076 Y-95.5455
G01 X33.0313 Y-95.5517
G01 X37.6911 Y-96.7176
G01 X37.7150 Y-96.7233
G01 X37.7512 Y-96.7308
G01 X37.7753 Y-96.7353
G01 X37.7995 Y-96.7392
G01 X42.5511 Y-97.4432
G01 X42.5754 Y-97.4465
G01 X42.6122 Y-97.4505
G01 X42.6366 Y-97.4526
G01 X42.6611 Y-97.4541
G01 X47.4588 Y-97.6895
G01 X47.4833 Y-97.6904
G01 X47.5203 Y-97.6907
G01 X47.5448 Y-97.6904
G01 X47.5693 Y-97.6895
G01 X52.3670 Y-97.4541
G01 X52.3915 Y-97.4526
G01 X52.4283 Y-97.4492
G01 X52.4527 Y-97.4465
G01 X52.4770 Y-97.4432
G01 X57.2286 Y-96.7392
G01 X57.2528 Y-96.7353
G01 X57.2891 Y-96.7284
G01 X57.3131 Y-96.7233
G01 X57.3370 Y-96.7176
G01 X61.9968 Y-95.5517
G01 X62.0205 Y-95.5455
G01 X62.0560 Y-95.5350
G01 X62.0794 Y-95.5276
G01 X62.1025 Y-95.5197
G01 X66.6258 Y-93.9031
G01 X66.6488 Y-93.8945
G01 X66.6831 Y-93.8807
G01 X66.7056 Y-93.8710
G01 X66.7279 Y-93.8608
G01 X71.0712 Y-91.8091
G01 X71.0933 Y-91.7984
G01 X71.1260 Y-91.7812
G01 X71.1475 Y-91.7694
G01 X71.1687 Y-91.7571
G01 X75.2902 Y-89.2900
G01 X75.3111 Y-89.2771
G01 X75.3420 Y-89.2568
G01 X75.3622 Y-89.2430
G01 X75.3821 Y-89.2286
G01 X79.2423 Y-86.3698
G01 X79.2618 Y-86.3550
G01 X79.2906 Y-86.3318
G01 X79.3094 Y-86.3160
G01 X79.3277 Y-86.2998
G01 X82.8894 Y-83.0767
G01 X82.9074 Y-83.0601
G01 X82.9338 Y-83.0342
G01 X82.9509 Y-83.0166
G01 X82.9676 Y-82.9987
G01 X86.1966 Y-79.4424
G01 X86.2129 Y-79.4240
G01 X86.2366 Y-79.3957
G01 X86.2519 Y-79.3765
G01 X86.2668 Y-79.3570
G01 X89.1321 Y-75.5017
G01 X89.1464 Y-75.4818
G01 X89.1673 Y-75.4513
G01 X89.1807 Y-75.4307
G01 X89.1935 Y-75.4099
G01 X91.6676 Y-71.2925
G01 X91.6799 Y-71.2713
G01 X91.6977 Y-71.2389
G01 X91.7090 Y-71.2171
G01 X91.7198 Y-71.1951
G01 X93.7787 Y-66.8553
G01 X93.7890 Y-66.8330
G01 X93.8034 Y-66.7990
G01 X93.8126 Y-66.7762
G01 X93.8212 Y-66.7533
G01 X95.4453 Y-62.2327
G01 X95.4533 Y-62.2095
G01 X95.4644 Y-62.1742
G01 X95.4713 Y-62.1507
G01 X95.4775 Y-62.1270
G01 X96.6513 Y-57.4691
G01 X96.6570 Y-57.4452
G01 X96.6645 Y-57.4091
G01 X96.6691 Y-57.3850
G01 X96.6730 Y-57.3608
G01 X97.3850 Y-52.6103
G01 X97.3883 Y-52.5860
G01 X97.3923 Y-52.5493
G01 X97.3945 Y-52.5248
G01 X97.3960 Y-52.5004
G01 X97.6395 Y-47.7031
G01 X97.6404 Y-47.6786
G01 X97.6408 Y-47.6416
G01 X97.6405 Y-47.6171
G01 X97.6397 Y-47.5926
G01 X97.4123 Y-42.7945
G01 X97.4108 Y-42.7700
G01 X97.4075 Y-42.7331
G01 X97.4049 Y-42.7088
G01 X97.4016 Y-42.6845
G01 X96.7055 Y-37.9317
G01 X96.7017 Y-37.9075
G01 X96.6948 Y-37.8711
G01 X96.6898 Y-37.8471
G01 X96.6842 Y-37.8233
G01 X95.5260 Y-33.1615
G01 X95.5198 Y-33.1378
G01 X95.5094 Y-33.1023
G01 X95.5021 Y-33.0789
G01 X95.4942 Y-33.0557
G01 X93.8851 Y-28.5297
G01 X93.8766 Y-28.5067
G01 X93.8629 Y-28.4724
G01 X93.8532 Y-28.4498
G01 X93.8431 Y-28.4275
G01 X91.7986 Y-24.0808
G01 X91.7879 Y-24.0588
G01 X91.7708 Y-24.0260
G01 X91.7591 Y-24.0045
G01 X91.7468 Y-23.9833
G01 X89.2865 Y-19.8576
G01 X89.2737 Y-19.8367
G01 X89.2535 Y-19.8058
G01 X89.2397 Y-19.7855
G01 X89.2254 Y-19.7656
G01 X86.3730 Y-15.9007
G01 X86.3582 Y-15.8811
G01 X86.3351 Y-15.8523
G01 X86.3193 Y-15.8335
G01 X86.3031 Y-15.8151
G01 X83.0861 Y-12.2480
G01 X83.0694 Y-12.2300
G01 X83.0436 Y-12.2036
G01 X83.0261 Y-12.1864
G01 X83.0081 Y-12.1697
G01 X79.4573 Y-8.9347
G01 X79.4389 Y-8.9185
G01 X79.4106 Y-8.8947
G01 X79.3915 Y-8.8793
G01 X79.3720 Y-8.8644
G01 X75.5215 Y-5.9927
G01 X75.5016 Y-5.9783
G01 X75.4711 Y-5.9574
G01 X75.4506 Y-5.9440
G01 X75.4298 Y-5.9311
G01 X71.3165 Y-3.4502
G01 X71.2954 Y-3.4378
G01 X71.2630 Y-3.4200
G01 X71.2412 Y-3.4086
G01 X71.2192 Y-3.3978
G01 X66.8829 Y-1.3316
G01 X66.8606 Y-1.3213
G01 X66.8266 Y-1.3068
G01 X66.8039 Y-1.2976
G01 X66.7809 Y-1.2890
G01 X62.2630 Y0.3428
G01 X62.2399 Y0.3508
G01 X62.2046 Y0.3619
G01 X62.1811 Y0.3688
G01 X62.1574 Y0.3752
G01 X57.5015 Y1.5567
G01 X57.4777 Y1.5624
G01 X57.4415 Y1.5700
G01 X57.4174 Y1.5746
G01 X57.3932 Y1.5786
G01 X52.6440 Y2.2986
G01 X52.6197 Y2.3019
G01 X52.5829 Y2.3060
G01 X52.5585 Y2.3082
G01 X52.5340 Y2.3097
G01 X47.9418 Y2.5505
G01 X47.9170 Y2.5564
G01 X47.8930 Y2.5615
G01 X47.8689 Y2.5660
G01 X47.8323 Y2.5717
G01 X47.8080 Y2.5750
G01 X47.7836 Y2.5777
G01 X47.7591 Y2.5798
G01 X47.7222 Y2.5820
G01 X47.6977 Y2.5829
G01 X47.6731 Y2.5832
G01 X47.3550 Y2.5832
G01 X47.3304 Y2.5829
G01 X47.3059 Y2.5820
G01 X47.2690 Y2.5798
G01 X47.2445 Y2.5777
G01 X47.2201 Y2.5750
G01 X47.1958 Y2.5717
G01 X47.1592 Y2.5660
G01 X47.1351 Y2.5615
G01 X47.0979 Y2.5533
G00 Z2.0000
M05
G00 Z2.0000
G00 Z15.00


