(G-CODE GENERATED BY FLATCAM v8.994 - www.flatcam.org - Version Date: 2020/11/7)

(Name: Drill_PTH_Through.DRL_edit_cnc)
(Type: G-code from Geometry)
(Units: MM)

(Created on Sunday, 02 March 2025 at 14:31)

(This preprocessor is used with a motion controller loaded with GRBL firmware.)
(It is configured to be compatible with almost any version of GRBL firmware.)


(TOOLS DIAMETER: )
(Tool: 1 -> Dia: 0.889)
(Tool: 2 -> Dia: 0.9)
(Tool: 3 -> Dia: 0.915)
(Tool: 4 -> Dia: 0.961)
(Tool: 5 -> Dia: 1.0)

(FEEDRATE Z: )
(Tool: 1 -> Feedrate: 300.0)
(Tool: 2 -> Feedrate: 300.0)
(Tool: 3 -> Feedrate: 300.0)
(Tool: 4 -> Feedrate: 300.0)
(Tool: 5 -> Feedrate: 300.0)

(FEEDRATE RAPIDS: )
(Tool: 1 -> Feedrate Rapids: 1500)
(Tool: 2 -> Feedrate Rapids: 1500)
(Tool: 3 -> Feedrate Rapids: 1500)
(Tool: 4 -> Feedrate Rapids: 1500)
(Tool: 5 -> Feedrate Rapids: 1500)

(Z_CUT: )
(Tool: 1 -> Z_Cut: -2.0)
(Tool: 2 -> Z_Cut: -2.0)
(Tool: 3 -> Z_Cut: -2.0)
(Tool: 4 -> Z_Cut: -2.0)
(Tool: 5 -> Z_Cut: -2.0)

(Tools Offset: )
(Tool: 5 -> Offset Z: 0.0)
(Tool: 3 -> Offset Z: 0.0)
(Tool: 1 -> Offset Z: 0.0)
(Tool: 2 -> Offset Z: 0.0)
(Tool: 4 -> Offset Z: 0.0)

(Z_MOVE: )
(Tool: 1 -> Z_Move: 2)
(Tool: 2 -> Z_Move: 2)
(Tool: 3 -> Z_Move: 2)
(Tool: 4 -> Z_Move: 2)
(Tool: 5 -> Z_Move: 2)

(Z Toolchange: 15 mm)
(X,Y Toolchange: 0.0000, 0.0000 mm)
(Z Start: None mm)
(Z End: 0.5 mm)
(X,Y End: None mm)
(Steps per circle: 64)
(Steps per circle: 64)
(Preprocessor Excellon: grbl_11)

(X range:   10.9935 ...  141.0255  mm)
(Y range:    8.1995 ...  138.2315  mm)

(Spindle Speed: 24000 RPM)
G21
G90
G17
G94


G01 F300.00

M5             
G00 Z15.0000
G00 X0.0000 Y0.0000                
T1
M6
(MSG, Change to Tool Dia = 0.8890 ||| Total drills for tool T1 = 90)
M0
G00 Z15.0000

G01 F300.00
M03 S24000
G00 X89.5350 Y53.6070
G01 Z-2.0000
G01 Z0
G00 Z2.0000
G00 X89.5350 Y53.6070
G01 Z-2.0000
G01 Z0
G00 Z2.0000
G00 X86.9950 Y53.6070
G01 Z-2.0000
G01 Z0
G00 Z2.0000
G00 X89.5350 Y56.2610
G01 Z-2.0000
G01 Z0
G00 Z2.0000
G00 X89.5350 Y58.2930
G01 Z-2.0000
G01 Z0
G00 Z2.0000
G00 X86.7410 Y63.7540
G01 Z-2.0000
G01 Z0
G00 Z2.0000
G00 X86.7410 Y66.2940
G01 Z-2.0000
G01 Z0
G00 Z2.0000
G00 X86.7410 Y68.8340
G01 Z-2.0000
G01 Z0
G00 Z2.0000
G00 X86.7410 Y71.3740
G01 Z-2.0000
G01 Z0
G00 Z2.0000
G00 X86.7410 Y73.9140
G01 Z-2.0000
G01 Z0
G00 Z2.0000
G00 X86.7410 Y76.4540
G01 Z-2.0000
G01 Z0
G00 Z2.0000
G00 X86.7410 Y78.9940
G01 Z-2.0000
G01 Z0
G00 Z2.0000
G00 X86.7410 Y81.5340
G01 Z-2.0000
G01 Z0
G00 Z2.0000
G00 X94.3610 Y81.5340
G01 Z-2.0000
G01 Z0
G00 Z2.0000
G00 X94.3610 Y78.9940
G01 Z-2.0000
G01 Z0
G00 Z2.0000
G00 X94.3610 Y76.4540
G01 Z-2.0000
G01 Z0
G00 Z2.0000
G00 X94.3610 Y73.9140
G01 Z-2.0000
G01 Z0
G00 Z2.0000
G00 X94.3610 Y71.3740
G01 Z-2.0000
G01 Z0
G00 Z2.0000
G00 X94.3610 Y68.8340
G01 Z-2.0000
G01 Z0
G00 Z2.0000
G00 X94.3610 Y66.2940
G01 Z-2.0000
G01 Z0
G00 Z2.0000
G00 X94.3610 Y63.7540
G01 Z-2.0000
G01 Z0
G00 Z2.0000
G00 X112.5220 Y65.4050
G01 Z-2.0000
G01 Z0
G00 Z2.0000
G00 X112.5220 Y73.2790
G01 Z-2.0000
G01 Z0
G00 Z2.0000
G00 X112.5220 Y81.1530
G01 Z-2.0000
G01 Z0
G00 Z2.0000
G00 X122.6820 Y81.1530
G01 Z-2.0000
G01 Z0
G00 Z2.0000
G00 X122.6820 Y73.2790
G01 Z-2.0000
G01 Z0
G00 Z2.0000
G00 X122.6820 Y65.4050
G01 Z-2.0000
G01 Z0
G00 Z2.0000
G00 X135.4860 Y49.9780
G01 Z-2.0000
G01 Z0
G00 Z2.0000
G00 X134.5140 Y47.6310
G01 Z-2.0000
G01 Z0
G00 Z2.0000
G00 X139.5960 Y45.5260
G01 Z-2.0000
G01 Z0
G00 Z2.0000
G00 X140.5680 Y47.8730
G01 Z-2.0000
G01 Z0
G00 Z2.0000
G00 X135.4860 Y96.4530
G01 Z-2.0000
G01 Z0
G00 Z2.0000
G00 X134.5140 Y98.8000
G01 Z-2.0000
G01 Z0
G00 Z2.0000
G00 X139.5960 Y100.9050
G01 Z-2.0000
G01 Z0
G00 Z2.0000
G00 X140.5680 Y98.5580
G01 Z-2.0000
G01 Z0
G00 Z2.0000
G00 X101.5940 Y131.7200
G01 Z-2.0000
G01 Z0
G00 Z2.0000
G00 X99.2470 Y132.6920
G01 Z-2.0000
G01 Z0
G00 Z2.0000
G00 X101.3520 Y137.7740
G01 Z-2.0000
G01 Z0
G00 Z2.0000
G00 X103.6990 Y136.8020
G01 Z-2.0000
G01 Z0
G00 Z2.0000
G00 X83.8200 Y122.0470
G01 Z-2.0000
G01 Z0
G00 Z2.0000
G00 X75.6920 Y122.0470
G01 Z-2.0000
G01 Z0
G00 Z2.0000
G00 X67.5640 Y122.0470
G01 Z-2.0000
G01 Z0
G00 Z2.0000
G00 X67.5640 Y111.8870
G01 Z-2.0000
G01 Z0
G00 Z2.0000
G00 X67.5640 Y108.2040
G01 Z-2.0000
G01 Z0
G00 Z2.0000
G00 X75.6920 Y111.8870
G01 Z-2.0000
G01 Z0
G00 Z2.0000
G00 X83.8200 Y111.8870
G01 Z-2.0000
G01 Z0
G00 Z2.0000
G00 X80.6450 Y93.0910
G01 Z-2.0000
G01 Z0
G00 Z2.0000
G00 X78.1050 Y93.0910
G01 Z-2.0000
G01 Z0
G00 Z2.0000
G00 X75.5650 Y93.0910
G01 Z-2.0000
G01 Z0
G00 Z2.0000
G00 X73.0250 Y93.0910
G01 Z-2.0000
G01 Z0
G00 Z2.0000
G00 X70.4850 Y93.0910
G01 Z-2.0000
G01 Z0
G00 Z2.0000
G00 X57.4220 Y72.9160
G01 Z-2.0000
G01 Z0
G00 Z2.0000
G00 X53.8300 Y69.3240
G01 Z-2.0000
G01 Z0
G00 Z2.0000
G00 X43.6880 Y65.6590
G01 Z-2.0000
G01 Z0
G00 Z2.0000
G00 X39.3700 Y65.6590
G01 Z-2.0000
G01 Z0
G00 Z2.0000
G00 X39.3700 Y73.1520
G01 Z-2.0000
G01 Z0
G00 Z2.0000
G00 X39.4970 Y80.7720
G01 Z-2.0000
G01 Z0
G00 Z2.0000
G00 X29.3370 Y80.7720
G01 Z-2.0000
G01 Z0
G00 Z2.0000
G00 X29.2100 Y73.1520
G01 Z-2.0000
G01 Z0
G00 Z2.0000
G00 X29.2100 Y65.6590
G01 Z-2.0000
G01 Z0
G00 Z2.0000
G00 X16.5330 Y49.9780
G01 Z-2.0000
G01 Z0
G00 Z2.0000
G00 X17.5050 Y47.6310
G01 Z-2.0000
G01 Z0
G00 Z2.0000
G00 X12.4230 Y45.5260
G01 Z-2.0000
G01 Z0
G00 Z2.0000
G00 X11.4510 Y47.8730
G01 Z-2.0000
G01 Z0
G00 Z2.0000
G00 X16.5330 Y96.4530
G01 Z-2.0000
G01 Z0
G00 Z2.0000
G00 X17.5050 Y98.8000
G01 Z-2.0000
G01 Z0
G00 Z2.0000
G00 X12.4230 Y100.9050
G01 Z-2.0000
G01 Z0
G00 Z2.0000
G00 X11.4510 Y98.5580
G01 Z-2.0000
G01 Z0
G00 Z2.0000
G00 X50.2980 Y131.7200
G01 Z-2.0000
G01 Z0
G00 Z2.0000
G00 X52.6450 Y132.6920
G01 Z-2.0000
G01 Z0
G00 Z2.0000
G00 X50.5400 Y137.7740
G01 Z-2.0000
G01 Z0
G00 Z2.0000
G00 X48.1930 Y136.8020
G01 Z-2.0000
G01 Z0
G00 Z2.0000
G00 X65.8040 Y64.5340
G01 Z-2.0000
G01 Z0
G00 Z2.0000
G00 X62.2120 Y60.9420
G01 Z-2.0000
G01 Z0
G00 Z2.0000
G00 X69.8030 Y42.0120
G01 Z-2.0000
G01 Z0
G00 Z2.0000
G00 X72.3430 Y42.0120
G01 Z-2.0000
G01 Z0
G00 Z2.0000
G00 X74.8830 Y42.0120
G01 Z-2.0000
G01 Z0
G00 Z2.0000
G00 X76.2000 Y34.0360
G01 Z-2.0000
G01 Z0
G00 Z2.0000
G00 X68.9610 Y34.0360
G01 Z-2.0000
G01 Z0
G00 Z2.0000
G00 X68.9610 Y23.8760
G01 Z-2.0000
G01 Z0
G00 Z2.0000
G00 X76.2000 Y23.8760
G01 Z-2.0000
G01 Z0
G00 Z2.0000
G00 X83.9470 Y23.8760
G01 Z-2.0000
G01 Z0
G00 Z2.0000
G00 X83.9470 Y34.0360
G01 Z-2.0000
G01 Z0
G00 Z2.0000
G00 X99.2470 Y13.7390
G01 Z-2.0000
G01 Z0
G00 Z2.0000
G00 X101.5940 Y14.7110
G01 Z-2.0000
G01 Z0
G00 Z2.0000
G00 X103.6990 Y9.6290
G01 Z-2.0000
G01 Z0
G00 Z2.0000
G00 X101.3520 Y8.6570
G01 Z-2.0000
G01 Z0
G00 Z2.0000
G00 X52.7720 Y13.7390
G01 Z-2.0000
G01 Z0
G00 Z2.0000
G00 X50.4250 Y14.7110
G01 Z-2.0000
G01 Z0
G00 Z2.0000
G00 X48.3200 Y9.6290
G01 Z-2.0000
G01 Z0
G00 Z2.0000
G00 X50.6670 Y8.6570
G01 Z-2.0000
G01 Z0
G00 Z2.0000
M05
G00 Z0.50


