(G-CODE GENERATED BY FLATCAM v8.994 - www.flatcam.org - Version Date: 2020/11/7)

(Name: Drill_NPTH_Through.DRL_edit_1_cnc)
(Type: G-code from Geometry)
(Units: MM)

(Created on Sunday, 02 March 2025 at 14:47)

(This preprocessor is used with a motion controller loaded with GRBL firmware.)
(It is configured to be compatible with almost any version of GRBL firmware.)


(TOOLS DIAMETER: )
(Tool: 1 -> Dia: 1.0)

(FEEDRATE Z: )
(Tool: 1 -> Feedrate: 300.0)

(FEEDRATE RAPIDS: )
(Tool: 1 -> Feedrate Rapids: 1500)

(Z_CUT: )
(Tool: 1 -> Z_Cut: -2.0)

(Tools Offset: )
(Tool: 1 -> Offset Z: 0.0)

(Z_MOVE: )
(Tool: 1 -> Z_Move: 2)

(Z Toolchange: 15 mm)
(X,Y Toolchange: 0.0000, 0.0000 mm)
(Z Start: None mm)
(Z End: 0.5 mm)
(X,Y End: None mm)
(Steps per circle: 64)
(Steps per circle: 64)
(Preprocessor Excellon: grbl_11)

(X range:   17.3360 ...  134.6830  mm)
(Y range:   14.5420 ...  131.8890  mm)

(Spindle Speed: 24000 RPM)
G21
G90
G17
G94


G01 F300.00

M5             
G00 Z15.0000
G00 X0.0000 Y0.0000                
T1
M6
(MSG, Change to Tool Dia = 1.0000 ||| Total drills for tool T1 = 8)
M0
G00 Z15.0000

G01 F300.00
M03 S24000
G00 X134.1830 Y51.7950
G01 Z-2.0000
G01 Z0
G00 Z2.0000
G00 X134.1830 Y51.7950
G01 Z-2.0000
G01 Z0
G00 Z2.0000
G00 X132.3070 Y99.1630
G01 Z-2.0000
G01 Z0
G00 Z2.0000
G00 X97.4300 Y131.3890
G01 Z-2.0000
G01 Z0
G00 Z2.0000
G00 X49.9350 Y129.5130
G01 Z-2.0000
G01 Z0
G00 Z2.0000
G00 X17.8360 Y94.6360
G01 Z-2.0000
G01 Z0
G00 Z2.0000
G00 X19.7120 Y47.2680
G01 Z-2.0000
G01 Z0
G00 Z2.0000
G00 X54.5890 Y15.0420
G01 Z-2.0000
G01 Z0
G00 Z2.0000
G00 X101.9570 Y16.9180
G01 Z-2.0000
G01 Z0
G00 Z2.0000
M05
G00 Z0.50


