(G-CODE GENERATED BY FLATCAM v8.994 - www.flatcam.org - Version Date: 2020/11/7)

(Name: Drill_NPTH_Through.DRL_edit_2_cnc)
(Type: G-code from Geometry)
(Units: MM)

(Created on Sunday, 02 March 2025 at 15:37)

(This preprocessor is used with a motion controller loaded with GRBL firmware.)
(It is configured to be compatible with almost any version of GRBL firmware.)


(TOOLS DIAMETER: )
(Tool: 1 -> Dia: 2.501)

(FEEDRATE Z: )
(Tool: 1 -> Feedrate: 200.0)

(FEEDRATE RAPIDS: )
(Tool: 1 -> Feedrate Rapids: 1500)

(Z_CUT: )
(Tool: 1 -> Z_Cut: -2.5)

(Tools Offset: )
(Tool: 1 -> Offset Z: 0.0)

(Z_MOVE: )
(Tool: 1 -> Z_Move: 2)

(Z Toolchange: 15 mm)
(X,Y Toolchange: 0.0000, 0.0000 mm)
(Z Start: None mm)
(Z End: 0.5 mm)
(X,Y End: None mm)
(Steps per circle: 64)
(Steps per circle: 64)
(Preprocessor Excellon: grbl_11)

(X range:   12.5005 ...  139.5185  mm)
(Y range:    9.7065 ...  136.7245  mm)

(Spindle Speed: 18000 RPM)
G21
G90
G17
G94


G01 F200.00

M5             
G00 Z15.0000
G00 X0.0000 Y0.0000                
T1
M6
(MSG, Change to Tool Dia = 2.5010 ||| Total drills for tool T1 = 16)
M0
G00 Z15.0000

G01 F200.00
M03 S18000
G00 X136.8140 Y45.9970
G01 Z-2.5000
G01 Z0
G00 Z2.0000
G00 X136.8140 Y45.9970
G01 Z-2.5000
G01 Z0
G00 Z2.0000
G00 X138.2680 Y49.5070
G01 Z-2.5000
G01 Z0
G00 Z2.0000
G00 X138.2680 Y96.9240
G01 Z-2.5000
G01 Z0
G00 Z2.0000
G00 X136.8140 Y100.4340
G01 Z-2.5000
G01 Z0
G00 Z2.0000
G00 X103.2280 Y134.0200
G01 Z-2.5000
G01 Z0
G00 Z2.0000
G00 X99.7180 Y135.4740
G01 Z-2.5000
G01 Z0
G00 Z2.0000
G00 X52.1740 Y135.4740
G01 Z-2.5000
G01 Z0
G00 Z2.0000
G00 X48.6640 Y134.0200
G01 Z-2.5000
G01 Z0
G00 Z2.0000
G00 X15.2050 Y100.4340
G01 Z-2.5000
G01 Z0
G00 Z2.0000
G00 X13.7510 Y96.9240
G01 Z-2.5000
G01 Z0
G00 Z2.0000
G00 X13.7510 Y49.5070
G01 Z-2.5000
G01 Z0
G00 Z2.0000
G00 X15.2050 Y45.9970
G01 Z-2.5000
G01 Z0
G00 Z2.0000
G00 X48.7910 Y12.4110
G01 Z-2.5000
G01 Z0
G00 Z2.0000
G00 X52.3010 Y10.9570
G01 Z-2.5000
G01 Z0
G00 Z2.0000
G00 X99.7180 Y10.9570
G01 Z-2.5000
G01 Z0
G00 Z2.0000
G00 X103.2280 Y12.4110
G01 Z-2.5000
G01 Z0
G00 Z2.0000
M05
G00 Z0.50


