(G-CODE GENERATED BY FLATCAM v8.994 - www.flatcam.org - Version Date: 2020/11/7)

(Name: Drill_PTH_Through.DRL_edit_1_cnc)
(Type: G-code from Geometry)
(Units: MM)

(Created on Sunday, 02 March 2025 at 14:48)

(This preprocessor is used with a motion controller loaded with GRBL firmware.)
(It is configured to be compatible with almost any version of GRBL firmware.)


(TOOLS DIAMETER: )
(Tool: 1 -> Dia: 2.0)

(FEEDRATE Z: )
(Tool: 1 -> Feedrate: 200.0)

(FEEDRATE RAPIDS: )
(Tool: 1 -> Feedrate Rapids: 1500)

(Z_CUT: )
(Tool: 1 -> Z_Cut: -1.7)

(Tools Offset: )
(Tool: 1 -> Offset Z: 0.0)

(Z_MOVE: )
(Tool: 1 -> Z_Move: 2)

(Z Toolchange: 15 mm)
(X,Y Toolchange: 0.0000, 0.0000 mm)
(Z Start: None mm)
(Z End: 0.5 mm)
(X,Y End: None mm)
(Steps per circle: 64)
(Steps per circle: 64)
(Preprocessor Excellon: grbl_11)

(X range:   45.4360 ...   78.3430  mm)
(Y range:   45.3550 ...   81.4370  mm)

(Spindle Speed: 18000 RPM)
G21
G90
G17
G94


G01 F200.00

M5             
G00 Z15.0000
G00 X0.0000 Y0.0000                
T1
M6
(MSG, Change to Tool Dia = 2.0000 ||| Total drills for tool T1 = 7)
M0
G00 Z15.0000

G01 F200.00
M03 S18000
G00 X69.5500 Y53.9290
G01 Z-1.7000
G01 Z0
G00 Z2.0000
G00 X69.5500 Y53.9290
G01 Z-1.7000
G01 Z0
G00 Z2.0000
G00 X72.9440 Y57.3230
G01 Z-1.7000
G01 Z0
G00 Z2.0000
G00 X72.3430 Y46.3550
G01 Z-1.7000
G01 Z0
G00 Z2.0000
G00 X67.3430 Y46.3550
G01 Z-1.7000
G01 Z0
G00 Z2.0000
G00 X77.3430 Y46.3550
G01 Z-1.7000
G01 Z0
G00 Z2.0000
G00 X46.4360 Y77.0430
G01 Z-1.7000
G01 Z0
G00 Z2.0000
G00 X49.8300 Y80.4370
G01 Z-1.7000
G01 Z0
G00 Z2.0000
M05
G00 Z0.50


