(G-CODE GENERATED BY FLATCAM v8.994 - www.flatcam.org - Version Date: 2020/11/7)

(Name: Drill_NPTH_Through.DRL_edit_cnc)
(Type: G-code from Geometry)
(Units: MM)

(Created on Sunday, 02 March 2025 at 14:46)

(This preprocessor is used with a motion controller loaded with GRBL firmware.)
(It is configured to be compatible with almost any version of GRBL firmware.)


(TOOLS DIAMETER: )
(Tool: 1 -> Dia: 3.0)

(FEEDRATE Z: )
(Tool: 1 -> Feedrate: 150.0)

(FEEDRATE RAPIDS: )
(Tool: 1 -> Feedrate Rapids: 1500)

(Z_CUT: )
(Tool: 1 -> Z_Cut: -2.0)

(Tools Offset: )
(Tool: 1 -> Offset Z: 0.0)

(Z_MOVE: )
(Tool: 1 -> Z_Move: 2.0)

(Z Toolchange: 15 mm)
(X,Y Toolchange: 0.0000, 0.0000 mm)
(Z Start: None mm)
(Z End: 0.5 mm)
(X,Y End: None mm)
(Steps per circle: 64)
(Steps per circle: 64)
(Preprocessor Excellon: grbl_11)

(X range:   14.5120 ...  137.5120  mm)
(Y range:   11.7130 ...   94.7120  mm)

(Spindle Speed: 18000 RPM)
G21
G90
G17
G94


G01 F150.00

M5             
G00 Z15.0000
G00 X0.0000 Y0.0000                
T1
M6
(MSG, Change to Tool Dia = 3.0000 ||| Total drills for tool T1 = 7)
M0
G00 Z15.0000

G01 F150.00
M03 S18000
G00 X96.0120 Y53.2130
G01 Z-2.0000
G01 Z0
G00 Z2.0000
G00 X96.0120 Y53.2130
G01 Z-2.0000
G01 Z0
G00 Z2.0000
G00 X96.0120 Y93.2120
G01 Z-2.0000
G01 Z0
G00 Z2.0000
G00 X56.0120 Y93.2120
G01 Z-2.0000
G01 Z0
G00 Z2.0000
G00 X56.0120 Y53.2130
G01 Z-2.0000
G01 Z0
G00 Z2.0000
G00 X16.0120 Y73.2130
G01 Z-2.0000
G01 Z0
G00 Z2.0000
G00 X76.0120 Y13.2130
G01 Z-2.0000
G01 Z0
G00 Z2.0000
G00 X136.0120 Y73.2130
G01 Z-2.0000
G01 Z0
G00 Z2.0000
M05
G00 Z0.50


