(G-CODE GENERATED BY FLATCAM v8.994 - www.flatcam.org - Version Date: 2020/11/7)

(Name: Gerber_TopLayer.GTL_iso_combined_1_cnc)
(Type: G-code from Geometry)
(Units: MM)

(Created on Sunday, 02 March 2025 at 15:42)

(This preprocessor is the default preprocessor used by FlatCAM.)
(It is made to work with MACH3 compatible motion controllers.)

(TOOL DIAMETER: 2.0 mm)
(Feedrate_XY: 200.0 mm/min)
(Feedrate_Z: 60.0 mm/min)
(Feedrate rapids 1500.0 mm/min)

(Z_Cut: -0.5 mm)
(Z_Move: 2.0 mm)
(Z Start: None mm)
(Z End: 15.0 mm)
(X,Y End: None mm)
(Steps per circle: 64)
(Preprocessor Geometry: default)

(X range:    0.2660 ...  151.7474  mm)
(Y range:   -0.7755 ...  145.5783  mm)

(Spindle Speed: 24000.0 RPM)
G21
G90
G94

G01 F200.00

M5
G00 Z15.0000
G00 X0.0000 Y0.0000
T1
M6    
(MSG, Change to Tool Dia = 2.0000)
M0
G00 Z15.0000

M03 S24000.0
G01 F200.00
G00 X45.9185 Y90.2124
G01 F60.00
G01 Z-0.5000
G01 F200.00
G01 X45.8677 Y90.2574
G01 X17.7241 Y118.4010
G01 X17.7050 Y118.4196
G01 X17.6855 Y118.4377
G01 X17.6654 Y118.4552
G01 X17.5694 Y118.5370
G01 X17.5511 Y118.5522
G01 X17.5324 Y118.5670
G01 X17.5134 Y118.5813
G01 X17.4941 Y118.5952
G01 X17.4744 Y118.6086
G01 X17.4545 Y118.6215
G01 X17.3446 Y118.6905
G01 X17.3239 Y118.7025
G01 X17.3028 Y118.7141
G01 X17.2815 Y118.7252
G01 X17.2599 Y118.7357
G01 X17.1411 Y118.7889
G01 X17.1186 Y118.7986
G01 X17.0959 Y118.8077
G01 X17.0729 Y118.8163
G01 X17.0498 Y118.8243
G01 X17.0264 Y118.8317
G01 X17.0029 Y118.8386
G01 X16.8780 Y118.8731
G01 X16.8551 Y118.8786
G01 X16.8321 Y118.8836
G01 X16.8089 Y118.8881
G01 X16.7857 Y118.8919
G01 X16.7623 Y118.8953
G01 X16.6345 Y118.9117
G01 X16.6113 Y118.9140
G01 X16.5881 Y118.9156
G01 X16.5648 Y118.9168
G01 X16.5416 Y118.9174
G01 X16.5183 Y118.9174
G01 X16.4121 Y118.9164
G01 X16.3872 Y118.9159
G01 X16.3623 Y118.9147
G01 X16.3375 Y118.9129
G01 X16.3127 Y118.9105
G01 X16.2880 Y118.9075
G01 X16.2634 Y118.9039
G01 X16.1360 Y118.8832
G01 X16.1133 Y118.8787
G01 X16.0908 Y118.8738
G01 X16.0684 Y118.8683
G01 X16.0461 Y118.8623
G01 X15.9229 Y118.8248
G01 X15.8995 Y118.8173
G01 X15.8764 Y118.8093
G01 X15.8534 Y118.8007
G01 X15.8307 Y118.7915
G01 X15.8082 Y118.7818
G01 X15.7859 Y118.7716
G01 X15.6686 Y118.7154
G01 X15.6476 Y118.7044
G01 X15.6269 Y118.6930
G01 X15.6064 Y118.6811
G01 X15.5862 Y118.6687
G01 X15.5663 Y118.6558
G01 X15.4589 Y118.5841
G01 X15.4398 Y118.5704
G01 X15.4210 Y118.5562
G01 X15.4025 Y118.5416
G01 X15.3844 Y118.5266
G01 X15.3666 Y118.5111
G01 X15.2703 Y118.4249
G01 X15.2536 Y118.4089
G01 X15.2373 Y118.3926
G01 X15.2213 Y118.3759
G01 X15.2058 Y118.3588
G01 X15.1190 Y118.2570
G01 X15.1028 Y118.2375
G01 X15.0871 Y118.2175
G01 X15.0719 Y118.1972
G01 X14.3529 Y117.2067
G01 X13.6523 Y116.2084
G01 X12.9592 Y115.1855
G01 X12.2830 Y114.1511
G01 X11.6237 Y113.1065
G01 X10.9730 Y112.0368
G01 X10.3489 Y110.9710
G01 X9.7494 Y109.9093
G01 X9.1594 Y108.8237
G01 X8.5876 Y107.7277
G01 X8.0266 Y106.6094
G01 X7.4908 Y105.4963
G01 X6.9797 Y104.3888
G01 X6.4803 Y103.2590
G01 X5.9997 Y102.1204
G01 X5.5374 Y100.9749
G01 X5.0940 Y99.8216
G01 X4.6637 Y98.6461
G01 X4.2581 Y97.4786
G01 X3.8722 Y96.3051
G01 X3.5053 Y95.1257
G01 X3.1575 Y93.9404
G01 X2.8329 Y92.7649
G01 X2.5238 Y91.5687
G01 X2.2307 Y90.3516
G01 X1.9604 Y89.1453
G01 X1.7110 Y87.9360
G01 X1.4834 Y86.7382
G01 X1.2727 Y85.5205
G01 X1.0816 Y84.3002
G01 X0.9110 Y83.0760
G01 X0.7582 Y81.8339
G01 X0.6276 Y80.6051
G01 X0.5170 Y79.3747
G01 X0.4266 Y78.1423
G01 X0.3562 Y76.9089
G01 X0.3064 Y75.6907
G01 X0.2756 Y74.4391
G01 X0.2660 Y73.2036
G01 X0.2761 Y71.9844
G01 X0.3058 Y70.7499
G01 X0.3570 Y69.4988
G01 X0.4276 Y68.2654
G01 X0.5170 Y67.0492
G01 X0.6292 Y65.8026
G01 X0.7582 Y64.5900
G01 X0.9089 Y63.3637
G01 X1.0820 Y62.1241
G01 X1.2727 Y60.9030
G01 X1.4810 Y59.7016
G01 X1.7109 Y58.4882
G01 X1.9644 Y57.2624
G01 X2.2344 Y56.0565
G01 X2.5204 Y54.8708
G01 X2.8291 Y53.6751
G01 X3.1623 Y52.4684
G01 X3.5101 Y51.2822
G01 X3.8777 Y50.1031
G01 X4.2643 Y48.9298
G01 X4.6697 Y47.7624
G01 X5.0888 Y46.6173
G01 X5.5319 Y45.4643
G01 X6.0003 Y44.3032
G01 X6.4748 Y43.1800
G01 X6.9741 Y42.0499
G01 X7.4982 Y40.9135
G01 X8.0270 Y39.8147
G01 X8.5809 Y38.7103
G01 X9.1526 Y37.6148
G01 X9.7419 Y36.5291
G01 X10.3494 Y35.4529
G01 X10.9743 Y34.3871
G01 X11.6159 Y33.3316
G01 X12.2754 Y32.2862
G01 X12.9512 Y31.2525
G01 X13.6440 Y30.2295
G01 X14.3539 Y29.2177
G01 X15.0718 Y28.2284
G01 X15.0889 Y28.2055
G01 X15.1066 Y28.1832
G01 X15.1250 Y28.1613
G01 X15.2068 Y28.0668
G01 X15.2230 Y28.0486
G01 X15.2397 Y28.0307
G01 X15.2567 Y28.0132
G01 X15.2742 Y27.9962
G01 X15.2922 Y27.9796
G01 X15.3907 Y27.8943
G01 X15.4091 Y27.8789
G01 X15.4279 Y27.8639
G01 X15.4470 Y27.8493
G01 X15.4664 Y27.8353
G01 X15.4862 Y27.8217
G01 X15.5063 Y27.8085
G01 X15.6161 Y27.7390
G01 X15.6367 Y27.7269
G01 X15.6576 Y27.7153
G01 X15.6788 Y27.7042
G01 X15.7003 Y27.6936
G01 X15.8190 Y27.6398
G01 X15.8412 Y27.6301
G01 X15.8637 Y27.6210
G01 X15.8863 Y27.6124
G01 X15.9092 Y27.6043
G01 X15.9322 Y27.5969
G01 X15.9555 Y27.5899
G01 X16.0801 Y27.5547
G01 X16.1033 Y27.5490
G01 X16.1266 Y27.5438
G01 X16.1500 Y27.5392
G01 X16.1735 Y27.5352
G01 X16.3023 Y27.5175
G01 X16.3253 Y27.5146
G01 X16.3484 Y27.5123
G01 X16.3716 Y27.5105
G01 X16.3948 Y27.5093
G01 X16.4179 Y27.5086
G01 X16.4412 Y27.5085
G01 X16.5709 Y27.5094
G01 X16.5950 Y27.5104
G01 X16.6190 Y27.5119
G01 X16.6430 Y27.5141
G01 X16.6669 Y27.5168
G01 X16.7954 Y27.5358
G01 X16.8195 Y27.5398
G01 X16.8436 Y27.5443
G01 X16.8675 Y27.5494
G01 X16.8913 Y27.5551
G01 X16.9149 Y27.5614
G01 X16.9384 Y27.5682
G01 X17.0622 Y27.6062
G01 X17.0842 Y27.6138
G01 X17.1060 Y27.6219
G01 X17.1277 Y27.6305
G01 X17.1491 Y27.6396
G01 X17.2664 Y27.6939
G01 X17.2880 Y27.7043
G01 X17.3095 Y27.7152
G01 X17.3306 Y27.7266
G01 X17.3515 Y27.7386
G01 X17.3720 Y27.7510
G01 X17.3923 Y27.7639
G01 X17.4807 Y27.8218
G01 X17.5030 Y27.8369
G01 X17.5249 Y27.8525
G01 X17.5463 Y27.8688
G01 X17.5673 Y27.8856
G01 X17.5879 Y27.9029
G01 X17.6722 Y27.9761
G01 X17.6899 Y27.9917
G01 X17.7072 Y28.0079
G01 X17.7241 Y28.0244
G01 X45.8669 Y56.1676
G01 X45.9192 Y56.2138
G01 X45.9463 Y56.2319
G01 X45.9750 Y56.2459
G01 X46.0089 Y56.2576
G01 X46.0404 Y56.2638
G01 X46.0746 Y56.2660
G01 X46.1087 Y56.2638
G01 X46.1407 Y56.2575
G01 X46.1734 Y56.2463
G01 X46.2036 Y56.2315
G01 X46.2290 Y56.2146
G01 X46.2823 Y56.1676
G01 X58.9620 Y43.4874
G01 X59.0079 Y43.4356
G01 X59.0258 Y43.4089
G01 X59.0402 Y43.3799
G01 X59.0517 Y43.3460
G01 X59.0578 Y43.3153
G01 X59.0600 Y43.2808
G01 X59.0578 Y43.2464
G01 X59.0516 Y43.2149
G01 X59.0404 Y43.1822
G01 X59.0258 Y43.1528
G01 X59.0065 Y43.1240
G01 X58.9620 Y43.0737
G01 X30.8184 Y14.9301
G01 X30.8004 Y14.9117
G01 X30.7829 Y14.8928
G01 X30.7659 Y14.8735
G01 X30.6841 Y14.7780
G01 X30.6683 Y14.7590
G01 X30.6530 Y14.7397
G01 X30.6381 Y14.7200
G01 X30.6237 Y14.6999
G01 X30.6098 Y14.6795
G01 X30.5965 Y14.6588
G01 X30.5278 Y14.5487
G01 X30.5160 Y14.5283
G01 X30.5047 Y14.5077
G01 X30.4938 Y14.4867
G01 X30.4835 Y14.4656
G01 X30.4305 Y14.3471
G01 X30.4209 Y14.3248
G01 X30.4118 Y14.3023
G01 X30.4033 Y14.2795
G01 X30.3954 Y14.2566
G01 X30.3880 Y14.2335
G01 X30.3811 Y14.2102
G01 X30.3465 Y14.0855
G01 X30.3409 Y14.0623
G01 X30.3359 Y14.0389
G01 X30.3314 Y14.0154
G01 X30.3274 Y13.9919
G01 X30.3103 Y13.8631
G01 X30.3076 Y13.8400
G01 X30.3054 Y13.8169
G01 X30.3037 Y13.7938
G01 X30.3026 Y13.7706
G01 X30.3020 Y13.7475
G01 X30.3030 Y13.6181
G01 X30.3035 Y13.5932
G01 X30.3047 Y13.5683
G01 X30.3065 Y13.5435
G01 X30.3089 Y13.5187
G01 X30.3119 Y13.4940
G01 X30.3156 Y13.4694
G01 X30.3362 Y13.3420
G01 X30.3407 Y13.3193
G01 X30.3456 Y13.2968
G01 X30.3511 Y13.2744
G01 X30.3571 Y13.2521
G01 X30.3946 Y13.1289
G01 X30.4022 Y13.1052
G01 X30.4103 Y13.0817
G01 X30.4191 Y13.0585
G01 X30.4284 Y13.0354
G01 X30.4383 Y13.0126
G01 X30.4487 Y12.9901
G01 X30.5046 Y12.8740
G01 X30.5152 Y12.8537
G01 X30.5263 Y12.8336
G01 X30.5378 Y12.8138
G01 X30.5498 Y12.7942
G01 X30.6206 Y12.6866
G01 X30.6340 Y12.6667
G01 X30.6480 Y12.6472
G01 X30.6624 Y12.6281
G01 X30.6772 Y12.6092
G01 X30.6925 Y12.5908
G01 X30.7083 Y12.5727
G01 X30.7945 Y12.4764
G01 X30.8104 Y12.4596
G01 X30.8268 Y12.4433
G01 X30.8435 Y12.4273
G01 X30.8606 Y12.4118
G01 X30.8780 Y12.3966
G01 X30.9624 Y12.3250
G01 X30.9819 Y12.3088
G01 X31.0018 Y12.2932
G01 X31.0221 Y12.2780
G01 X31.9857 Y11.5780
G01 X32.9828 Y10.8778
G01 X33.9915 Y10.1938
G01 X35.0105 Y9.5262
G01 X36.0406 Y8.8748
G01 X37.0804 Y8.2405
G01 X38.1304 Y7.6227
G01 X39.1910 Y7.0217
G01 X40.2602 Y6.4383
G01 X41.3531 Y5.8648
G01 X42.4412 Y5.3154
G01 X43.5379 Y4.7842
G01 X44.6426 Y4.2712
G01 X45.7409 Y3.7820
G01 X46.8615 Y3.3041
G01 X48.0047 Y2.8384
G01 X49.1406 Y2.3967
G01 X50.2684 Y1.9792
G01 X51.4173 Y1.5744
G01 X52.5730 Y1.1882
G01 X53.7348 Y0.8205
G01 X54.9173 Y0.4674
G01 X56.0906 Y0.1375
G01 X57.2682 Y-0.1732
G01 X58.4356 Y-0.4618
G01 X59.6112 Y-0.7323
G01 X59.6532 Y-0.7410
G01 X59.6957 Y-0.7479
G01 X59.8145 Y-0.7647
G01 X59.8369 Y-0.7675
G01 X59.8592 Y-0.7699
G01 X59.8817 Y-0.7718
G01 X59.9041 Y-0.7732
G01 X59.9266 Y-0.7741
G01 X59.9491 Y-0.7744
G01 X60.0507 Y-0.7749
G01 X60.0740 Y-0.7748
G01 X60.0974 Y-0.7741
G01 X60.1206 Y-0.7729
G01 X60.1439 Y-0.7711
G01 X60.1671 Y-0.7687
G01 X60.1902 Y-0.7659
G01 X60.3141 Y-0.7488
G01 X60.3367 Y-0.7449
G01 X60.3593 Y-0.7405
G01 X60.3817 Y-0.7356
G01 X60.4041 Y-0.7302
G01 X60.5243 Y-0.6968
G01 X60.5466 Y-0.6903
G01 X60.5687 Y-0.6833
G01 X60.5907 Y-0.6757
G01 X60.6125 Y-0.6677
G01 X60.6341 Y-0.6591
G01 X60.7484 Y-0.6094
G01 X60.7729 Y-0.5984
G01 X60.7970 Y-0.5866
G01 X60.8208 Y-0.5742
G01 X60.8443 Y-0.5612
G01 X60.8675 Y-0.5476
G01 X60.9741 Y-0.4824
G01 X60.9936 Y-0.4696
G01 X61.0128 Y-0.4563
G01 X61.0317 Y-0.4426
G01 X61.0503 Y-0.4284
G01 X61.1473 Y-0.3493
G01 X61.1649 Y-0.3346
G01 X61.1821 Y-0.3194
G01 X61.1990 Y-0.3039
G01 X61.2155 Y-0.2879
G01 X61.2317 Y-0.2716
G01 X61.2475 Y-0.2550
G01 X61.3316 Y-0.1636
G01 X61.3464 Y-0.1466
G01 X61.3607 Y-0.1292
G01 X61.3746 Y-0.1116
G01 X61.3882 Y-0.0936
G01 X61.4597 Y0.0080
G01 X61.4730 Y0.0274
G01 X61.4858 Y0.0472
G01 X61.4982 Y0.0672
G01 X61.5101 Y0.0875
G01 X61.5215 Y0.1081
G01 X61.5324 Y0.1290
G01 X61.5786 Y0.2199
G01 X61.5905 Y0.2441
G01 X61.6017 Y0.2685
G01 X61.6122 Y0.2932
G01 X61.6221 Y0.3182
G01 X61.6313 Y0.3435
G01 X61.6722 Y0.4615
G01 X61.6791 Y0.4837
G01 X61.6855 Y0.5060
G01 X61.6914 Y0.5285
G01 X61.6967 Y0.5512
G01 X61.7213 Y0.6735
G01 X61.7260 Y0.6990
G01 X61.7301 Y0.7247
G01 X61.7335 Y0.7504
G01 X61.7363 Y0.7763
G01 X61.7383 Y0.8022
G01 X61.7454 Y0.9089
G01 X61.7474 Y0.9532
G01 X61.7476 Y6.7057
G01 X61.7563 Y6.9142
G01 X61.7777 Y7.0895
G01 X61.8130 Y7.2635
G01 X61.8614 Y7.4336
G01 X61.9235 Y7.5993
G01 X61.9985 Y7.7605
G01 X62.0859 Y7.9153
G01 X62.1848 Y8.0624
G01 X62.2945 Y8.2004
G01 X62.4154 Y8.3302
G01 X62.5469 Y8.4506
G01 X62.6862 Y8.5601
G01 X62.8334 Y8.6575
G01 X62.9890 Y8.7439
G01 X63.1504 Y8.8176
G01 X63.3171 Y8.8786
G01 X63.4868 Y8.9258
G01 X63.6607 Y8.9595
G01 X63.8390 Y8.9798
G01 X64.0281 Y8.9873
G01 X87.9841 Y8.9873
G01 X88.1927 Y8.9786
G01 X88.3679 Y8.9572
G01 X88.5411 Y8.9221
G01 X88.7120 Y8.8731
G01 X88.8787 Y8.8110
G01 X89.0389 Y8.7365
G01 X89.1937 Y8.6490
G01 X89.3408 Y8.5501
G01 X89.4789 Y8.4405
G01 X89.6087 Y8.3195
G01 X89.7291 Y8.1881
G01 X89.8386 Y8.0487
G01 X89.9360 Y7.9015
G01 X90.0224 Y7.7460
G01 X90.0957 Y7.5854
G01 X90.1563 Y7.4187
G01 X90.2040 Y7.2472
G01 X90.2381 Y7.0733
G01 X90.2583 Y6.8959
G01 X90.2658 Y6.7068
G01 X90.2658 Y0.9754
G01 X90.2661 Y0.9501
G01 X90.2670 Y0.9249
G01 X90.2686 Y0.8997
G01 X90.2798 Y0.7560
G01 X90.2824 Y0.7327
G01 X90.2855 Y0.7096
G01 X90.2892 Y0.6865
G01 X90.2934 Y0.6635
G01 X90.3200 Y0.5410
G01 X90.3251 Y0.5190
G01 X90.3307 Y0.4971
G01 X90.3368 Y0.4753
G01 X90.3433 Y0.4537
G01 X90.3504 Y0.4322
G01 X90.3580 Y0.4108
G01 X90.4012 Y0.2937
G01 X90.4100 Y0.2723
G01 X90.4192 Y0.2511
G01 X90.4289 Y0.2301
G01 X90.4390 Y0.2093
G01 X90.4975 Y0.0994
G01 X90.5086 Y0.0791
G01 X90.5202 Y0.0591
G01 X90.5323 Y0.0393
G01 X90.5448 Y0.0198
G01 X90.5578 Y0.0006
G01 X90.5712 Y-0.0182
G01 X90.6449 Y-0.1190
G01 X90.6591 Y-0.1372
G01 X90.6738 Y-0.1550
G01 X90.6888 Y-0.1725
G01 X90.7042 Y-0.1896
G01 X90.7907 Y-0.2795
G01 X90.8096 Y-0.2986
G01 X90.8290 Y-0.3172
G01 X90.8490 Y-0.3353
G01 X90.8694 Y-0.3528
G01 X90.8903 Y-0.3697
G01 X90.9885 Y-0.4470
G01 X91.0073 Y-0.4608
G01 X91.0265 Y-0.4742
G01 X91.0459 Y-0.4871
G01 X91.0657 Y-0.4996
G01 X91.1736 Y-0.5629
G01 X91.1969 Y-0.5761
G01 X91.2206 Y-0.5887
G01 X91.2446 Y-0.6006
G01 X91.2689 Y-0.6119
G01 X91.2935 Y-0.6225
G01 X91.4095 Y-0.6705
G01 X91.4317 Y-0.6788
G01 X91.4540 Y-0.6866
G01 X91.4766 Y-0.6938
G01 X91.4993 Y-0.7006
G01 X91.6207 Y-0.7321
G01 X91.6429 Y-0.7376
G01 X91.6652 Y-0.7425
G01 X91.6876 Y-0.7470
G01 X91.7101 Y-0.7509
G01 X91.7327 Y-0.7543
G01 X91.8565 Y-0.7688
G01 X91.8789 Y-0.7712
G01 X91.9013 Y-0.7730
G01 X91.9238 Y-0.7743
G01 X91.9463 Y-0.7752
G01 X91.9688 Y-0.7755
G01 X91.9913 Y-0.7753
G01 X92.0929 Y-0.7732
G01 X92.1187 Y-0.7724
G01 X92.1444 Y-0.7709
G01 X92.1700 Y-0.7687
G01 X92.1956 Y-0.7659
G01 X92.2211 Y-0.7624
G01 X92.3262 Y-0.7467
G01 X92.3517 Y-0.7425
G01 X92.3771 Y-0.7377
G01 X92.4024 Y-0.7322
G01 X93.5790 Y-0.4614
G01 X94.7463 Y-0.1733
G01 X95.9247 Y0.1381
G01 X97.0972 Y0.4679
G01 X98.2645 Y0.8162
G01 X99.4420 Y1.1887
G01 X100.5974 Y1.5750
G01 X101.7463 Y1.9801
G01 X102.8891 Y2.4030
G01 X104.0245 Y2.8448
G01 X105.1529 Y3.3046
G01 X106.2736 Y3.7825
G01 X107.3719 Y4.2717
G01 X108.4772 Y4.7853
G01 X109.5737 Y5.3165
G01 X110.6760 Y5.8725
G01 X111.7544 Y6.4389
G01 X112.8100 Y7.0150
G01 X113.8700 Y7.6157
G01 X114.9200 Y8.2326
G01 X115.9745 Y8.8759
G01 X117.0039 Y9.5272
G01 X118.0097 Y10.1861
G01 X119.0316 Y10.8788
G01 X120.0156 Y11.5697
G01 X120.9912 Y12.2779
G01 X121.0140 Y12.2950
G01 X121.0363 Y12.3127
G01 X121.0581 Y12.3310
G01 X121.1526 Y12.4128
G01 X121.1712 Y12.4294
G01 X121.1895 Y12.4464
G01 X121.2073 Y12.4638
G01 X121.2246 Y12.4818
G01 X121.2416 Y12.5001
G01 X121.2580 Y12.5189
G01 X121.3271 Y12.5996
G01 X121.3422 Y12.6177
G01 X121.3568 Y12.6360
G01 X121.3710 Y12.6547
G01 X121.3847 Y12.6738
G01 X121.3980 Y12.6932
G01 X121.4109 Y12.7128
G01 X121.4678 Y12.8022
G01 X121.4802 Y12.8223
G01 X121.4922 Y12.8426
G01 X121.5036 Y12.8633
G01 X121.5146 Y12.8842
G01 X121.5251 Y12.9053
G01 X121.5788 Y13.0232
G01 X121.5886 Y13.0457
G01 X121.5979 Y13.0684
G01 X121.6067 Y13.0914
G01 X121.6148 Y13.1146
G01 X121.6224 Y13.1379
G01 X121.6584 Y13.2631
G01 X121.6647 Y13.2861
G01 X121.6704 Y13.3093
G01 X121.6756 Y13.3326
G01 X121.6802 Y13.3560
G01 X121.6842 Y13.3796
G01 X121.6877 Y13.4032
G01 X121.7019 Y13.5083
G01 X121.7048 Y13.5314
G01 X121.7071 Y13.5545
G01 X121.7089 Y13.5776
G01 X121.7101 Y13.6008
G01 X121.7108 Y13.6240
G01 X121.7104 Y13.7528
G01 X121.7100 Y13.7768
G01 X121.7090 Y13.8007
G01 X121.7075 Y13.8246
G01 X121.7054 Y13.8485
G01 X121.7027 Y13.8723
G01 X121.6994 Y13.8960
G01 X121.6797 Y14.0257
G01 X121.6751 Y14.0501
G01 X121.6699 Y14.0743
G01 X121.6641 Y14.0985
G01 X121.6578 Y14.1224
G01 X121.6508 Y14.1463
G01 X121.6198 Y14.2473
G01 X121.6128 Y14.2693
G01 X121.6053 Y14.2911
G01 X121.5972 Y14.3127
G01 X121.5887 Y14.3342
G01 X121.5797 Y14.3554
G01 X121.5255 Y14.4724
G01 X121.5153 Y14.4937
G01 X121.5046 Y14.5147
G01 X121.4934 Y14.5355
G01 X121.4817 Y14.5559
G01 X121.4695 Y14.5762
G01 X121.3990 Y14.6850
G01 X121.3860 Y14.7044
G01 X121.3726 Y14.7235
G01 X121.3587 Y14.7423
G01 X121.3444 Y14.7608
G01 X121.3297 Y14.7789
G01 X121.3145 Y14.7967
G01 X121.2263 Y14.8974
G01 X121.2109 Y14.9139
G01 X121.1950 Y14.9301
G01 X93.0518 Y43.0728
G01 X93.0061 Y43.1247
G01 X92.9869 Y43.1535
G01 X92.9734 Y43.1810
G01 X92.9618 Y43.2149
G01 X92.9556 Y43.2464
G01 X92.9534 Y43.2808
G01 X92.9556 Y43.3153
G01 X92.9617 Y43.3460
G01 X92.9737 Y43.3811
G01 X92.9869 Y43.4081
G01 X93.0048 Y43.4350
G01 X93.0518 Y43.4883
G01 X105.7311 Y56.1676
G01 X105.7844 Y56.2146
G01 X105.8113 Y56.2325
G01 X105.8383 Y56.2457
G01 X105.8734 Y56.2577
G01 X105.9041 Y56.2638
G01 X105.9386 Y56.2660
G01 X105.9730 Y56.2638
G01 X106.0045 Y56.2576
G01 X106.0384 Y56.2460
G01 X106.0659 Y56.2325
G01 X106.0947 Y56.2133
G01 X106.1466 Y56.1676
G01 X134.2893 Y28.0244
G01 X134.3077 Y28.0064
G01 X134.3266 Y27.9889
G01 X134.3459 Y27.9719
G01 X134.4414 Y27.8901
G01 X134.4604 Y27.8743
G01 X134.4797 Y27.8590
G01 X134.4994 Y27.8441
G01 X134.5195 Y27.8297
G01 X134.5399 Y27.8158
G01 X134.5606 Y27.8025
G01 X134.6713 Y27.7334
G01 X134.6923 Y27.7213
G01 X134.7137 Y27.7096
G01 X134.7353 Y27.6985
G01 X134.7572 Y27.6879
G01 X134.8763 Y27.6352
G01 X134.8973 Y27.6263
G01 X134.9184 Y27.6178
G01 X134.9398 Y27.6099
G01 X134.9613 Y27.6024
G01 X134.9830 Y27.5954
G01 X135.0048 Y27.5889
G01 X135.1302 Y27.5535
G01 X135.1541 Y27.5476
G01 X135.1782 Y27.5423
G01 X135.2024 Y27.5376
G01 X135.2267 Y27.5336
G01 X135.3562 Y27.5163
G01 X135.3801 Y27.5135
G01 X135.4040 Y27.5113
G01 X135.4279 Y27.5096
G01 X135.4519 Y27.5085
G01 X135.4759 Y27.5080
G01 X135.4999 Y27.5080
G01 X135.6294 Y27.5102
G01 X135.6527 Y27.5113
G01 X135.6759 Y27.5130
G01 X135.6991 Y27.5152
G01 X135.7223 Y27.5180
G01 X135.7453 Y27.5213
G01 X135.8743 Y27.5417
G01 X135.8985 Y27.5463
G01 X135.9226 Y27.5516
G01 X135.9465 Y27.5575
G01 X135.9703 Y27.5639
G01 X136.0950 Y27.6025
G01 X136.1172 Y27.6097
G01 X136.1393 Y27.6174
G01 X136.1611 Y27.6257
G01 X136.1828 Y27.6344
G01 X136.2042 Y27.6436
G01 X136.2254 Y27.6534
G01 X136.3422 Y27.7090
G01 X136.3632 Y27.7198
G01 X136.3839 Y27.7312
G01 X136.4044 Y27.7430
G01 X136.4245 Y27.7554
G01 X136.5328 Y27.8266
G01 X136.5526 Y27.8401
G01 X136.5722 Y27.8540
G01 X136.5913 Y27.8684
G01 X136.6101 Y27.8832
G01 X136.6286 Y27.8985
G01 X136.6467 Y27.9142
G01 X136.7430 Y28.0004
G01 X136.7597 Y28.0164
G01 X136.7761 Y28.0328
G01 X136.7921 Y28.0495
G01 X136.8077 Y28.0666
G01 X136.8228 Y28.0841
G01 X136.8945 Y28.1684
G01 X136.9107 Y28.1880
G01 X136.9264 Y28.2080
G01 X136.9416 Y28.2284
G01 X137.6513 Y29.2063
G01 X138.3606 Y30.2170
G01 X139.0537 Y31.2400
G01 X139.7302 Y32.2740
G01 X140.3894 Y33.3192
G01 X141.0318 Y34.3747
G01 X141.6565 Y35.4405
G01 X142.2640 Y36.5161
G01 X142.8537 Y37.6020
G01 X143.4331 Y38.7118
G01 X143.9869 Y39.8162
G01 X144.5226 Y40.9295
G01 X145.0336 Y42.0364
G01 X145.5328 Y43.1668
G01 X146.0198 Y44.3197
G01 X146.4820 Y45.4659
G01 X146.9251 Y46.6188
G01 X147.3498 Y47.7796
G01 X147.7547 Y48.9464
G01 X148.1362 Y50.1046
G01 X148.5034 Y51.2841
G01 X148.8515 Y52.4696
G01 X149.1842 Y53.6764
G01 X149.4936 Y54.8731
G01 X149.7828 Y56.0742
G01 X150.0524 Y57.2797
G01 X150.3024 Y58.4894
G01 X150.5329 Y59.7035
G01 X150.7434 Y60.9211
G01 X150.9337 Y62.1414
G01 X151.1023 Y63.3490
G01 X151.2533 Y64.5753
G01 X151.3842 Y65.8041
G01 X151.4950 Y67.0345
G01 X151.5858 Y68.2669
G01 X151.6572 Y69.5166
G01 X151.7075 Y70.7514
G01 X151.7373 Y71.9859
G01 X151.7474 Y73.2051
G01 X151.7370 Y74.4568
G01 X151.7070 Y75.6927
G01 X151.6572 Y76.9109
G01 X151.5868 Y78.1443
G01 X151.4950 Y79.3924
G01 X151.3842 Y80.6234
G01 X151.2533 Y81.8517
G01 X151.1023 Y83.0780
G01 X150.9313 Y84.3017
G01 X150.7402 Y85.5220
G01 X150.5324 Y86.7235
G01 X150.3025 Y87.9371
G01 X150.0524 Y89.1477
G01 X149.7822 Y90.3537
G01 X149.4891 Y91.5705
G01 X149.1796 Y92.7666
G01 X148.8510 Y93.9573
G01 X148.5029 Y95.1427
G01 X148.1356 Y96.3229
G01 X147.7491 Y97.4957
G01 X147.3437 Y98.6630
G01 X146.9189 Y99.8231
G01 X146.4755 Y100.9764
G01 X146.0131 Y102.1222
G01 X145.5321 Y103.2605
G01 X145.0328 Y104.3900
G01 X144.5151 Y105.5126
G01 X143.9791 Y106.6255
G01 X143.4325 Y107.7151
G01 X142.8608 Y108.8106
G01 X142.2631 Y109.9105
G01 X141.6558 Y110.9867
G01 X141.0310 Y112.0519
G01 X140.3887 Y113.1080
G01 X139.7294 Y114.1526
G01 X139.0532 Y115.1870
G01 X138.3599 Y116.2102
G01 X137.6594 Y117.2079
G01 X136.9416 Y118.1970
G01 X136.9245 Y118.2199
G01 X136.9068 Y118.2423
G01 X136.8884 Y118.2641
G01 X136.8066 Y118.3586
G01 X136.7900 Y118.3773
G01 X136.7730 Y118.3955
G01 X136.7555 Y118.4133
G01 X136.7376 Y118.4307
G01 X136.7193 Y118.4476
G01 X136.7005 Y118.4640
G01 X136.6198 Y118.5331
G01 X136.6018 Y118.5482
G01 X136.5834 Y118.5628
G01 X136.5647 Y118.5770
G01 X136.5457 Y118.5907
G01 X136.5263 Y118.6040
G01 X136.5066 Y118.6168
G01 X136.4172 Y118.6737
G01 X136.3972 Y118.6862
G01 X136.3768 Y118.6981
G01 X136.3562 Y118.7096
G01 X136.3353 Y118.7206
G01 X136.3141 Y118.7311
G01 X136.1962 Y118.7848
G01 X136.1737 Y118.7947
G01 X136.1509 Y118.8040
G01 X136.1280 Y118.8127
G01 X136.1048 Y118.8209
G01 X136.0814 Y118.8285
G01 X135.9563 Y118.8645
G01 X135.9340 Y118.8705
G01 X135.9116 Y118.8761
G01 X135.8891 Y118.8811
G01 X135.8665 Y118.8856
G01 X135.8437 Y118.8896
G01 X135.8209 Y118.8931
G01 X135.7158 Y118.9078
G01 X135.6912 Y118.9109
G01 X135.6665 Y118.9134
G01 X135.6418 Y118.9154
G01 X135.6171 Y118.9167
G01 X135.5923 Y118.9173
G01 X135.4618 Y118.9164
G01 X135.4387 Y118.9159
G01 X135.4155 Y118.9149
G01 X135.3924 Y118.9133
G01 X135.3693 Y118.9112
G01 X135.3462 Y118.9086
G01 X135.2181 Y118.8897
G01 X135.1944 Y118.8858
G01 X135.1708 Y118.8814
G01 X135.1473 Y118.8764
G01 X135.1239 Y118.8709
G01 X135.1007 Y118.8648
G01 X135.0776 Y118.8581
G01 X134.9765 Y118.8276
G01 X134.9531 Y118.8203
G01 X134.9298 Y118.8123
G01 X134.9068 Y118.8038
G01 X134.8840 Y118.7947
G01 X134.8615 Y118.7851
G01 X134.7431 Y118.7297
G01 X134.7225 Y118.7197
G01 X134.7022 Y118.7093
G01 X134.6821 Y118.6984
G01 X134.6622 Y118.6870
G01 X134.6426 Y118.6752
G01 X134.5344 Y118.6050
G01 X134.5150 Y118.5920
G01 X134.4959 Y118.5786
G01 X134.4771 Y118.5647
G01 X134.4586 Y118.5504
G01 X134.4405 Y118.5357
G01 X134.4227 Y118.5205
G01 X134.3220 Y118.4323
G01 X134.3055 Y118.4168
G01 X134.2893 Y118.4010
G01 X106.1457 Y90.2574
G01 X106.0954 Y90.2129
G01 X106.0666 Y90.1936
G01 X106.0372 Y90.1790
G01 X106.0045 Y90.1678
G01 X105.9730 Y90.1616
G01 X105.9386 Y90.1594
G01 X105.9041 Y90.1616
G01 X105.8734 Y90.1677
G01 X105.8395 Y90.1792
G01 X105.8105 Y90.1936
G01 X105.7838 Y90.2115
G01 X105.7320 Y90.2574
G01 X93.0518 Y102.9371
G01 X93.0048 Y102.9904
G01 X92.9873 Y103.0167
G01 X92.9733 Y103.0454
G01 X92.9619 Y103.0787
G01 X92.9556 Y103.1107
G01 X92.9534 Y103.1448
G01 X92.9556 Y103.1790
G01 X92.9618 Y103.2105
G01 X92.9735 Y103.2444
G01 X92.9875 Y103.2731
G01 X93.0056 Y103.3002
G01 X93.0518 Y103.3525
G01 X121.1950 Y131.4953
G01 X121.2136 Y131.5144
G01 X121.2317 Y131.5339
G01 X121.2492 Y131.5540
G01 X121.3462 Y131.6683
G01 X121.3610 Y131.6870
G01 X121.3753 Y131.7060
G01 X121.3892 Y131.7253
G01 X121.4026 Y131.7450
G01 X121.4155 Y131.7649
G01 X121.4719 Y131.8543
G01 X121.4849 Y131.8754
G01 X121.4973 Y131.8968
G01 X121.5091 Y131.9185
G01 X121.5205 Y131.9405
G01 X121.5313 Y131.9628
G01 X121.5415 Y131.9853
G01 X121.5932 Y132.1035
G01 X121.6017 Y132.1248
G01 X121.6098 Y132.1464
G01 X121.6173 Y132.1681
G01 X121.6243 Y132.1900
G01 X121.6309 Y132.2121
G01 X121.6662 Y132.3377
G01 X121.6719 Y132.3613
G01 X121.6771 Y132.3851
G01 X121.6818 Y132.4089
G01 X121.6858 Y132.4329
G01 X121.7030 Y132.5616
G01 X121.7058 Y132.5856
G01 X121.7081 Y132.6096
G01 X121.7098 Y132.6336
G01 X121.7109 Y132.6577
G01 X121.7114 Y132.6818
G01 X121.7114 Y132.7059
G01 X121.7092 Y132.8354
G01 X121.7081 Y132.8587
G01 X121.7064 Y132.8819
G01 X121.7042 Y132.9051
G01 X121.7014 Y132.9283
G01 X121.6981 Y132.9513
G01 X121.6777 Y133.0803
G01 X121.6731 Y133.1045
G01 X121.6678 Y133.1286
G01 X121.6619 Y133.1525
G01 X121.6554 Y133.1763
G01 X121.6169 Y133.3010
G01 X121.6098 Y133.3229
G01 X121.6022 Y133.3446
G01 X121.5941 Y133.3662
G01 X121.5855 Y133.3875
G01 X121.5765 Y133.4086
G01 X121.5669 Y133.4296
G01 X121.5110 Y133.5475
G01 X121.4998 Y133.5692
G01 X121.4881 Y133.5907
G01 X121.4758 Y133.6118
G01 X121.4630 Y133.6326
G01 X121.3914 Y133.7410
G01 X121.3781 Y133.7605
G01 X121.3644 Y133.7796
G01 X121.3502 Y133.7984
G01 X121.3356 Y133.8168
G01 X121.3206 Y133.8350
G01 X121.3051 Y133.8527
G01 X121.2189 Y133.9491
G01 X121.2030 Y133.9658
G01 X121.1866 Y133.9821
G01 X121.1699 Y133.9981
G01 X121.1528 Y134.0137
G01 X121.1353 Y134.0288
G01 X121.0510 Y134.1005
G01 X121.0315 Y134.1166
G01 X121.0116 Y134.1323
G01 X120.9913 Y134.1474
G01 X120.0353 Y134.8418
G01 X119.0464 Y135.5364
G01 X118.0467 Y136.2150
G01 X117.0362 Y136.8777
G01 X116.0150 Y137.5244
G01 X114.9840 Y138.1545
G01 X113.9295 Y138.7756
G01 X112.8782 Y139.3730
G01 X111.8181 Y139.9523
G01 X110.7486 Y140.5155
G01 X109.6707 Y141.0610
G01 X108.5983 Y141.5827
G01 X107.4888 Y142.1007
G01 X106.4001 Y142.5879
G01 X105.2890 Y143.0638
G01 X104.1712 Y143.5219
G01 X103.0461 Y143.9626
G01 X101.8987 Y144.3905
G01 X100.7598 Y144.7944
G01 X99.6146 Y145.1804
G01 X98.5310 Y145.5264
G01 X98.5088 Y145.5332
G01 X98.4864 Y145.5395
G01 X98.4639 Y145.5452
G01 X98.4413 Y145.5505
G01 X98.4186 Y145.5552
G01 X98.3957 Y145.5594
G01 X98.3418 Y145.5676
G01 X98.3176 Y145.5709
G01 X98.2933 Y145.5736
G01 X98.2690 Y145.5756
G01 X98.2447 Y145.5771
G01 X98.2203 Y145.5780
G01 X98.1959 Y145.5783
G01 X53.8175 Y145.5783
G01 X53.7931 Y145.5780
G01 X53.7687 Y145.5771
G01 X53.7444 Y145.5756
G01 X53.7201 Y145.5736
G01 X53.6958 Y145.5709
G01 X53.6716 Y145.5676
G01 X53.6177 Y145.5594
G01 X53.5948 Y145.5552
G01 X53.5721 Y145.5505
G01 X53.5494 Y145.5452
G01 X53.5269 Y145.5395
G01 X53.5046 Y145.5332
G01 X53.4824 Y145.5264
G01 X52.3820 Y145.1749
G01 X51.2367 Y144.7887
G01 X50.1130 Y144.3899
G01 X48.9810 Y143.9679
G01 X47.8552 Y143.5273
G01 X46.7222 Y143.0632
G01 X45.6118 Y142.5874
G01 X44.5231 Y142.1002
G01 X43.4280 Y141.5891
G01 X42.3267 Y141.0533
G01 X41.2629 Y140.5143
G01 X40.1941 Y139.9520
G01 X39.1334 Y139.3718
G01 X38.0687 Y138.7672
G01 X37.0279 Y138.1535
G01 X35.9972 Y137.5235
G01 X34.9893 Y136.8860
G01 X33.9781 Y136.2227
G01 X32.9655 Y135.5354
G01 X31.9896 Y134.8501
G01 X31.0220 Y134.1474
G01 X30.9993 Y134.1303
G01 X30.9770 Y134.1127
G01 X30.9553 Y134.0944
G01 X30.8608 Y134.0126
G01 X30.8425 Y133.9964
G01 X30.8247 Y133.9797
G01 X30.8072 Y133.9626
G01 X30.7902 Y133.9451
G01 X30.7736 Y133.9272
G01 X30.6883 Y133.8287
G01 X30.6729 Y133.8103
G01 X30.6579 Y133.7915
G01 X30.6434 Y133.7725
G01 X30.6293 Y133.7530
G01 X30.6157 Y133.7332
G01 X30.6026 Y133.7132
G01 X30.5457 Y133.6237
G01 X30.5330 Y133.6034
G01 X30.5209 Y133.5827
G01 X30.5093 Y133.5618
G01 X30.4982 Y133.5406
G01 X30.4876 Y133.5191
G01 X30.4338 Y133.4004
G01 X30.4241 Y133.3782
G01 X30.4150 Y133.3557
G01 X30.4064 Y133.3330
G01 X30.3983 Y133.3102
G01 X30.3908 Y133.2871
G01 X30.3549 Y133.1623
G01 X30.3489 Y133.1400
G01 X30.3433 Y133.1176
G01 X30.3383 Y133.0951
G01 X30.3338 Y133.0725
G01 X30.3298 Y133.0498
G01 X30.3263 Y133.0270
G01 X30.3116 Y132.9218
G01 X30.3085 Y132.8972
G01 X30.3060 Y132.8726
G01 X30.3040 Y132.8478
G01 X30.3027 Y132.8231
G01 X30.3021 Y132.7983
G01 X30.3030 Y132.6678
G01 X30.3035 Y132.6445
G01 X30.3045 Y132.6213
G01 X30.3061 Y132.5980
G01 X30.3082 Y132.5748
G01 X30.3109 Y132.5516
G01 X30.3298 Y132.4239
G01 X30.3336 Y132.4006
G01 X30.3380 Y132.3773
G01 X30.3429 Y132.3541
G01 X30.3483 Y132.3311
G01 X30.3543 Y132.3082
G01 X30.3609 Y132.2854
G01 X30.3914 Y132.1838
G01 X30.3988 Y132.1602
G01 X30.4068 Y132.1367
G01 X30.4153 Y132.1135
G01 X30.4245 Y132.0905
G01 X30.4342 Y132.0677
G01 X30.4897 Y131.9492
G01 X30.4998 Y131.9282
G01 X30.5105 Y131.9074
G01 X30.5217 Y131.8869
G01 X30.5333 Y131.8667
G01 X30.5454 Y131.8468
G01 X30.6158 Y131.7387
G01 X30.6309 Y131.7164
G01 X30.6465 Y131.6945
G01 X30.6628 Y131.6730
G01 X30.6796 Y131.6520
G01 X30.6969 Y131.6314
G01 X30.7858 Y131.5295
G01 X30.8019 Y131.5122
G01 X30.8184 Y131.4953
G01 X58.9620 Y103.3517
G01 X59.0070 Y103.3009
G01 X59.0252 Y103.2738
G01 X59.0404 Y103.2432
G01 X59.0516 Y103.2105
G01 X59.0578 Y103.1790
G01 X59.0600 Y103.1448
G01 X59.0578 Y103.1106
G01 X59.0515 Y103.0787
G01 X59.0405 Y103.0466
G01 X59.0254 Y103.0160
G01 X59.0079 Y102.9898
G01 X58.9620 Y102.9380
G01 X46.2814 Y90.2574
G01 X46.2296 Y90.2115
G01 X46.2043 Y90.1946
G01 X46.1722 Y90.1787
G01 X46.1407 Y90.1679
G01 X46.1088 Y90.1616
G01 X46.0746 Y90.1594
G01 X46.0404 Y90.1616
G01 X46.0089 Y90.1678
G01 X45.9762 Y90.1790
G01 X45.9456 Y90.1942
G01 X45.9185 Y90.2124
G00 Z2.0000
M05
G00 Z2.0000
G00 Z15.00


