(G-CODE GENERATED BY FLATCAM v8.994 - www.flatcam.org - Version Date: 2020/11/7)

(Name: Gerber_TopLayer.GTL_iso_combined_cnc)
(Type: G-code from Geometry)
(Units: MM)

(Created on Sunday, 02 March 2025 at 14:29)

(This preprocessor is the default preprocessor used by FlatCAM.)
(It is made to work with MACH3 compatible motion controllers.)

(TOOL DIAMETER: 0.2 mm)
(Feedrate_XY: 350.0 mm/min)
(Feedrate_Z: 100.0 mm/min)
(Feedrate rapids 1500.0 mm/min)

(Z_Cut: 0.0 mm)
(Z_Move: 2.0 mm)
(Z Start: None mm)
(Z End: 15.0 mm)
(X,Y End: None mm)
(Steps per circle: 64)
(Preprocessor Geometry: default)

(X range:    1.1659 ...  150.8475  mm)
(Y range:    0.1245 ...  144.6783  mm)

(Spindle Speed: 24000.0 RPM)
G21
G90
G94

G01 F350.00

M5
G00 Z15.0000
G00 X0.0000 Y0.0000
T1
M6    
(MSG, Change to Tool Dia = 0.2000)
M0
G00 Z15.0000

M03 S24000.0
G01 F350.00
G00 X11.9737 Y44.4240
G01 F100.00
G01 Z0.0000
G01 F350.00
G01 X11.9965 Y44.4244
G01 X12.0781 Y44.4319
G01 X12.0948 Y44.4347
G01 X12.1738 Y44.4547
G01 X12.1904 Y44.4601
G01 X12.2658 Y44.4913
G01 X12.2814 Y44.4991
G01 X12.3471 Y44.5387
G01 X12.3836 Y44.5670
G01 X12.3913 Y44.5725
G01 X12.4224 Y44.5903
G01 X12.4288 Y44.5935
G01 X12.4354 Y44.5962
G01 X12.4469 Y44.5996
G01 X12.4772 Y44.6068
G01 X12.4843 Y44.6080
G01 X12.5638 Y44.6150
G01 X12.6838 Y44.6430
G01 X12.7994 Y44.6861
G01 X12.9079 Y44.7442
G01 X13.0076 Y44.8165
G01 X13.0966 Y44.9018
G01 X13.1741 Y44.9977
G01 X13.2378 Y45.1035
G01 X13.2868 Y45.2162
G01 X13.3202 Y45.3348
G01 X13.3377 Y45.4569
G01 X13.3391 Y45.5801
G01 X13.3235 Y45.7023
G01 X13.2919 Y45.8215
G01 X13.2447 Y45.9356
G01 X13.1828 Y46.0419
G01 X13.1072 Y46.1395
G01 X13.0192 Y46.2257
G01 X12.9206 Y46.2999
G01 X12.8130 Y46.3599
G01 X12.6985 Y46.4053
G01 X12.5790 Y46.4346
G01 X12.4559 Y46.4479
G01 X12.3332 Y46.4452
G01 X12.2113 Y46.4255
G01 X12.0930 Y46.3902
G01 X11.9814 Y46.3394
G01 X11.8769 Y46.2738
G01 X11.7820 Y46.1950
G01 X11.6985 Y46.1042
G01 X11.6363 Y46.0156
G01 X11.6299 Y46.0075
G01 X11.6228 Y46.0001
G01 X11.5890 Y45.9684
G01 X11.5832 Y45.9636
G01 X11.5771 Y45.9593
G01 X11.5707 Y45.9555
G01 X11.5640 Y45.9521
G01 X11.5523 Y45.9476
G01 X11.5056 Y45.9331
G01 X11.4962 Y45.9312
G01 X11.4843 Y45.9300
G01 X11.4771 Y45.9299
G01 X11.4700 Y45.9304
G01 X11.4166 Y45.9375
G01 X11.4094 Y45.9392
G01 X11.4000 Y45.9424
G01 X11.3932 Y45.9453
G01 X11.3846 Y45.9501
G01 X11.3434 Y45.9766
G01 X11.3358 Y45.9823
G01 X11.3288 Y45.9886
G01 X8.3346 Y48.9828
G01 X8.3298 Y48.9880
G01 X8.3239 Y48.9955
G01 X8.2988 Y49.0325
G01 X8.2939 Y49.0412
G01 X8.2898 Y49.0504
G01 X8.2873 Y49.0574
G01 X8.2854 Y49.0647
G01 X8.2773 Y49.1058
G01 X8.2759 Y49.1154
G01 X8.2754 Y49.1251
G01 X8.2754 Y51.5859
G01 X8.2759 Y51.5956
G01 X8.2768 Y51.6028
G01 X8.2860 Y51.6487
G01 X8.2881 Y51.6559
G01 X8.2907 Y51.6630
G01 X8.2950 Y51.6720
G01 X8.2988 Y51.6784
G01 X8.3239 Y51.7155
G01 X8.3298 Y51.7230
G01 X8.3346 Y51.7282
G01 X28.6646 Y72.0582
G01 X28.6746 Y72.0664
G01 X28.7062 Y72.0883
G01 X28.7146 Y72.0935
G01 X28.7234 Y72.0978
G01 X28.7350 Y72.1020
G01 X28.7742 Y72.1123
G01 X28.7836 Y72.1141
G01 X28.7931 Y72.1150
G01 X28.8051 Y72.1148
G01 X28.8505 Y72.1100
G01 X28.8604 Y72.1077
G01 X28.9688 Y72.0769
G01 X29.1030 Y72.0559
G01 X29.2384 Y72.0517
G01 X29.3733 Y72.0643
G01 X29.5056 Y72.0937
G01 X29.6333 Y72.1384
G01 X29.7547 Y72.1988
G01 X29.8674 Y72.2738
G01 X29.9703 Y72.3619
G01 X30.0616 Y72.4620
G01 X30.1403 Y72.5728
G01 X30.2040 Y72.6919
G01 X30.2529 Y72.8181
G01 X30.2860 Y72.9500
G01 X30.3028 Y73.0841
G01 X30.3028 Y73.2199
G01 X30.2860 Y73.3540
G01 X30.2529 Y73.4859
G01 X30.2040 Y73.6121
G01 X30.1403 Y73.7312
G01 X30.0616 Y73.8420
G01 X29.9703 Y73.9421
G01 X29.8674 Y74.0302
G01 X29.7547 Y74.1051
G01 X29.6333 Y74.1656
G01 X29.5056 Y74.2103
G01 X29.3735 Y74.2397
G01 X29.2384 Y74.2518
G01 X29.1030 Y74.2480
G01 X29.0429 Y74.2384
G01 X29.0351 Y74.2375
G01 X29.0271 Y74.2372
G01 X28.9956 Y74.2372
G01 X28.9831 Y74.2379
G01 X28.9732 Y74.2397
G01 X28.9659 Y74.2417
G01 X28.9313 Y74.2534
G01 X28.9224 Y74.2571
G01 X28.9140 Y74.2617
G01 X28.9080 Y74.2656
G01 X28.8801 Y74.2854
G01 X28.8708 Y74.2932
G01 X10.7476 Y92.4168
G01 X10.7428 Y92.4220
G01 X10.7369 Y92.4295
G01 X10.7105 Y92.4687
G01 X10.7069 Y92.4752
G01 X10.7028 Y92.4844
G01 X10.7003 Y92.4914
G01 X10.6984 Y92.4987
G01 X10.6903 Y92.5398
G01 X10.6889 Y92.5494
G01 X10.6884 Y92.5591
G01 X10.6884 Y96.7826
G01 X10.6887 Y96.7899
G01 X10.6898 Y96.7996
G01 X10.6996 Y96.8479
G01 X10.7037 Y96.8597
G01 X10.7069 Y96.8665
G01 X10.7105 Y96.8731
G01 X10.7369 Y96.9123
G01 X10.7412 Y96.9179
G01 X10.7460 Y96.9233
G01 X11.4055 Y97.5828
G01 X11.4108 Y97.5878
G01 X11.4164 Y97.5923
G01 X11.4523 Y97.6174
G01 X11.4628 Y97.6230
G01 X11.4738 Y97.6272
G01 X11.5116 Y97.6383
G01 X11.5216 Y97.6404
G01 X11.6067 Y97.6495
G01 X11.7266 Y97.6792
G01 X11.8412 Y97.7246
G01 X11.9490 Y97.7847
G01 X12.0474 Y97.8584
G01 X12.1353 Y97.9449
G01 X12.2105 Y98.0421
G01 X12.2729 Y98.1490
G01 X12.3200 Y98.2624
G01 X12.3512 Y98.3816
G01 X12.3668 Y98.5041
G01 X12.3659 Y98.6273
G01 X12.3484 Y98.7492
G01 X12.3150 Y98.8677
G01 X12.2656 Y98.9809
G01 X12.2018 Y99.0865
G01 X12.1248 Y99.1827
G01 X12.0355 Y99.2674
G01 X11.9356 Y99.3398
G01 X11.8270 Y99.3980
G01 X11.7114 Y99.4416
G01 X11.5914 Y99.4690
G01 X11.4685 Y99.4805
G01 X11.3458 Y99.4755
G01 X11.2245 Y99.4539
G01 X11.1071 Y99.4164
G01 X10.9958 Y99.3637
G01 X10.8922 Y99.2963
G01 X10.7986 Y99.2161
G01 X10.7167 Y99.1240
G01 X10.6481 Y99.0220
G01 X10.5935 Y98.9110
G01 X10.5540 Y98.7944
G01 X10.5303 Y98.6740
G01 X10.5290 Y98.6468
G01 X10.5277 Y98.6367
G01 X10.5261 Y98.6292
G01 X10.5156 Y98.5889
G01 X10.5112 Y98.5773
G01 X10.5054 Y98.5663
G01 X10.4791 Y98.5279
G01 X10.4700 Y98.5174
G01 X9.5446 Y97.5915
G01 X9.4933 Y97.5297
G01 X9.4835 Y97.5156
G01 X9.4415 Y97.4457
G01 X9.4337 Y97.4299
G01 X9.4025 Y97.3545
G01 X9.3971 Y97.3380
G01 X9.3771 Y97.2590
G01 X9.3743 Y97.2423
G01 X9.3669 Y97.1616
G01 X9.3669 Y92.1801
G01 X9.3743 Y92.0995
G01 X9.3771 Y92.0828
G01 X9.3971 Y92.0037
G01 X9.4025 Y91.9872
G01 X9.4337 Y91.9118
G01 X9.4415 Y91.8961
G01 X9.4835 Y91.8262
G01 X9.4933 Y91.8121
G01 X9.5446 Y91.7502
G01 X27.8730 Y73.4213
G01 X27.8780 Y73.4160
G01 X27.8839 Y73.4084
G01 X27.9072 Y73.3739
G01 X27.9123 Y73.3653
G01 X27.9166 Y73.3563
G01 X27.9199 Y73.3469
G01 X27.9223 Y73.3372
G01 X27.9304 Y73.2958
G01 X27.9313 Y73.2886
G01 X27.9318 Y73.2790
G01 X27.9313 Y73.2694
G01 X27.9304 Y73.2622
G01 X27.9223 Y73.2208
G01 X27.9199 Y73.2111
G01 X27.9166 Y73.2017
G01 X27.9123 Y73.1926
G01 X27.9072 Y73.1841
G01 X27.8839 Y73.1496
G01 X27.8795 Y73.1438
G01 X27.8730 Y73.1367
G01 X7.1316 Y52.3947
G01 X7.0803 Y52.3329
G01 X7.0705 Y52.3188
G01 X7.0285 Y52.2489
G01 X7.0207 Y52.2332
G01 X6.9895 Y52.1578
G01 X6.9841 Y52.1413
G01 X6.9641 Y52.0622
G01 X6.9613 Y52.0455
G01 X6.9539 Y51.9648
G01 X6.9539 Y48.7461
G01 X6.9613 Y48.6655
G01 X6.9641 Y48.6488
G01 X6.9841 Y48.5697
G01 X6.9895 Y48.5532
G01 X7.0207 Y48.4778
G01 X7.0285 Y48.4621
G01 X7.0705 Y48.3922
G01 X7.0803 Y48.3781
G01 X7.1316 Y48.3162
G01 X10.8457 Y44.6022
G01 X10.9075 Y44.5509
G01 X10.9216 Y44.5411
G01 X10.9915 Y44.4991
G01 X11.0072 Y44.4913
G01 X11.0826 Y44.4601
G01 X11.0991 Y44.4547
G01 X11.1782 Y44.4347
G01 X11.1949 Y44.4319
G01 X11.2756 Y44.4245
G01 X11.9737 Y44.4240
G00 Z2.0000
G00 X11.5709 Y45.6853
G01 F100.00
G01 Z0.0000
G01 F350.00
G01 X11.5460 Y45.6853
G01 X8.2147 Y49.0166
G01 X8.2147 Y51.6944
G01 X28.7420 Y72.2217
G01 X28.8065 Y72.1914
G01 X28.8979 Y72.1585
G01 X28.9073 Y72.1557
G01 X29.0015 Y72.1322
G01 X29.0976 Y72.1178
G01 X29.1074 Y72.1168
G01 X29.2044 Y72.1122
G01 X29.3039 Y72.1170
G01 X29.3112 Y72.1178
G01 X29.4073 Y72.1322
G01 X29.5015 Y72.1557
G01 X29.5109 Y72.1585
G01 X29.6023 Y72.1914
G01 X29.6902 Y72.2328
G01 X29.6988 Y72.2374
G01 X29.7800 Y72.2861
G01 X29.7861 Y72.2903
G01 X29.8640 Y72.3482
G01 X29.9361 Y72.4134
G01 X29.9430 Y72.4203
G01 X30.0082 Y72.4924
G01 X30.0661 Y72.5703
G01 X30.0716 Y72.5785
G01 X30.1214 Y72.6618
G01 X30.1631 Y72.7496
G01 X30.1668 Y72.7587
G01 X30.1994 Y72.8502
G01 X30.2231 Y72.9444
G01 X30.2251 Y72.9540
G01 X30.2392 Y73.0501
G01 X30.2442 Y73.1520
G01 X30.2392 Y73.2539
G01 X30.2242 Y73.3549
G01 X30.1994 Y73.4538
G01 X30.1650 Y73.5499
G01 X30.1214 Y73.6422
G01 X30.0690 Y73.7297
G01 X30.0082 Y73.8116
G01 X29.9396 Y73.8872
G01 X29.8678 Y73.9526
G01 X29.8602 Y73.9588
G01 X29.7821 Y74.0166
G01 X29.6988 Y74.0666
G01 X29.6902 Y74.0712
G01 X29.6023 Y74.1126
G01 X29.5109 Y74.1455
G01 X29.5015 Y74.1483
G01 X29.4073 Y74.1718
G01 X29.3112 Y74.1862
G01 X29.3014 Y74.1872
G01 X29.2044 Y74.1918
G01 X29.1074 Y74.1872
G01 X29.0976 Y74.1862
G01 X29.0015 Y74.1718
G01 X28.9254 Y74.1529
G01 X10.6277 Y92.4506
G01 X10.6277 Y96.8911
G01 X11.4331 Y97.6966
G01 X11.4506 Y97.6962
G01 X11.5302 Y97.7002
G01 X11.6139 Y97.7127
G01 X11.6960 Y97.7332
G01 X11.7756 Y97.7617
G01 X11.8521 Y97.7979
G01 X11.9246 Y97.8414
G01 X11.9926 Y97.8918
G01 X12.0535 Y97.9468
G01 X12.0587 Y97.9521
G01 X12.1121 Y98.0112
G01 X12.1596 Y98.0752
G01 X12.1651 Y98.0833
G01 X12.2035 Y98.1475
G01 X12.2082 Y98.1561
G01 X12.2421 Y98.2282
G01 X12.2706 Y98.3079
G01 X12.2912 Y98.3899
G01 X12.3033 Y98.4712
G01 X12.3040 Y98.4785
G01 X12.3077 Y98.5581
G01 X12.3036 Y98.6426
G01 X12.2912 Y98.7263
G01 X12.2706 Y98.8083
G01 X12.2421 Y98.8880
G01 X12.2060 Y98.9644
G01 X12.1625 Y99.0370
G01 X12.1151 Y99.1011
G01 X12.1089 Y99.1087
G01 X12.0553 Y99.1676
G01 X11.9963 Y99.2212
G01 X11.9887 Y99.2274
G01 X11.9287 Y99.2720
G01 X11.9205 Y99.2774
G01 X11.8521 Y99.3183
G01 X11.7801 Y99.3525
G01 X11.7710 Y99.3562
G01 X11.6960 Y99.3830
G01 X11.6139 Y99.4035
G01 X11.5302 Y99.4159
G01 X11.4457 Y99.4201
G01 X11.3612 Y99.4159
G01 X11.2776 Y99.4035
G01 X11.1955 Y99.3830
G01 X11.1159 Y99.3545
G01 X11.0394 Y99.3183
G01 X10.9668 Y99.2748
G01 X10.8989 Y99.2244
G01 X10.8398 Y99.1710
G01 X10.8345 Y99.1659
G01 X10.7794 Y99.1049
G01 X10.7290 Y99.0370
G01 X10.6855 Y98.9644
G01 X10.6494 Y98.8880
G01 X10.6209 Y98.8083
G01 X10.6003 Y98.7263
G01 X10.5879 Y98.6426
G01 X10.5839 Y98.5630
G01 X10.5842 Y98.5455
G01 X9.5996 Y97.5607
G01 X9.5634 Y97.5206
G01 X9.5311 Y97.4773
G01 X9.5257 Y97.4691
G01 X9.5004 Y97.4270
G01 X9.4958 Y97.4184
G01 X9.4728 Y97.3695
G01 X9.4545 Y97.3187
G01 X9.4517 Y97.3093
G01 X9.4387 Y97.2569
G01 X9.4306 Y97.2035
G01 X9.4297 Y97.1937
G01 X9.4271 Y97.1398
G01 X9.4272 Y92.1995
G01 X9.4300 Y92.1432
G01 X9.4378 Y92.0897
G01 X9.4398 Y92.0801
G01 X9.4530 Y92.0278
G01 X9.4711 Y91.9769
G01 X9.4748 Y91.9678
G01 X9.4980 Y91.9190
G01 X9.5270 Y91.8706
G01 X9.5311 Y91.8645
G01 X9.5634 Y91.8212
G01 X9.6030 Y91.7776
G01 X28.1015 Y73.2790
G01 X7.1900 Y52.3674
G01 X7.1536 Y52.3275
G01 X7.1474 Y52.3199
G01 X7.1153 Y52.2765
G01 X7.0874 Y52.2302
G01 X7.0828 Y52.2216
G01 X7.0598 Y52.1727
G01 X7.0415 Y52.1219
G01 X7.0387 Y52.1125
G01 X7.0257 Y52.0601
G01 X7.0176 Y52.0067
G01 X7.0167 Y51.9969
G01 X7.0142 Y51.9455
G01 X7.0141 Y48.7680
G01 X7.0167 Y48.7141
G01 X7.0176 Y48.7043
G01 X7.0257 Y48.6509
G01 X7.0400 Y48.5938
G01 X7.0581 Y48.5429
G01 X7.0618 Y48.5338
G01 X7.0850 Y48.4850
G01 X7.1153 Y48.4345
G01 X7.1504 Y48.3872
G01 X7.1900 Y48.3436
G01 X10.8730 Y44.6606
G01 X10.9166 Y44.6210
G01 X10.9599 Y44.5887
G01 X10.9681 Y44.5833
G01 X11.0166 Y44.5545
G01 X11.0677 Y44.5304
G01 X11.1185 Y44.5121
G01 X11.1279 Y44.5093
G01 X11.1803 Y44.4963
G01 X11.2337 Y44.4882
G01 X11.2435 Y44.4873
G01 X11.2925 Y44.4849
G01 X11.9780 Y44.4848
G01 X12.0344 Y44.4876
G01 X12.0879 Y44.4954
G01 X12.0975 Y44.4974
G01 X12.1451 Y44.5093
G01 X12.1545 Y44.5121
G01 X12.2007 Y44.5287
G01 X12.2098 Y44.5324
G01 X12.2585 Y44.5556
G01 X12.3049 Y44.5833
G01 X12.3131 Y44.5887
G01 X12.3564 Y44.6210
G01 X12.3965 Y44.6572
G01 X12.4042 Y44.6647
G01 X12.4153 Y44.6642
G01 X12.4227 Y44.6643
G01 X12.4974 Y44.6680
G01 X12.5072 Y44.6689
G01 X12.5860 Y44.6808
G01 X12.6633 Y44.7000
G01 X12.6727 Y44.7028
G01 X12.7477 Y44.7298
G01 X12.8241 Y44.7660
G01 X12.8967 Y44.8095
G01 X12.9627 Y44.8583
G01 X12.9684 Y44.8631
G01 X13.0273 Y44.9167
G01 X13.0809 Y44.9756
G01 X13.0872 Y44.9832
G01 X13.1317 Y45.0433
G01 X13.1372 Y45.0514
G01 X13.1780 Y45.1198
G01 X13.2142 Y45.1963
G01 X13.2427 Y45.2760
G01 X13.2632 Y45.3580
G01 X13.2756 Y45.4417
G01 X13.2798 Y45.5262
G01 X13.2756 Y45.6107
G01 X13.2632 Y45.6944
G01 X13.2427 Y45.7764
G01 X13.2142 Y45.8561
G01 X13.1780 Y45.9325
G01 X13.1345 Y46.0051
G01 X13.0841 Y46.0730
G01 X13.0273 Y46.1357
G01 X12.9646 Y46.1925
G01 X12.8967 Y46.2429
G01 X12.8241 Y46.2864
G01 X12.7477 Y46.3226
G01 X12.6680 Y46.3511
G01 X12.5860 Y46.3716
G01 X12.5023 Y46.3840
G01 X12.4178 Y46.3882
G01 X12.3333 Y46.3840
G01 X12.2496 Y46.3716
G01 X12.1676 Y46.3511
G01 X12.0879 Y46.3226
G01 X12.0115 Y46.2864
G01 X11.9389 Y46.2429
G01 X11.8710 Y46.1925
G01 X11.8083 Y46.1357
G01 X11.7515 Y46.0730
G01 X11.7011 Y46.0051
G01 X11.6576 Y45.9325
G01 X11.6214 Y45.8561
G01 X11.5929 Y45.7764
G01 X11.5734 Y45.6991
G01 X11.5709 Y45.6853
G00 Z2.0000
G00 X13.7450 Y48.0965
G01 F100.00
G01 Z0.0000
G01 F350.00
G01 X13.9033 Y48.1055
G01 X14.0590 Y48.1321
G01 X14.2112 Y48.1757
G01 X14.3573 Y48.2364
G01 X14.4959 Y48.3128
G01 X14.6249 Y48.4044
G01 X14.7430 Y48.5096
G01 X14.8482 Y48.6277
G01 X14.9398 Y48.7567
G01 X15.0162 Y48.8953
G01 X15.0769 Y49.0414
G01 X15.1205 Y49.1936
G01 X15.1471 Y49.3493
G01 X15.1561 Y49.5071
G01 X15.1471 Y49.6655
G01 X15.1205 Y49.8212
G01 X15.0769 Y49.9734
G01 X15.0162 Y50.1195
G01 X14.9398 Y50.2581
G01 X14.8482 Y50.3871
G01 X14.7430 Y50.5051
G01 X14.6249 Y50.6104
G01 X14.4959 Y50.7020
G01 X14.3573 Y50.7783
G01 X14.2112 Y50.8391
G01 X14.0590 Y50.8827
G01 X13.9033 Y50.9093
G01 X13.7450 Y50.9183
G01 X13.5871 Y50.9093
G01 X13.4314 Y50.8827
G01 X13.2792 Y50.8391
G01 X13.1331 Y50.7783
G01 X12.9945 Y50.7020
G01 X12.8655 Y50.6104
G01 X12.7474 Y50.5051
G01 X12.6422 Y50.3871
G01 X12.5506 Y50.2581
G01 X12.4742 Y50.1195
G01 X12.4135 Y49.9734
G01 X12.3699 Y49.8212
G01 X12.3433 Y49.6655
G01 X12.3343 Y49.5071
G01 X12.3433 Y49.3493
G01 X12.3699 Y49.1936
G01 X12.4135 Y49.0414
G01 X12.4742 Y48.8953
G01 X12.5506 Y48.7567
G01 X12.6422 Y48.6277
G01 X12.7474 Y48.5096
G01 X12.8655 Y48.4044
G01 X12.9945 Y48.3128
G01 X13.1331 Y48.2364
G01 X13.2792 Y48.1757
G01 X13.4314 Y48.1321
G01 X13.5871 Y48.1055
G01 X13.7450 Y48.0965
G00 Z2.0000
G00 X15.1994 Y44.5857
G01 F100.00
G01 Z0.0000
G01 F350.00
G01 X15.3572 Y44.5947
G01 X15.5134 Y44.6213
G01 X15.6652 Y44.6649
G01 X15.8117 Y44.7256
G01 X15.9497 Y44.8020
G01 X16.0788 Y44.8936
G01 X16.1969 Y44.9988
G01 X16.3021 Y45.1169
G01 X16.3937 Y45.2460
G01 X16.4705 Y45.3845
G01 X16.5308 Y45.5306
G01 X16.5749 Y45.6830
G01 X16.6015 Y45.8383
G01 X16.6100 Y45.9964
G01 X16.6015 Y46.1549
G01 X16.5749 Y46.3102
G01 X16.5308 Y46.4626
G01 X16.4705 Y46.6087
G01 X16.3937 Y46.7472
G01 X16.3021 Y46.8763
G01 X16.1969 Y46.9944
G01 X16.0788 Y47.0996
G01 X15.9497 Y47.1912
G01 X15.8117 Y47.2676
G01 X15.6652 Y47.3283
G01 X15.5134 Y47.3719
G01 X15.3572 Y47.3985
G01 X15.1994 Y47.4075
G01 X15.0415 Y47.3985
G01 X14.8853 Y47.3719
G01 X14.7336 Y47.3283
G01 X14.5870 Y47.2676
G01 X14.4490 Y47.1912
G01 X14.3199 Y47.0996
G01 X14.2019 Y46.9944
G01 X14.0966 Y46.8763
G01 X14.0050 Y46.7472
G01 X13.9282 Y46.6087
G01 X13.8679 Y46.4626
G01 X13.8238 Y46.3102
G01 X13.7973 Y46.1549
G01 X13.7887 Y45.9964
G01 X13.7973 Y45.8383
G01 X13.8238 Y45.6830
G01 X13.8679 Y45.5306
G01 X13.9282 Y45.3845
G01 X14.0050 Y45.2460
G01 X14.0966 Y45.1169
G01 X14.2019 Y44.9988
G01 X14.3199 Y44.8936
G01 X14.4490 Y44.8020
G01 X14.5870 Y44.7256
G01 X14.7336 Y44.6649
G01 X14.8853 Y44.6213
G01 X15.0415 Y44.5947
G01 X15.1994 Y44.5857
G00 Z2.0000
G00 X17.5219 Y46.7087
G01 F100.00
G01 Z0.0000
G01 F350.00
G01 X17.6447 Y46.7201
G01 X17.7649 Y46.7477
G01 X17.8803 Y46.7907
G01 X17.9889 Y46.8494
G01 X18.0888 Y46.9213
G01 X18.1780 Y47.0064
G01 X18.2551 Y47.1027
G01 X18.3189 Y47.2083
G01 X18.3684 Y47.3215
G01 X18.4018 Y47.4394
G01 X18.4193 Y47.5633
G01 X18.4215 Y47.5722
G01 X18.4326 Y47.6079
G01 X18.4374 Y47.6196
G01 X18.4436 Y47.6305
G01 X18.4674 Y47.6632
G01 X18.4741 Y47.6710
G01 X29.6872 Y58.8847
G01 X29.7385 Y58.9465
G01 X29.7483 Y58.9606
G01 X29.7905 Y59.0309
G01 X29.7983 Y59.0461
G01 X29.8293 Y59.1216
G01 X29.8347 Y59.1382
G01 X29.8547 Y59.2172
G01 X29.8575 Y59.2339
G01 X29.8649 Y59.3146
G01 X29.8654 Y64.6847
G01 X29.8659 Y64.6948
G01 X29.8674 Y64.7047
G01 X29.8761 Y64.7468
G01 X29.8796 Y64.7587
G01 X29.8846 Y64.7700
G01 X29.8895 Y64.7786
G01 X29.9138 Y64.8141
G01 X29.9199 Y64.8222
G01 X29.9268 Y64.8296
G01 X30.0179 Y64.9178
G01 X30.1025 Y65.0229
G01 X30.1738 Y65.1384
G01 X30.2306 Y65.2614
G01 X30.2716 Y65.3904
G01 X30.2967 Y65.5241
G01 X30.3051 Y65.6589
G01 X30.3009 Y65.7242
G01 X30.3009 Y65.7364
G01 X30.3019 Y65.7461
G01 X30.3094 Y65.7931
G01 X30.3112 Y65.8002
G01 X30.3135 Y65.8072
G01 X30.3162 Y65.8140
G01 X30.3195 Y65.8206
G01 X30.3461 Y65.8624
G01 X30.3531 Y65.8720
G01 X30.3595 Y65.8791
G01 X33.2432 Y68.7632
G01 X33.2945 Y68.8251
G01 X33.3043 Y68.8392
G01 X33.3463 Y68.9091
G01 X33.3541 Y68.9248
G01 X33.3853 Y69.0002
G01 X33.3907 Y69.0167
G01 X33.4107 Y69.0958
G01 X33.4135 Y69.1125
G01 X33.4209 Y69.1931
G01 X33.4214 Y78.8909
G01 X33.4219 Y78.9006
G01 X33.4233 Y78.9102
G01 X33.4314 Y78.9513
G01 X33.4349 Y78.9633
G01 X33.4387 Y78.9725
G01 X33.4448 Y78.9834
G01 X33.4699 Y79.0205
G01 X33.4742 Y79.0262
G01 X33.4806 Y79.0332
G01 X39.1982 Y84.7508
G01 X39.2034 Y84.7556
G01 X39.2109 Y84.7615
G01 X39.2480 Y84.7866
G01 X39.2544 Y84.7904
G01 X39.2611 Y84.7937
G01 X39.2729 Y84.7981
G01 X39.2826 Y84.8005
G01 X39.3236 Y84.8086
G01 X39.3308 Y84.8095
G01 X39.3405 Y84.8100
G01 X62.7563 Y84.8100
G01 X62.7636 Y84.8097
G01 X62.7732 Y84.8086
G01 X62.8143 Y84.8005
G01 X62.8240 Y84.7981
G01 X62.8310 Y84.7956
G01 X62.8379 Y84.7927
G01 X62.8489 Y84.7866
G01 X62.8859 Y84.7615
G01 X62.8934 Y84.7556
G01 X62.8986 Y84.7508
G01 X81.8387 Y65.8112
G01 X81.9005 Y65.7599
G01 X81.9146 Y65.7501
G01 X81.9845 Y65.7081
G01 X82.0002 Y65.7003
G01 X82.0756 Y65.6691
G01 X82.0921 Y65.6637
G01 X82.1712 Y65.6437
G01 X82.1879 Y65.6409
G01 X82.2686 Y65.6335
G01 X85.9597 Y65.6330
G01 X85.9676 Y65.6327
G01 X85.9779 Y65.6313
G01 X86.0206 Y65.6232
G01 X86.0275 Y65.6211
G01 X86.0342 Y65.6185
G01 X86.0408 Y65.6154
G01 X86.0471 Y65.6119
G01 X86.0802 Y65.5918
G01 X86.0882 Y65.5861
G01 X86.1507 Y65.5318
G01 X86.2551 Y65.4619
G01 X86.3678 Y65.4067
G01 X86.4867 Y65.3661
G01 X86.6098 Y65.3413
G01 X86.7354 Y65.3335
G01 X86.8610 Y65.3413
G01 X86.9841 Y65.3661
G01 X87.1030 Y65.4067
G01 X87.2157 Y65.4619
G01 X87.3201 Y65.5318
G01 X87.4148 Y65.6146
G01 X87.4976 Y65.7093
G01 X87.5675 Y65.8137
G01 X87.6227 Y65.9264
G01 X87.6633 Y66.0453
G01 X87.6881 Y66.1684
G01 X87.6959 Y66.2940
G01 X87.6881 Y66.4196
G01 X87.6633 Y66.5427
G01 X87.6227 Y66.6616
G01 X87.5675 Y66.7743
G01 X87.4976 Y66.8787
G01 X87.4148 Y66.9734
G01 X87.3201 Y67.0562
G01 X87.2157 Y67.1261
G01 X87.1030 Y67.1813
G01 X86.9841 Y67.2219
G01 X86.8610 Y67.2467
G01 X86.7354 Y67.2545
G01 X86.6098 Y67.2467
G01 X86.4867 Y67.2219
G01 X86.3678 Y67.1813
G01 X86.2551 Y67.1261
G01 X86.1507 Y67.0562
G01 X86.0882 Y67.0019
G01 X86.0802 Y66.9962
G01 X86.0450 Y66.9749
G01 X86.0386 Y66.9715
G01 X86.0320 Y66.9686
G01 X86.0252 Y66.9662
G01 X86.0182 Y66.9643
G01 X85.9754 Y66.9562
G01 X85.9649 Y66.9551
G01 X82.6475 Y66.9550
G01 X82.6402 Y66.9552
G01 X82.6306 Y66.9564
G01 X82.5871 Y66.9650
G01 X82.5751 Y66.9685
G01 X82.5636 Y66.9734
G01 X82.5550 Y66.9784
G01 X82.5179 Y67.0035
G01 X82.5104 Y67.0094
G01 X82.5052 Y67.0142
G01 X79.0061 Y70.5136
G01 X78.9980 Y70.5237
G01 X78.9724 Y70.5629
G01 X78.9668 Y70.5735
G01 X78.9632 Y70.5823
G01 X78.9610 Y70.5892
G01 X78.9594 Y70.5962
G01 X78.9514 Y70.6422
G01 X78.9504 Y70.6547
G01 X78.9509 Y70.6673
G01 X78.9530 Y70.6797
G01 X78.9650 Y70.7250
G01 X78.9690 Y70.7363
G01 X78.9743 Y70.7470
G01 X78.9808 Y70.7570
G01 X79.0124 Y70.7970
G01 X79.0175 Y70.8023
G01 X79.0230 Y70.8072
G01 X79.0309 Y70.8130
G01 X79.0372 Y70.8169
G01 X79.0807 Y70.8400
G01 X79.0895 Y70.8437
G01 X79.1009 Y70.8471
G01 X79.1126 Y70.8491
G01 X79.1591 Y70.8530
G01 X79.1714 Y70.8530
G01 X79.1836 Y70.8515
G01 X79.1908 Y70.8499
G01 X79.1979 Y70.8477
G01 X79.2375 Y70.8340
G01 X79.2463 Y70.8305
G01 X79.2566 Y70.8250
G01 X79.3177 Y70.7880
G01 X79.3332 Y70.7803
G01 X79.4086 Y70.7491
G01 X79.4251 Y70.7437
G01 X79.5042 Y70.7237
G01 X79.5209 Y70.7209
G01 X79.6016 Y70.7135
G01 X85.9649 Y70.7129
G01 X85.9754 Y70.7118
G01 X86.0182 Y70.7037
G01 X86.0252 Y70.7018
G01 X86.0320 Y70.6994
G01 X86.0386 Y70.6965
G01 X86.0450 Y70.6931
G01 X86.0802 Y70.6718
G01 X86.0882 Y70.6661
G01 X86.1507 Y70.6118
G01 X86.2551 Y70.5419
G01 X86.3678 Y70.4867
G01 X86.4867 Y70.4461
G01 X86.6098 Y70.4213
G01 X86.7354 Y70.4135
G01 X86.8610 Y70.4213
G01 X86.9841 Y70.4461
G01 X87.1030 Y70.4867
G01 X87.2157 Y70.5419
G01 X87.3201 Y70.6118
G01 X87.4149 Y70.6946
G01 X87.4988 Y70.7906
G01 X87.5057 Y70.7977
G01 X87.5133 Y70.8042
G01 X87.5458 Y70.8291
G01 X87.5559 Y70.8359
G01 X87.5624 Y70.8393
G01 X87.5690 Y70.8423
G01 X87.5806 Y70.8462
G01 X87.6250 Y70.8570
G01 X87.6321 Y70.8583
G01 X87.6394 Y70.8591
G01 X87.6516 Y70.8592
G01 X87.6613 Y70.8582
G01 X87.7062 Y70.8512
G01 X87.7133 Y70.8495
G01 X87.7225 Y70.8465
G01 X87.7314 Y70.8425
G01 X87.7378 Y70.8390
G01 X87.7785 Y70.8131
G01 X87.7844 Y70.8086
G01 X87.7900 Y70.8037
G01 X87.7969 Y70.7964
G01 X87.8015 Y70.7906
G01 X87.8277 Y70.7531
G01 X87.8326 Y70.7448
G01 X87.8366 Y70.7362
G01 X87.8399 Y70.7272
G01 X87.8417 Y70.7203
G01 X87.8513 Y70.6733
G01 X87.8521 Y70.6658
G01 X87.8524 Y70.6582
G01 X87.8524 Y69.9531
G01 X87.8519 Y69.9434
G01 X87.8505 Y69.9338
G01 X87.8424 Y69.8927
G01 X87.8405 Y69.8854
G01 X87.8371 Y69.8760
G01 X87.8340 Y69.8692
G01 X87.8290 Y69.8605
G01 X87.8011 Y69.8197
G01 X87.7932 Y69.8108
G01 X87.5863 Y69.6042
G01 X87.5769 Y69.5970
G01 X87.5391 Y69.5718
G01 X87.5327 Y69.5684
G01 X87.5260 Y69.5654
G01 X87.5190 Y69.5630
G01 X87.5120 Y69.5611
G01 X87.4701 Y69.5515
G01 X87.4629 Y69.5504
G01 X87.4532 Y69.5498
G01 X87.4459 Y69.5500
G01 X87.4386 Y69.5508
G01 X87.3912 Y69.5587
G01 X87.3816 Y69.5615
G01 X87.3701 Y69.5664
G01 X87.3288 Y69.5906
G01 X87.2158 Y69.6661
G01 X87.1030 Y69.7213
G01 X86.9841 Y69.7619
G01 X86.8610 Y69.7867
G01 X86.7354 Y69.7945
G01 X86.6098 Y69.7867
G01 X86.4867 Y69.7619
G01 X86.3678 Y69.7213
G01 X86.2551 Y69.6661
G01 X86.1507 Y69.5962
G01 X86.0560 Y69.5134
G01 X85.9732 Y69.4187
G01 X85.9033 Y69.3143
G01 X85.8481 Y69.2016
G01 X85.8075 Y69.0827
G01 X85.7827 Y68.9596
G01 X85.7749 Y68.8340
G01 X85.7827 Y68.7084
G01 X85.8075 Y68.5853
G01 X85.8481 Y68.4664
G01 X85.9033 Y68.3537
G01 X85.9732 Y68.2493
G01 X86.0560 Y68.1546
G01 X86.1507 Y68.0718
G01 X86.2551 Y68.0019
G01 X86.3678 Y67.9467
G01 X86.4867 Y67.9061
G01 X86.6098 Y67.8813
G01 X86.7354 Y67.8735
G01 X86.8610 Y67.8813
G01 X86.9841 Y67.9061
G01 X87.1030 Y67.9467
G01 X87.2157 Y68.0019
G01 X87.3201 Y68.0718
G01 X87.3788 Y68.1230
G01 X87.3866 Y68.1291
G01 X87.4279 Y68.1543
G01 X87.4366 Y68.1585
G01 X87.4456 Y68.1618
G01 X87.4549 Y68.1643
G01 X87.4929 Y68.1713
G01 X87.5057 Y68.1729
G01 X87.7732 Y68.1735
G01 X87.8539 Y68.1809
G01 X87.8706 Y68.1837
G01 X87.9497 Y68.2037
G01 X87.9662 Y68.2091
G01 X88.0416 Y68.2403
G01 X88.0573 Y68.2481
G01 X88.1272 Y68.2901
G01 X88.1413 Y68.2999
G01 X88.2032 Y68.3512
G01 X88.9962 Y69.1442
G01 X89.0475 Y69.2061
G01 X89.0573 Y69.2202
G01 X89.0993 Y69.2901
G01 X89.1071 Y69.3058
G01 X89.1383 Y69.3812
G01 X89.1437 Y69.3977
G01 X89.1637 Y69.4768
G01 X89.1665 Y69.4935
G01 X89.1739 Y69.5741
G01 X89.1739 Y83.9688
G01 X89.1665 Y84.0495
G01 X89.1637 Y84.0662
G01 X89.1437 Y84.1453
G01 X89.1383 Y84.1618
G01 X89.1071 Y84.2372
G01 X89.0993 Y84.2529
G01 X89.0573 Y84.3228
G01 X89.0475 Y84.3369
G01 X88.9962 Y84.3987
G01 X85.4092 Y87.9858
G01 X85.3473 Y88.0371
G01 X85.3332 Y88.0469
G01 X85.2633 Y88.0889
G01 X85.2476 Y88.0967
G01 X85.1722 Y88.1279
G01 X85.1557 Y88.1333
G01 X85.0766 Y88.1533
G01 X85.0599 Y88.1561
G01 X84.9793 Y88.1635
G01 X74.0115 Y88.1640
G01 X74.0018 Y88.1645
G01 X73.9922 Y88.1659
G01 X73.9511 Y88.1740
G01 X73.9391 Y88.1775
G01 X73.9299 Y88.1813
G01 X73.9190 Y88.1874
G01 X73.8819 Y88.2125
G01 X73.8762 Y88.2168
G01 X73.8692 Y88.2232
G01 X71.1996 Y90.8928
G01 X71.1948 Y90.8980
G01 X71.1889 Y90.9055
G01 X71.1638 Y90.9425
G01 X71.1589 Y90.9512
G01 X71.1539 Y90.9627
G01 X71.1504 Y90.9747
G01 X71.1418 Y91.0182
G01 X71.1409 Y91.0254
G01 X71.1404 Y91.0327
G01 X71.1404 Y92.3341
G01 X71.1412 Y92.3470
G01 X71.1502 Y92.3953
G01 X71.1523 Y92.4022
G01 X71.1549 Y92.4090
G01 X71.1603 Y92.4199
G01 X71.1803 Y92.4530
G01 X71.1858 Y92.4611
G01 X71.2315 Y92.5139
G01 X71.3004 Y92.6168
G01 X71.3551 Y92.7280
G01 X71.3951 Y92.8457
G01 X71.4194 Y92.9675
G01 X71.4277 Y93.0910
G01 X71.4194 Y93.2144
G01 X71.3951 Y93.3363
G01 X71.3551 Y93.4540
G01 X71.3004 Y93.5651
G01 X71.2315 Y93.6680
G01 X71.1497 Y93.7613
G01 X71.0564 Y93.8431
G01 X70.9536 Y93.9120
G01 X70.8424 Y93.9666
G01 X70.7247 Y94.0067
G01 X70.6029 Y94.0310
G01 X70.4794 Y94.0393
G01 X70.3560 Y94.0310
G01 X70.2341 Y94.0067
G01 X70.1164 Y93.9666
G01 X70.0053 Y93.9120
G01 X69.9024 Y93.8431
G01 X69.8091 Y93.7613
G01 X69.7273 Y93.6680
G01 X69.6584 Y93.5651
G01 X69.6038 Y93.4540
G01 X69.5637 Y93.3363
G01 X69.5394 Y93.2144
G01 X69.5311 Y93.0910
G01 X69.5394 Y92.9675
G01 X69.5637 Y92.8457
G01 X69.6038 Y92.7280
G01 X69.6584 Y92.6168
G01 X69.7274 Y92.5139
G01 X69.7730 Y92.4611
G01 X69.7785 Y92.4530
G01 X69.7986 Y92.4199
G01 X69.8039 Y92.4090
G01 X69.8065 Y92.4022
G01 X69.8086 Y92.3953
G01 X69.8176 Y92.3470
G01 X69.8184 Y92.3341
G01 X69.8189 Y90.6562
G01 X69.8263 Y90.5755
G01 X69.8291 Y90.5588
G01 X69.8491 Y90.4797
G01 X69.8545 Y90.4632
G01 X69.8857 Y90.3878
G01 X69.8935 Y90.3721
G01 X69.9355 Y90.3022
G01 X69.9453 Y90.2881
G01 X69.9966 Y90.2262
G01 X73.2027 Y87.0202
G01 X73.2645 Y86.9689
G01 X73.2786 Y86.9591
G01 X73.3485 Y86.9171
G01 X73.3642 Y86.9093
G01 X73.4396 Y86.8781
G01 X73.4561 Y86.8727
G01 X73.5352 Y86.8527
G01 X73.5519 Y86.8499
G01 X73.6326 Y86.8425
G01 X84.6003 Y86.8420
G01 X84.6100 Y86.8415
G01 X84.6172 Y86.8406
G01 X84.6607 Y86.8320
G01 X84.6703 Y86.8293
G01 X84.6774 Y86.8267
G01 X84.6842 Y86.8235
G01 X84.6907 Y86.8199
G01 X84.7299 Y86.7935
G01 X84.7374 Y86.7876
G01 X84.7426 Y86.7828
G01 X87.7932 Y83.7322
G01 X87.7980 Y83.7270
G01 X87.8039 Y83.7195
G01 X87.8316 Y83.6782
G01 X87.8351 Y83.6715
G01 X87.8380 Y83.6646
G01 X87.8405 Y83.6575
G01 X87.8424 Y83.6503
G01 X87.8510 Y83.6068
G01 X87.8522 Y83.5972
G01 X87.8524 Y83.5899
G01 X87.8524 Y74.6298
G01 X87.8519 Y74.6197
G01 X87.8504 Y74.6097
G01 X87.8417 Y74.5677
G01 X87.8399 Y74.5608
G01 X87.8375 Y74.5540
G01 X87.8326 Y74.5431
G01 X87.8277 Y74.5349
G01 X87.7985 Y74.4935
G01 X87.7900 Y74.4843
G01 X87.7805 Y74.4763
G01 X87.7398 Y74.4503
G01 X87.7314 Y74.4455
G01 X87.7248 Y74.4424
G01 X87.7179 Y74.4399
G01 X87.7086 Y74.4373
G01 X87.6588 Y74.4295
G01 X87.6516 Y74.4288
G01 X87.6418 Y74.4288
G01 X87.6321 Y74.4297
G01 X87.6250 Y74.4310
G01 X87.5830 Y74.4412
G01 X87.5736 Y74.4439
G01 X87.5624 Y74.4487
G01 X87.5559 Y74.4521
G01 X87.5498 Y74.4561
G01 X87.5133 Y74.4838
G01 X87.5057 Y74.4902
G01 X87.4988 Y74.4974
G01 X87.4149 Y74.5934
G01 X87.3201 Y74.6762
G01 X87.2157 Y74.7461
G01 X87.1030 Y74.8013
G01 X86.9841 Y74.8419
G01 X86.8610 Y74.8667
G01 X86.7354 Y74.8745
G01 X86.6098 Y74.8667
G01 X86.4867 Y74.8419
G01 X86.3678 Y74.8013
G01 X86.2551 Y74.7461
G01 X86.1507 Y74.6762
G01 X86.0882 Y74.6219
G01 X86.0802 Y74.6162
G01 X86.0450 Y74.5949
G01 X86.0386 Y74.5915
G01 X86.0320 Y74.5886
G01 X86.0252 Y74.5862
G01 X86.0182 Y74.5843
G01 X85.9754 Y74.5762
G01 X85.9649 Y74.5751
G01 X80.3615 Y74.5750
G01 X80.3494 Y74.5757
G01 X80.3011 Y74.5850
G01 X80.2915 Y74.5877
G01 X80.2821 Y74.5913
G01 X80.2754 Y74.5946
G01 X80.2690 Y74.5984
G01 X80.2338 Y74.6221
G01 X80.2262 Y74.6278
G01 X80.2192 Y74.6342
G01 X64.3416 Y90.5118
G01 X64.3352 Y90.5188
G01 X64.3309 Y90.5245
G01 X64.3045 Y90.5637
G01 X64.3009 Y90.5702
G01 X64.2977 Y90.5770
G01 X64.2951 Y90.5841
G01 X64.2930 Y90.5913
G01 X64.2838 Y90.6372
G01 X64.2829 Y90.6444
G01 X64.2824 Y90.6541
G01 X64.2824 Y117.7529
G01 X64.2827 Y117.7602
G01 X64.2835 Y117.7674
G01 X64.2924 Y117.8133
G01 X64.2951 Y117.8229
G01 X64.2987 Y117.8323
G01 X64.3020 Y117.8390
G01 X64.3058 Y117.8454
G01 X64.3295 Y117.8806
G01 X64.3352 Y117.8882
G01 X64.3416 Y117.8952
G01 X67.3383 Y120.8919
G01 X67.3436 Y120.8968
G01 X67.3530 Y120.9040
G01 X67.3947 Y120.9307
G01 X67.4034 Y120.9352
G01 X67.4102 Y120.9379
G01 X67.4172 Y120.9402
G01 X67.4243 Y120.9420
G01 X67.4713 Y120.9495
G01 X67.4810 Y120.9505
G01 X67.4932 Y120.9505
G01 X67.5585 Y120.9463
G01 X67.6933 Y120.9547
G01 X67.8270 Y120.9798
G01 X67.9560 Y121.0208
G01 X68.0790 Y121.0776
G01 X68.1945 Y121.1489
G01 X68.2997 Y121.2336
G01 X68.3942 Y121.3309
G01 X68.4757 Y121.4389
G01 X68.5436 Y121.5562
G01 X68.5962 Y121.6810
G01 X68.6335 Y121.8115
G01 X68.6545 Y121.9454
G01 X68.6582 Y122.0810
G01 X68.6461 Y122.2160
G01 X68.6167 Y122.3482
G01 X68.5720 Y122.4759
G01 X68.5116 Y122.5973
G01 X68.4366 Y122.7100
G01 X68.3485 Y122.8129
G01 X68.2484 Y122.9042
G01 X68.1376 Y122.9829
G01 X68.0185 Y123.0466
G01 X67.8923 Y123.0955
G01 X67.7604 Y123.1286
G01 X67.6263 Y123.1454
G01 X67.4905 Y123.1454
G01 X67.3564 Y123.1286
G01 X67.2245 Y123.0955
G01 X67.0983 Y123.0466
G01 X66.9792 Y122.9829
G01 X66.8684 Y122.9042
G01 X66.7682 Y122.8129
G01 X66.7371 Y122.7766
G01 X66.7303 Y122.7697
G01 X66.7228 Y122.7635
G01 X66.6842 Y122.7348
G01 X66.6779 Y122.7308
G01 X66.6691 Y122.7263
G01 X66.6622 Y122.7236
G01 X66.6551 Y122.7213
G01 X66.6052 Y122.7099
G01 X66.5979 Y122.7087
G01 X66.5905 Y122.7081
G01 X60.3230 Y122.7080
G01 X60.3157 Y122.7082
G01 X60.3060 Y122.7094
G01 X60.2625 Y122.7180
G01 X60.2553 Y122.7199
G01 X60.2482 Y122.7224
G01 X60.2413 Y122.7253
G01 X60.2347 Y122.7288
G01 X60.1933 Y122.7565
G01 X60.1877 Y122.7608
G01 X60.1806 Y122.7672
G01 X51.2680 Y131.6794
G01 X51.2595 Y131.6896
G01 X51.2393 Y131.7175
G01 X51.2341 Y131.7259
G01 X51.2308 Y131.7325
G01 X51.2280 Y131.7393
G01 X51.2167 Y131.7745
G01 X51.2147 Y131.7817
G01 X51.2133 Y131.7891
G01 X51.1915 Y131.9272
G01 X51.1562 Y132.0449
G01 X51.1054 Y132.1570
G01 X51.0399 Y132.2615
G01 X50.9611 Y132.3564
G01 X50.8704 Y132.4397
G01 X50.7691 Y132.5103
G01 X50.6596 Y132.5666
G01 X50.5436 Y132.6079
G01 X50.4231 Y132.6336
G01 X50.3002 Y132.6427
G01 X50.1770 Y132.6359
G01 X50.0561 Y132.6121
G01 X49.9391 Y132.5726
G01 X49.8287 Y132.5181
G01 X49.7266 Y132.4494
G01 X49.6345 Y132.3674
G01 X49.5543 Y132.2739
G01 X49.4869 Y132.1703
G01 X49.4342 Y132.0589
G01 X49.3966 Y131.9416
G01 X49.3751 Y131.8202
G01 X49.3701 Y131.6975
G01 X49.3816 Y131.5747
G01 X49.4091 Y131.4545
G01 X49.4521 Y131.3391
G01 X49.5108 Y131.2305
G01 X49.5827 Y131.1306
G01 X49.6678 Y131.0414
G01 X49.7641 Y130.9643
G01 X49.8697 Y130.9005
G01 X49.9829 Y130.8510
G01 X50.1009 Y130.8176
G01 X50.2247 Y130.8001
G01 X50.2337 Y130.7979
G01 X50.2693 Y130.7868
G01 X50.2810 Y130.7820
G01 X50.2920 Y130.7758
G01 X50.3246 Y130.7520
G01 X50.3324 Y130.7453
G01 X59.5141 Y121.5642
G01 X59.5759 Y121.5129
G01 X59.5900 Y121.5031
G01 X59.6603 Y121.4609
G01 X59.6755 Y121.4531
G01 X59.7510 Y121.4221
G01 X59.7676 Y121.4167
G01 X59.8467 Y121.3967
G01 X59.8633 Y121.3939
G01 X59.9440 Y121.3865
G01 X65.4804 Y121.3859
G01 X65.4924 Y121.3846
G01 X65.5338 Y121.3765
G01 X65.5432 Y121.3742
G01 X65.5501 Y121.3719
G01 X65.5589 Y121.3681
G01 X65.5673 Y121.3634
G01 X65.6059 Y121.3370
G01 X65.6118 Y121.3324
G01 X65.6173 Y121.3274
G01 X65.6224 Y121.3219
G01 X65.6286 Y121.3141
G01 X65.6551 Y121.2749
G01 X65.6609 Y121.2638
G01 X65.6653 Y121.2521
G01 X65.6677 Y121.2424
G01 X65.6757 Y121.2014
G01 X65.6767 Y121.1942
G01 X65.6772 Y121.1870
G01 X65.6769 Y121.1773
G01 X65.6762 Y121.1701
G01 X65.6672 Y121.1237
G01 X65.6653 Y121.1164
G01 X65.6629 Y121.1093
G01 X65.6588 Y121.1001
G01 X65.6551 Y121.0935
G01 X65.6287 Y121.0543
G01 X65.6243 Y121.0486
G01 X65.6196 Y121.0433
G01 X63.1386 Y118.5617
G01 X63.0873 Y118.4999
G01 X63.0775 Y118.4858
G01 X63.0355 Y118.4159
G01 X63.0277 Y118.4002
G01 X62.9965 Y118.3248
G01 X62.9911 Y118.3083
G01 X62.9711 Y118.2292
G01 X62.9683 Y118.2125
G01 X62.9609 Y118.1318
G01 X62.9609 Y90.2751
G01 X62.9683 Y90.1945
G01 X62.9711 Y90.1778
G01 X62.9911 Y90.0987
G01 X62.9965 Y90.0822
G01 X63.0277 Y90.0068
G01 X63.0355 Y89.9911
G01 X63.0775 Y89.9212
G01 X63.0873 Y89.9071
G01 X63.1386 Y89.8452
G01 X79.5527 Y73.4312
G01 X79.6145 Y73.3799
G01 X79.6286 Y73.3701
G01 X79.6985 Y73.3281
G01 X79.7142 Y73.3203
G01 X79.7896 Y73.2891
G01 X79.8061 Y73.2837
G01 X79.8852 Y73.2637
G01 X79.9019 Y73.2609
G01 X79.9826 Y73.2535
G01 X85.9649 Y73.2529
G01 X85.9754 Y73.2518
G01 X86.0182 Y73.2437
G01 X86.0252 Y73.2418
G01 X86.0320 Y73.2394
G01 X86.0386 Y73.2365
G01 X86.0450 Y73.2331
G01 X86.0802 Y73.2118
G01 X86.0882 Y73.2061
G01 X86.1507 Y73.1518
G01 X86.2551 Y73.0819
G01 X86.3678 Y73.0267
G01 X86.4867 Y72.9861
G01 X86.6098 Y72.9613
G01 X86.7354 Y72.9535
G01 X86.8610 Y72.9613
G01 X86.9841 Y72.9861
G01 X87.1030 Y73.0267
G01 X87.2157 Y73.0819
G01 X87.3201 Y73.1518
G01 X87.4149 Y73.2346
G01 X87.4988 Y73.3306
G01 X87.5057 Y73.3377
G01 X87.5133 Y73.3442
G01 X87.5458 Y73.3691
G01 X87.5539 Y73.3746
G01 X87.5646 Y73.3804
G01 X87.5713 Y73.3832
G01 X87.5783 Y73.3856
G01 X87.6226 Y73.3965
G01 X87.6346 Y73.3986
G01 X87.6443 Y73.3993
G01 X87.6564 Y73.3988
G01 X87.7038 Y73.3917
G01 X87.7133 Y73.3895
G01 X87.7225 Y73.3865
G01 X87.7314 Y73.3825
G01 X87.7378 Y73.3790
G01 X87.7805 Y73.3517
G01 X87.7900 Y73.3437
G01 X87.7985 Y73.3345
G01 X87.8277 Y73.2931
G01 X87.8326 Y73.2848
G01 X87.8366 Y73.2762
G01 X87.8399 Y73.2672
G01 X87.8417 Y73.2603
G01 X87.8504 Y73.2183
G01 X87.8519 Y73.2083
G01 X87.8524 Y73.1982
G01 X87.8524 Y72.0898
G01 X87.8519 Y72.0797
G01 X87.8504 Y72.0697
G01 X87.8417 Y72.0277
G01 X87.8399 Y72.0208
G01 X87.8375 Y72.0140
G01 X87.8326 Y72.0031
G01 X87.8277 Y71.9949
G01 X87.8015 Y71.9574
G01 X87.7969 Y71.9516
G01 X87.7918 Y71.9461
G01 X87.7844 Y71.9394
G01 X87.7765 Y71.9335
G01 X87.7378 Y71.9090
G01 X87.7270 Y71.9034
G01 X87.7156 Y71.8991
G01 X87.7038 Y71.8963
G01 X87.6588 Y71.8895
G01 X87.6467 Y71.8887
G01 X87.6370 Y71.8891
G01 X87.6273 Y71.8905
G01 X87.5783 Y71.9024
G01 X87.5713 Y71.9048
G01 X87.5646 Y71.9076
G01 X87.5581 Y71.9109
G01 X87.5518 Y71.9147
G01 X87.5133 Y71.9438
G01 X87.5076 Y71.9486
G01 X87.4988 Y71.9574
G01 X87.4149 Y72.0534
G01 X87.3201 Y72.1362
G01 X87.2157 Y72.2061
G01 X87.1030 Y72.2613
G01 X86.9841 Y72.3019
G01 X86.8610 Y72.3267
G01 X86.7354 Y72.3345
G01 X86.6098 Y72.3267
G01 X86.4867 Y72.3019
G01 X86.3678 Y72.2613
G01 X86.2551 Y72.2061
G01 X86.1507 Y72.1362
G01 X86.0882 Y72.0819
G01 X86.0802 Y72.0762
G01 X86.0450 Y72.0549
G01 X86.0386 Y72.0515
G01 X86.0320 Y72.0486
G01 X86.0252 Y72.0462
G01 X86.0182 Y72.0443
G01 X85.9754 Y72.0362
G01 X85.9649 Y72.0351
G01 X79.9805 Y72.0350
G01 X79.9708 Y72.0355
G01 X79.9636 Y72.0364
G01 X79.9177 Y72.0456
G01 X79.9105 Y72.0477
G01 X79.9011 Y72.0513
G01 X79.8922 Y72.0558
G01 X79.8859 Y72.0598
G01 X79.8509 Y72.0835
G01 X79.8452 Y72.0878
G01 X79.8382 Y72.0942
G01 X63.9462 Y87.9858
G01 X63.8843 Y88.0371
G01 X63.8702 Y88.0469
G01 X63.8003 Y88.0889
G01 X63.7846 Y88.0967
G01 X63.7092 Y88.1279
G01 X63.6927 Y88.1333
G01 X63.6136 Y88.1533
G01 X63.5969 Y88.1561
G01 X63.5163 Y88.1635
G01 X36.0406 Y88.1635
G01 X35.9599 Y88.1561
G01 X35.9432 Y88.1533
G01 X35.8641 Y88.1333
G01 X35.8476 Y88.1279
G01 X35.7722 Y88.0967
G01 X35.7565 Y88.0889
G01 X35.6866 Y88.0469
G01 X35.6725 Y88.0371
G01 X35.6107 Y87.9858
G01 X29.5501 Y81.9258
G01 X29.5444 Y81.9208
G01 X29.5362 Y81.9147
G01 X29.5001 Y81.8911
G01 X29.4939 Y81.8875
G01 X29.4874 Y81.8844
G01 X29.4784 Y81.8810
G01 X29.4692 Y81.8784
G01 X29.4189 Y81.8696
G01 X29.4114 Y81.8690
G01 X29.4039 Y81.8689
G01 X29.2969 Y81.8718
G01 X29.2677 Y81.8695
G01 X29.2573 Y81.8695
G01 X29.2496 Y81.8702
G01 X29.2034 Y81.8761
G01 X29.1960 Y81.8775
G01 X29.1863 Y81.8803
G01 X29.1792 Y81.8830
G01 X29.1702 Y81.8875
G01 X29.1282 Y81.9134
G01 X29.1199 Y81.9192
G01 X29.1103 Y81.9276
G01 X17.3247 Y93.7137
G01 X17.3196 Y93.7192
G01 X17.3120 Y93.7292
G01 X17.2863 Y93.7686
G01 X17.2830 Y93.7752
G01 X17.2801 Y93.7820
G01 X17.2777 Y93.7890
G01 X17.2759 Y93.7961
G01 X17.2673 Y93.8406
G01 X17.2662 Y93.8504
G01 X17.2660 Y93.8578
G01 X17.2663 Y93.8652
G01 X17.2676 Y93.8750
G01 X17.2762 Y93.9165
G01 X17.2780 Y93.9238
G01 X17.2803 Y93.9310
G01 X17.2832 Y93.9379
G01 X17.2878 Y93.9468
G01 X17.3147 Y93.9861
G01 X17.3225 Y93.9959
G01 X17.3313 Y94.0046
G01 X17.3412 Y94.0122
G01 X17.3789 Y94.0362
G01 X17.3897 Y94.0418
G01 X17.3987 Y94.0453
G01 X17.4081 Y94.0480
G01 X17.4549 Y94.0565
G01 X17.4623 Y94.0573
G01 X17.4697 Y94.0576
G01 X17.4821 Y94.0569
G01 X17.4919 Y94.0552
G01 X17.5380 Y94.0446
G01 X17.5500 Y94.0401
G01 X17.6077 Y94.0139
G01 X17.7051 Y93.9875
G01 X17.8058 Y93.9756
G01 X17.9065 Y93.9795
G01 X18.0059 Y93.9990
G01 X18.1011 Y94.0329
G01 X18.1896 Y94.0813
G01 X18.2700 Y94.1427
G01 X18.3401 Y94.2155
G01 X18.3984 Y94.2985
G01 X18.4434 Y94.3889
G01 X18.4738 Y94.4854
G01 X18.4892 Y94.5851
G01 X18.4892 Y94.6865
G01 X18.4738 Y94.7862
G01 X18.4434 Y94.8828
G01 X18.3984 Y94.9731
G01 X18.3401 Y95.0561
G01 X18.2700 Y95.1289
G01 X18.1896 Y95.1903
G01 X18.1011 Y95.2387
G01 X18.0059 Y95.2727
G01 X17.9065 Y95.2921
G01 X17.8058 Y95.2961
G01 X17.7051 Y95.2841
G01 X17.6076 Y95.2577
G01 X17.5159 Y95.2164
G01 X17.4960 Y95.2035
G01 X17.4849 Y95.1978
G01 X17.4349 Y95.1791
G01 X17.4252 Y95.1765
G01 X17.4152 Y95.1749
G01 X17.4076 Y95.1744
G01 X17.4001 Y95.1745
G01 X17.3520 Y95.1779
G01 X17.3402 Y95.1797
G01 X17.3287 Y95.1829
G01 X17.3220 Y95.1855
G01 X17.3155 Y95.1886
G01 X17.2710 Y95.2130
G01 X17.2647 Y95.2172
G01 X17.2588 Y95.2219
G01 X17.2497 Y95.2305
G01 X17.2433 Y95.2383
G01 X17.2160 Y95.2747
G01 X17.2108 Y95.2828
G01 X17.2064 Y95.2912
G01 X17.2029 Y95.3001
G01 X17.2002 Y95.3093
G01 X17.1905 Y95.3538
G01 X17.1887 Y95.3655
G01 X17.1883 Y95.3750
G01 X17.1883 Y95.7370
G01 X17.1893 Y95.7490
G01 X17.1952 Y95.7843
G01 X17.1981 Y95.7964
G01 X17.2024 Y95.8081
G01 X17.2056 Y95.8148
G01 X17.2238 Y95.8485
G01 X17.2306 Y95.8585
G01 X17.2920 Y95.9374
G01 X17.3539 Y96.0442
G01 X17.4011 Y96.1579
G01 X17.4327 Y96.2771
G01 X17.4483 Y96.3993
G01 X17.4469 Y96.5225
G01 X17.4295 Y96.6446
G01 X17.3960 Y96.7633
G01 X17.3470 Y96.8764
G01 X17.2833 Y96.9818
G01 X17.2063 Y97.0780
G01 X17.1170 Y97.1627
G01 X17.0171 Y97.2352
G01 X16.9085 Y97.2934
G01 X16.7930 Y97.3369
G01 X16.6729 Y97.3644
G01 X16.5502 Y97.3758
G01 X16.4270 Y97.3704
G01 X16.3053 Y97.3488
G01 X16.1881 Y97.3117
G01 X16.0769 Y97.2586
G01 X15.9738 Y97.1917
G01 X15.8803 Y97.1110
G01 X15.7982 Y97.0189
G01 X15.7295 Y96.9166
G01 X15.6744 Y96.8062
G01 X15.6351 Y96.6895
G01 X15.6117 Y96.5684
G01 X15.6044 Y96.4456
G01 X15.6135 Y96.3229
G01 X15.6392 Y96.2023
G01 X15.6804 Y96.0859
G01 X15.7372 Y95.9765
G01 X15.8412 Y95.8274
G01 X15.8474 Y95.8172
G01 X15.8524 Y95.8063
G01 X15.8561 Y95.7950
G01 X15.8650 Y95.7463
G01 X15.8658 Y95.7336
G01 X15.8663 Y93.5546
G01 X15.8741 Y93.4739
G01 X15.8770 Y93.4567
G01 X15.8965 Y93.3776
G01 X15.9015 Y93.3622
G01 X15.9422 Y93.2685
G01 X15.9830 Y93.2009
G01 X15.9928 Y93.1872
G01 X16.0445 Y93.1249
G01 X28.1754 Y80.9929
G01 X28.1802 Y80.9876
G01 X28.1845 Y80.9819
G01 X28.2082 Y80.9469
G01 X28.2122 Y80.9405
G01 X28.2168 Y80.9315
G01 X28.2204 Y80.9222
G01 X28.2225 Y80.9149
G01 X28.2312 Y80.8709
G01 X28.2326 Y80.8614
G01 X28.2330 Y80.8517
G01 X28.2330 Y80.7041
G01 X28.2498 Y80.5700
G01 X28.2829 Y80.4381
G01 X28.3318 Y80.3119
G01 X28.3955 Y80.1928
G01 X28.4742 Y80.0820
G01 X28.5655 Y79.9819
G01 X28.6684 Y79.8938
G01 X28.7811 Y79.8188
G01 X28.9025 Y79.7584
G01 X29.0302 Y79.7137
G01 X29.1625 Y79.6843
G01 X29.2974 Y79.6717
G01 X29.4329 Y79.6759
G01 X29.5669 Y79.6969
G01 X29.6974 Y79.7342
G01 X29.8222 Y79.7868
G01 X29.9395 Y79.8547
G01 X30.0475 Y79.9362
G01 X30.1448 Y80.0307
G01 X30.2295 Y80.1359
G01 X30.3008 Y80.2514
G01 X30.3576 Y80.3744
G01 X30.3986 Y80.5034
G01 X30.4237 Y80.6371
G01 X30.4321 Y80.7719
G01 X30.4279 Y80.8372
G01 X30.4279 Y80.8494
G01 X30.4289 Y80.8591
G01 X30.4364 Y80.9061
G01 X30.4382 Y80.9132
G01 X30.4405 Y80.9202
G01 X30.4443 Y80.9292
G01 X30.4477 Y80.9357
G01 X30.4744 Y80.9774
G01 X30.4786 Y80.9832
G01 X30.4832 Y80.9886
G01 X36.2772 Y86.7828
G01 X36.2842 Y86.7892
G01 X36.2918 Y86.7949
G01 X36.3270 Y86.8186
G01 X36.3379 Y86.8247
G01 X36.3471 Y86.8285
G01 X36.3567 Y86.8314
G01 X36.4002 Y86.8401
G01 X36.4098 Y86.8415
G01 X36.4195 Y86.8420
G01 X63.1397 Y86.8420
G01 X63.1470 Y86.8415
G01 X63.1542 Y86.8406
G01 X63.1953 Y86.8325
G01 X63.2050 Y86.8301
G01 X63.2144 Y86.8267
G01 X63.2212 Y86.8235
G01 X63.2299 Y86.8186
G01 X63.2669 Y86.7935
G01 X63.2744 Y86.7876
G01 X63.2796 Y86.7828
G01 X63.7272 Y86.3352
G01 X63.7341 Y86.3275
G01 X63.7402 Y86.3191
G01 X63.7644 Y86.2820
G01 X63.7679 Y86.2758
G01 X63.7719 Y86.2671
G01 X63.7751 Y86.2581
G01 X63.7774 Y86.2488
G01 X63.7854 Y86.2028
G01 X63.7864 Y86.1903
G01 X63.7859 Y86.1777
G01 X63.7838 Y86.1653
G01 X63.7718 Y86.1200
G01 X63.7696 Y86.1131
G01 X63.7669 Y86.1065
G01 X63.7626 Y86.0980
G01 X63.7560 Y86.0880
G01 X63.7276 Y86.0517
G01 X63.7193 Y86.0427
G01 X63.7099 Y86.0348
G01 X63.6996 Y86.0281
G01 X63.6583 Y86.0060
G01 X63.6518 Y86.0030
G01 X63.6451 Y86.0005
G01 X63.6336 Y85.9974
G01 X63.6242 Y85.9959
G01 X63.5728 Y85.9918
G01 X63.5605 Y85.9924
G01 X63.5532 Y85.9935
G01 X63.5460 Y85.9951
G01 X63.5389 Y85.9973
G01 X63.4927 Y86.0135
G01 X63.4802 Y86.0200
G01 X63.4191 Y86.0570
G01 X63.4036 Y86.0647
G01 X63.3282 Y86.0959
G01 X63.3117 Y86.1013
G01 X63.2326 Y86.1213
G01 X63.2159 Y86.1241
G01 X63.1353 Y86.1315
G01 X38.9616 Y86.1315
G01 X38.8809 Y86.1241
G01 X38.8642 Y86.1213
G01 X38.7851 Y86.1013
G01 X38.7686 Y86.0959
G01 X38.6932 Y86.0647
G01 X38.6775 Y86.0569
G01 X38.6076 Y86.0149
G01 X38.5935 Y86.0051
G01 X38.5317 Y85.9538
G01 X32.2776 Y79.6997
G01 X32.2263 Y79.6379
G01 X32.2165 Y79.6238
G01 X32.1745 Y79.5539
G01 X32.1667 Y79.5382
G01 X32.1355 Y79.4628
G01 X32.1301 Y79.4463
G01 X32.1101 Y79.3672
G01 X32.1073 Y79.3505
G01 X32.0999 Y79.2698
G01 X32.0994 Y69.5721
G01 X32.0992 Y69.5648
G01 X32.0980 Y69.5552
G01 X32.0888 Y69.5093
G01 X32.0867 Y69.5021
G01 X32.0831 Y69.4927
G01 X32.0798 Y69.4860
G01 X32.0746 Y69.4775
G01 X32.0509 Y69.4425
G01 X32.0466 Y69.4368
G01 X32.0418 Y69.4315
G01 X29.4213 Y66.8111
G01 X29.4113 Y66.8032
G01 X29.3690 Y66.7756
G01 X29.3604 Y66.7714
G01 X29.3537 Y66.7687
G01 X29.3445 Y66.7660
G01 X29.3375 Y66.7645
G01 X29.2944 Y66.7569
G01 X29.2844 Y66.7560
G01 X29.2769 Y66.7559
G01 X29.1704 Y66.7588
G01 X29.0354 Y66.7467
G01 X28.9032 Y66.7173
G01 X28.7755 Y66.6726
G01 X28.6541 Y66.6121
G01 X28.5414 Y66.5372
G01 X28.4385 Y66.4491
G01 X28.3472 Y66.3490
G01 X28.2685 Y66.2382
G01 X28.2048 Y66.1191
G01 X28.1559 Y65.9929
G01 X28.1228 Y65.8610
G01 X28.1060 Y65.7269
G01 X28.1060 Y65.5911
G01 X28.1228 Y65.4570
G01 X28.1559 Y65.3251
G01 X28.2048 Y65.1989
G01 X28.2685 Y65.0798
G01 X28.3472 Y64.9690
G01 X28.4385 Y64.8688
G01 X28.4748 Y64.8377
G01 X28.4817 Y64.8309
G01 X28.4879 Y64.8234
G01 X28.5152 Y64.7869
G01 X28.5193 Y64.7806
G01 X28.5229 Y64.7742
G01 X28.5260 Y64.7674
G01 X28.5294 Y64.7581
G01 X28.5415 Y64.7058
G01 X28.5427 Y64.6985
G01 X28.5433 Y64.6911
G01 X28.5434 Y59.6936
G01 X28.5429 Y59.6838
G01 X28.5420 Y59.6766
G01 X28.5334 Y59.6331
G01 X28.5315 Y59.6259
G01 X28.5290 Y59.6188
G01 X28.5238 Y59.6074
G01 X28.5186 Y59.5989
G01 X28.4949 Y59.5639
G01 X28.4890 Y59.5564
G01 X28.4842 Y59.5512
G01 X17.5400 Y48.6066
G01 X17.5320 Y48.5997
G01 X17.4999 Y48.5766
G01 X17.4891 Y48.5705
G01 X17.4777 Y48.5657
G01 X17.4425 Y48.5546
G01 X17.4328 Y48.5523
G01 X17.2922 Y48.5301
G01 X17.1745 Y48.4948
G01 X17.0624 Y48.4440
G01 X16.9579 Y48.3785
G01 X16.8630 Y48.2996
G01 X16.7797 Y48.2090
G01 X16.7091 Y48.1077
G01 X16.6528 Y47.9982
G01 X16.6115 Y47.8822
G01 X16.5858 Y47.7617
G01 X16.5767 Y47.6388
G01 X16.5835 Y47.5156
G01 X16.6073 Y47.3947
G01 X16.6468 Y47.2777
G01 X16.7013 Y47.1673
G01 X16.7700 Y47.0651
G01 X16.8520 Y46.9731
G01 X16.9455 Y46.8929
G01 X17.0491 Y46.8255
G01 X17.1605 Y46.7728
G01 X17.2778 Y46.7352
G01 X17.3992 Y46.7137
G01 X17.5219 Y46.7087
G00 Z2.0000
G00 X19.6808 Y46.6076
G01 F100.00
G01 Z0.0000
G01 F350.00
G01 X19.7816 Y46.6116
G01 X19.8810 Y46.6310
G01 X19.9763 Y46.6650
G01 X20.0653 Y46.7135
G01 X20.1456 Y46.7748
G01 X20.2157 Y46.8476
G01 X20.2739 Y46.9305
G01 X20.3189 Y47.0209
G01 X20.3493 Y47.1174
G01 X20.3648 Y47.2171
G01 X20.3648 Y47.3186
G01 X20.3493 Y47.4183
G01 X20.3189 Y47.5148
G01 X20.2739 Y47.6052
G01 X20.2157 Y47.6882
G01 X20.1456 Y47.7610
G01 X20.0653 Y47.8223
G01 X19.9763 Y47.8707
G01 X19.8810 Y47.9047
G01 X19.7816 Y47.9242
G01 X19.6808 Y47.9281
G01 X19.5801 Y47.9162
G01 X19.4826 Y47.8897
G01 X19.3907 Y47.8484
G01 X19.3058 Y47.7931
G01 X19.2299 Y47.7261
G01 X19.1660 Y47.6481
G01 X19.1140 Y47.5612
G01 X19.0765 Y47.4672
G01 X19.0531 Y47.3688
G01 X19.0456 Y47.2679
G01 X19.0531 Y47.1669
G01 X19.0765 Y47.0685
G01 X19.1140 Y46.9746
G01 X19.1660 Y46.8877
G01 X19.2299 Y46.8097
G01 X19.3058 Y46.7426
G01 X19.3907 Y46.6874
G01 X19.4826 Y46.6460
G01 X19.5801 Y46.6195
G01 X19.6808 Y46.6076
G00 Z2.0000
G00 X28.6041 Y64.8110
G01 F100.00
G01 Z0.0000
G01 F350.00
G01 X28.6041 Y59.5850
G01 X17.5118 Y48.4926
G01 X17.5015 Y48.4931
G01 X17.4942 Y48.4930
G01 X17.4146 Y48.4889
G01 X17.3309 Y48.4765
G01 X17.2488 Y48.4560
G01 X17.1692 Y48.4275
G01 X17.0927 Y48.3913
G01 X17.0202 Y48.3478
G01 X16.9522 Y48.2974
G01 X16.8931 Y48.2440
G01 X16.8862 Y48.2371
G01 X16.8327 Y48.1779
G01 X16.7852 Y48.1140
G01 X16.7797 Y48.1058
G01 X16.7389 Y48.0374
G01 X16.7047 Y47.9655
G01 X16.7009 Y47.9564
G01 X16.6757 Y47.8860
G01 X16.6729 Y47.8766
G01 X16.6536 Y47.7993
G01 X16.6412 Y47.7156
G01 X16.6371 Y47.6311
G01 X16.6412 Y47.5466
G01 X16.6536 Y47.4629
G01 X16.6729 Y47.3856
G01 X16.6757 Y47.3762
G01 X16.7009 Y47.3058
G01 X16.7047 Y47.2967
G01 X16.7389 Y47.2247
G01 X16.7797 Y47.1563
G01 X16.7852 Y47.1482
G01 X16.8327 Y47.0842
G01 X16.8895 Y47.0216
G01 X16.9522 Y46.9648
G01 X17.0162 Y46.9172
G01 X17.0222 Y46.9130
G01 X17.0927 Y46.8709
G01 X17.1692 Y46.8347
G01 X17.2488 Y46.8062
G01 X17.3261 Y46.7867
G01 X17.3357 Y46.7848
G01 X17.4097 Y46.7738
G01 X17.4195 Y46.7729
G01 X17.4991 Y46.7691
G01 X17.5836 Y46.7732
G01 X17.6672 Y46.7857
G01 X17.7446 Y46.8049
G01 X17.7540 Y46.8077
G01 X17.8244 Y46.8329
G01 X17.8334 Y46.8367
G01 X17.9054 Y46.8709
G01 X17.9780 Y46.9144
G01 X18.0459 Y46.9648
G01 X18.1068 Y47.0198
G01 X18.1120 Y47.0251
G01 X18.1654 Y47.0842
G01 X18.2158 Y47.1522
G01 X18.2593 Y47.2247
G01 X18.2955 Y47.3012
G01 X18.3240 Y47.3809
G01 X18.3445 Y47.4629
G01 X18.3569 Y47.5466
G01 X18.3609 Y47.6262
G01 X18.3606 Y47.6436
G01 X29.6288 Y58.9119
G01 X29.6652 Y58.9518
G01 X29.6714 Y58.9594
G01 X29.7035 Y59.0028
G01 X29.7314 Y59.0491
G01 X29.7360 Y59.0578
G01 X29.7590 Y59.1066
G01 X29.7773 Y59.1574
G01 X29.7801 Y59.1668
G01 X29.7931 Y59.2192
G01 X29.8012 Y59.2726
G01 X29.8021 Y59.2824
G01 X29.8046 Y59.3339
G01 X29.8047 Y64.8110
G01 X29.8640 Y64.8552
G01 X29.9361 Y64.9204
G01 X29.9430 Y64.9273
G01 X30.0082 Y64.9994
G01 X30.0661 Y65.0773
G01 X30.0716 Y65.0855
G01 X30.1214 Y65.1688
G01 X30.1650 Y65.2611
G01 X30.1994 Y65.3572
G01 X30.2231 Y65.4514
G01 X30.2251 Y65.4610
G01 X30.2392 Y65.5571
G01 X30.2441 Y65.6541
G01 X30.2441 Y65.6639
G01 X30.2392 Y65.7609
G01 X30.2284 Y65.8342
G01 X33.1866 Y68.7923
G01 X33.2244 Y68.8342
G01 X33.2567 Y68.8775
G01 X33.2621 Y68.8857
G01 X33.2898 Y68.9320
G01 X33.3150 Y68.9853
G01 X33.3333 Y69.0361
G01 X33.3361 Y69.0455
G01 X33.3496 Y69.1003
G01 X33.3578 Y69.1562
G01 X33.3607 Y69.2150
G01 X33.3607 Y78.9994
G01 X39.2320 Y84.8707
G01 X62.8648 Y84.8707
G01 X81.8660 Y65.8696
G01 X81.9059 Y65.8332
G01 X81.9135 Y65.8270
G01 X81.9569 Y65.7949
G01 X82.0074 Y65.7646
G01 X82.0607 Y65.7394
G01 X82.1115 Y65.7211
G01 X82.1209 Y65.7183
G01 X82.1685 Y65.7064
G01 X82.1781 Y65.7044
G01 X82.2316 Y65.6966
G01 X82.2879 Y65.6938
G01 X86.0661 Y65.6937
G01 X86.1008 Y65.6559
G01 X86.1626 Y65.5999
G01 X86.1683 Y65.5953
G01 X86.2334 Y65.5471
G01 X86.2395 Y65.5431
G01 X86.3111 Y65.5003
G01 X86.3865 Y65.4645
G01 X86.3933 Y65.4616
G01 X86.4741 Y65.4328
G01 X86.5550 Y65.4124
G01 X86.5647 Y65.4105
G01 X86.6472 Y65.3983
G01 X86.7305 Y65.3941
G01 X86.7403 Y65.3941
G01 X86.8212 Y65.3981
G01 X86.8285 Y65.3989
G01 X86.9110 Y65.4113
G01 X86.9967 Y65.4328
G01 X87.0798 Y65.4625
G01 X87.1553 Y65.4981
G01 X87.1639 Y65.5027
G01 X87.2354 Y65.5457
G01 X87.3025 Y65.5953
G01 X87.3101 Y65.6015
G01 X87.3682 Y65.6542
G01 X87.3752 Y65.6612
G01 X87.4311 Y65.7230
G01 X87.4837 Y65.7940
G01 X87.5291 Y65.8697
G01 X87.5669 Y65.9496
G01 X87.5966 Y66.0327
G01 X87.6181 Y66.1184
G01 X87.6311 Y66.2058
G01 X87.6353 Y66.2891
G01 X87.6354 Y66.2965
G01 X87.6311 Y66.3822
G01 X87.6181 Y66.4696
G01 X87.5966 Y66.5553
G01 X87.5669 Y66.6384
G01 X87.5291 Y66.7183
G01 X87.4837 Y66.7940
G01 X87.4311 Y66.8650
G01 X87.3752 Y66.9268
G01 X87.3682 Y66.9338
G01 X87.3101 Y66.9865
G01 X87.3025 Y66.9927
G01 X87.2354 Y67.0423
G01 X87.1639 Y67.0853
G01 X87.1553 Y67.0899
G01 X87.0798 Y67.1255
G01 X86.9967 Y67.1552
G01 X86.9110 Y67.1767
G01 X86.8261 Y67.1894
G01 X86.8187 Y67.1900
G01 X86.7354 Y67.1940
G01 X86.6521 Y67.1900
G01 X86.6423 Y67.1891
G01 X86.5598 Y67.1767
G01 X86.4789 Y67.1566
G01 X86.4695 Y67.1537
G01 X86.3933 Y67.1264
G01 X86.3865 Y67.1235
G01 X86.3111 Y67.0877
G01 X86.2395 Y67.0449
G01 X86.2334 Y67.0409
G01 X86.1683 Y66.9927
G01 X86.1626 Y66.9881
G01 X86.1008 Y66.9321
G01 X86.0661 Y66.8943
G01 X82.5390 Y66.8943
G01 X63.5378 Y85.8954
G01 X63.4942 Y85.9350
G01 X63.4469 Y85.9701
G01 X63.3964 Y86.0004
G01 X63.3431 Y86.0256
G01 X63.2876 Y86.0454
G01 X63.2305 Y86.0597
G01 X63.1722 Y86.0684
G01 X63.1134 Y86.0713
G01 X38.9809 Y86.0712
G01 X38.9246 Y86.0684
G01 X38.8663 Y86.0597
G01 X38.8092 Y86.0454
G01 X38.7537 Y86.0256
G01 X38.7004 Y86.0004
G01 X38.6499 Y85.9701
G01 X38.6026 Y85.9350
G01 X38.5607 Y85.8972
G01 X32.3360 Y79.6724
G01 X32.2964 Y79.6288
G01 X32.2641 Y79.5855
G01 X32.2587 Y79.5773
G01 X32.2299 Y79.5288
G01 X32.2078 Y79.4822
G01 X32.2041 Y79.4731
G01 X32.1860 Y79.4222
G01 X32.1728 Y79.3699
G01 X32.1708 Y79.3603
G01 X32.1630 Y79.3068
G01 X32.1601 Y79.2480
G01 X32.1601 Y69.4636
G01 X29.3796 Y66.6830
G01 X29.3063 Y66.6938
G01 X29.2093 Y66.6987
G01 X29.1995 Y66.6987
G01 X29.1025 Y66.6938
G01 X29.0064 Y66.6797
G01 X28.9968 Y66.6777
G01 X28.9026 Y66.6540
G01 X28.8088 Y66.6206
G01 X28.8020 Y66.6177
G01 X28.7142 Y66.5760
G01 X28.6309 Y66.5262
G01 X28.6227 Y66.5207
G01 X28.5448 Y66.4628
G01 X28.4727 Y66.3976
G01 X28.4658 Y66.3907
G01 X28.4038 Y66.3224
G01 X28.3991 Y66.3167
G01 X28.3398 Y66.2367
G01 X28.2874 Y66.1492
G01 X28.2438 Y66.0569
G01 X28.2094 Y65.9608
G01 X28.1846 Y65.8619
G01 X28.1696 Y65.7609
G01 X28.1646 Y65.6590
G01 X28.1692 Y65.5620
G01 X28.1702 Y65.5522
G01 X28.1846 Y65.4561
G01 X28.2094 Y65.3572
G01 X28.2438 Y65.2611
G01 X28.2852 Y65.1732
G01 X28.2898 Y65.1646
G01 X28.3398 Y65.0813
G01 X28.3976 Y65.0032
G01 X28.4038 Y64.9956
G01 X28.4658 Y64.9273
G01 X28.4727 Y64.9204
G01 X28.5448 Y64.8552
G01 X28.6041 Y64.8110
G00 Z2.0000
G00 X39.3304 Y64.5587
G01 F100.00
G01 Z0.0000
G01 F350.00
G01 X39.4659 Y64.5629
G01 X39.5999 Y64.5839
G01 X39.7304 Y64.6212
G01 X39.8552 Y64.6738
G01 X39.9725 Y64.7417
G01 X40.0805 Y64.8232
G01 X40.1842 Y64.9239
G01 X40.2294 Y64.9633
G01 X40.2391 Y64.9707
G01 X40.2453 Y64.9746
G01 X40.2540 Y64.9790
G01 X40.2607 Y64.9818
G01 X40.2677 Y64.9840
G01 X40.3186 Y64.9960
G01 X40.3261 Y64.9972
G01 X40.3362 Y64.9980
G01 X42.9067 Y64.9980
G01 X42.9145 Y64.9977
G01 X42.9249 Y64.9963
G01 X42.9676 Y64.9882
G01 X42.9745 Y64.9861
G01 X42.9812 Y64.9835
G01 X42.9878 Y64.9804
G01 X42.9941 Y64.9769
G01 X43.0272 Y64.9568
G01 X43.0352 Y64.9511
G01 X43.0977 Y64.8968
G01 X43.2021 Y64.8269
G01 X43.3148 Y64.7717
G01 X43.4337 Y64.7311
G01 X43.5568 Y64.7063
G01 X43.6824 Y64.6985
G01 X43.8080 Y64.7063
G01 X43.9311 Y64.7311
G01 X44.0500 Y64.7717
G01 X44.1627 Y64.8269
G01 X44.2671 Y64.8968
G01 X44.3618 Y64.9796
G01 X44.4446 Y65.0743
G01 X44.5145 Y65.1787
G01 X44.5697 Y65.2914
G01 X44.6103 Y65.4103
G01 X44.6351 Y65.5334
G01 X44.6429 Y65.6590
G01 X44.6351 Y65.7846
G01 X44.6103 Y65.9077
G01 X44.5697 Y66.0266
G01 X44.5145 Y66.1393
G01 X44.4446 Y66.2437
G01 X44.3618 Y66.3384
G01 X44.2671 Y66.4212
G01 X44.1627 Y66.4911
G01 X44.0500 Y66.5463
G01 X43.9311 Y66.5869
G01 X43.8080 Y66.6117
G01 X43.6824 Y66.6195
G01 X43.5568 Y66.6117
G01 X43.4337 Y66.5869
G01 X43.3148 Y66.5463
G01 X43.2021 Y66.4911
G01 X43.0977 Y66.4212
G01 X43.0352 Y66.3669
G01 X43.0272 Y66.3612
G01 X42.9920 Y66.3399
G01 X42.9856 Y66.3365
G01 X42.9790 Y66.3336
G01 X42.9722 Y66.3312
G01 X42.9652 Y66.3293
G01 X42.9224 Y66.3212
G01 X42.9119 Y66.3201
G01 X40.3491 Y66.3201
G01 X40.3370 Y66.3214
G01 X40.2960 Y66.3295
G01 X40.2863 Y66.3319
G01 X40.2792 Y66.3344
G01 X40.2723 Y66.3373
G01 X40.2635 Y66.3421
G01 X40.2244 Y66.3685
G01 X40.2187 Y66.3728
G01 X40.2116 Y66.3792
G01 X40.2052 Y66.3863
G01 X40.2009 Y66.3919
G01 X40.1745 Y66.4311
G01 X40.1687 Y66.4422
G01 X40.1651 Y66.4515
G01 X40.1624 Y66.4612
G01 X40.1538 Y66.5046
G01 X40.1527 Y66.5143
G01 X40.1524 Y66.5216
G01 X40.1525 Y72.3124
G01 X40.1538 Y72.3242
G01 X40.1623 Y72.3683
G01 X40.1658 Y72.3798
G01 X40.1707 Y72.3907
G01 X40.1742 Y72.3970
G01 X40.1975 Y72.4344
G01 X40.2033 Y72.4419
G01 X40.2216 Y72.4620
G01 X40.3003 Y72.5728
G01 X40.3640 Y72.6919
G01 X40.4129 Y72.8181
G01 X40.4460 Y72.9500
G01 X40.4628 Y73.0841
G01 X40.4628 Y73.2199
G01 X40.4460 Y73.3540
G01 X40.4129 Y73.4859
G01 X40.3640 Y73.6121
G01 X40.3003 Y73.7312
G01 X40.2216 Y73.8420
G01 X40.2033 Y73.8621
G01 X40.1975 Y73.8696
G01 X40.1718 Y73.9111
G01 X40.1686 Y73.9176
G01 X40.1658 Y73.9242
G01 X40.1623 Y73.9357
G01 X40.1538 Y73.9798
G01 X40.1525 Y73.9916
G01 X40.1524 Y79.8002
G01 X40.1529 Y79.8077
G01 X40.1540 Y79.8153
G01 X40.1637 Y79.8622
G01 X40.1658 Y79.8693
G01 X40.1684 Y79.8763
G01 X40.1716 Y79.8830
G01 X40.1765 Y79.8916
G01 X40.2022 Y79.9292
G01 X40.2086 Y79.9371
G01 X40.2138 Y79.9426
G01 X40.3049 Y80.0308
G01 X40.3895 Y80.1359
G01 X40.4608 Y80.2514
G01 X40.5176 Y80.3744
G01 X40.5586 Y80.5034
G01 X40.5837 Y80.6371
G01 X40.5921 Y80.7720
G01 X40.5837 Y80.9069
G01 X40.5586 Y81.0406
G01 X40.5176 Y81.1696
G01 X40.4608 Y81.2925
G01 X40.3895 Y81.4081
G01 X40.3048 Y81.5133
G01 X40.2075 Y81.6078
G01 X40.0995 Y81.6893
G01 X39.9822 Y81.7572
G01 X39.8574 Y81.8098
G01 X39.7269 Y81.8471
G01 X39.5930 Y81.8680
G01 X39.4574 Y81.8718
G01 X39.3224 Y81.8597
G01 X39.1902 Y81.8303
G01 X39.0625 Y81.7856
G01 X38.9411 Y81.7251
G01 X38.8284 Y81.6502
G01 X38.7255 Y81.5621
G01 X38.6342 Y81.4620
G01 X38.5555 Y81.3512
G01 X38.4918 Y81.2321
G01 X38.4429 Y81.1059
G01 X38.4098 Y80.9740
G01 X38.3930 Y80.8399
G01 X38.3930 Y80.7041
G01 X38.4098 Y80.5700
G01 X38.4429 Y80.4381
G01 X38.4918 Y80.3119
G01 X38.5555 Y80.1928
G01 X38.6342 Y80.0820
G01 X38.7255 Y79.9818
G01 X38.7618 Y79.9507
G01 X38.7687 Y79.9439
G01 X38.7749 Y79.9364
G01 X38.8022 Y79.8999
G01 X38.8076 Y79.8915
G01 X38.8110 Y79.8849
G01 X38.8140 Y79.8781
G01 X38.8164 Y79.8711
G01 X38.8285 Y79.8188
G01 X38.8301 Y79.8066
G01 X38.8304 Y79.7992
G01 X38.8304 Y74.2230
G01 X38.8294 Y74.2113
G01 X38.8240 Y74.1785
G01 X38.8225 Y74.1713
G01 X38.8198 Y74.1620
G01 X38.8161 Y74.1530
G01 X38.8003 Y74.1207
G01 X38.7953 Y74.1123
G01 X38.7896 Y74.1044
G01 X38.7831 Y74.0971
G01 X38.7613 Y74.0747
G01 X38.7540 Y74.0680
G01 X38.6484 Y73.9878
G01 X38.5510 Y73.8933
G01 X38.4663 Y73.7881
G01 X38.3950 Y73.6725
G01 X38.3382 Y73.5496
G01 X38.2972 Y73.4206
G01 X38.2721 Y73.2869
G01 X38.2637 Y73.1520
G01 X38.2721 Y73.0171
G01 X38.2972 Y72.8834
G01 X38.3382 Y72.7544
G01 X38.3950 Y72.6314
G01 X38.4663 Y72.5159
G01 X38.5510 Y72.4107
G01 X38.6484 Y72.3162
G01 X38.7540 Y72.2360
G01 X38.7613 Y72.2292
G01 X38.7831 Y72.2069
G01 X38.7896 Y72.1996
G01 X38.7953 Y72.1917
G01 X38.8003 Y72.1833
G01 X38.8161 Y72.1510
G01 X38.8198 Y72.1420
G01 X38.8225 Y72.1326
G01 X38.8240 Y72.1255
G01 X38.8294 Y72.0927
G01 X38.8302 Y72.0857
G01 X38.8304 Y72.0786
G01 X38.8304 Y66.7309
G01 X38.8299 Y66.7212
G01 X38.8229 Y66.6790
G01 X38.8212 Y66.6718
G01 X38.8190 Y66.6647
G01 X38.8142 Y66.6534
G01 X38.7973 Y66.6218
G01 X38.7923 Y66.6135
G01 X38.7881 Y66.6076
G01 X38.7834 Y66.6020
G01 X38.7784 Y66.5968
G01 X38.7485 Y66.5696
G01 X38.7406 Y66.5636
G01 X38.7017 Y66.5374
G01 X38.5985 Y66.4491
G01 X38.5072 Y66.3490
G01 X38.4285 Y66.2382
G01 X38.3648 Y66.1191
G01 X38.3159 Y65.9929
G01 X38.2828 Y65.8610
G01 X38.2660 Y65.7269
G01 X38.2660 Y65.5911
G01 X38.2828 Y65.4570
G01 X38.3159 Y65.3251
G01 X38.3648 Y65.1989
G01 X38.4285 Y65.0798
G01 X38.5072 Y64.9690
G01 X38.5985 Y64.8689
G01 X38.7014 Y64.7808
G01 X38.8141 Y64.7058
G01 X38.9355 Y64.6454
G01 X39.0632 Y64.6007
G01 X39.1955 Y64.5713
G01 X39.3304 Y64.5587
G00 Z2.0000
G00 X38.8911 Y79.9240
G01 F100.00
G01 Z0.0000
G01 F350.00
G01 X38.8911 Y74.0772
G01 X38.8721 Y74.0678
G01 X38.7867 Y74.0166
G01 X38.7086 Y73.9588
G01 X38.7010 Y73.9526
G01 X38.6292 Y73.8872
G01 X38.5638 Y73.8154
G01 X38.5576 Y73.8078
G01 X38.5027 Y73.7337
G01 X38.4972 Y73.7255
G01 X38.4474 Y73.6422
G01 X38.4057 Y73.5544
G01 X38.4020 Y73.5453
G01 X38.3694 Y73.4538
G01 X38.3457 Y73.3596
G01 X38.3437 Y73.3500
G01 X38.3296 Y73.2539
G01 X38.3246 Y73.1520
G01 X38.3296 Y73.0501
G01 X38.3437 Y72.9540
G01 X38.3457 Y72.9444
G01 X38.3694 Y72.8502
G01 X38.4020 Y72.7587
G01 X38.4057 Y72.7496
G01 X38.4474 Y72.6618
G01 X38.4972 Y72.5785
G01 X38.5027 Y72.5703
G01 X38.5576 Y72.4962
G01 X38.5638 Y72.4886
G01 X38.6292 Y72.4168
G01 X38.7010 Y72.3514
G01 X38.7086 Y72.3452
G01 X38.7867 Y72.2874
G01 X38.8721 Y72.2362
G01 X38.8911 Y72.2268
G01 X38.8911 Y66.5842
G01 X38.8764 Y66.5772
G01 X38.8700 Y66.5736
G01 X38.7909 Y66.5262
G01 X38.7827 Y66.5207
G01 X38.7048 Y66.4628
G01 X38.6327 Y66.3976
G01 X38.6258 Y66.3907
G01 X38.5606 Y66.3186
G01 X38.4998 Y66.2367
G01 X38.4474 Y66.1492
G01 X38.4038 Y66.0569
G01 X38.3694 Y65.9608
G01 X38.3446 Y65.8619
G01 X38.3296 Y65.7609
G01 X38.3247 Y65.6639
G01 X38.3247 Y65.6541
G01 X38.3292 Y65.5620
G01 X38.3302 Y65.5522
G01 X38.3446 Y65.4561
G01 X38.3681 Y65.3619
G01 X38.3701 Y65.3548
G01 X38.4038 Y65.2611
G01 X38.4452 Y65.1732
G01 X38.4498 Y65.1646
G01 X38.4998 Y65.0813
G01 X38.5606 Y64.9994
G01 X38.6258 Y64.9273
G01 X38.6327 Y64.9204
G01 X38.7048 Y64.8552
G01 X38.7827 Y64.7973
G01 X38.7909 Y64.7918
G01 X38.8742 Y64.7420
G01 X38.9665 Y64.6984
G01 X39.0626 Y64.6640
G01 X39.1568 Y64.6403
G01 X39.1664 Y64.6383
G01 X39.2625 Y64.6242
G01 X39.3595 Y64.6193
G01 X39.3693 Y64.6193
G01 X39.4663 Y64.6242
G01 X39.5624 Y64.6383
G01 X39.5720 Y64.6403
G01 X39.6662 Y64.6640
G01 X39.7577 Y64.6966
G01 X39.7646 Y64.6993
G01 X39.8546 Y64.7420
G01 X39.9379 Y64.7918
G01 X39.9461 Y64.7973
G01 X40.0240 Y64.8552
G01 X40.0961 Y64.9204
G01 X40.1030 Y64.9273
G01 X40.1682 Y64.9994
G01 X40.2124 Y65.0587
G01 X43.0131 Y65.0587
G01 X43.0478 Y65.0209
G01 X43.1096 Y64.9649
G01 X43.1784 Y64.9135
G01 X43.1844 Y64.9093
G01 X43.2581 Y64.8653
G01 X43.3335 Y64.8295
G01 X43.3426 Y64.8257
G01 X43.4235 Y64.7971
G01 X43.5068 Y64.7763
G01 X43.5893 Y64.7639
G01 X43.5991 Y64.7630
G01 X43.6824 Y64.7590
G01 X43.7706 Y64.7633
G01 X43.8531 Y64.7755
G01 X43.8628 Y64.7774
G01 X43.9460 Y64.7985
G01 X44.0268 Y64.8275
G01 X44.1023 Y64.8631
G01 X44.1109 Y64.8677
G01 X44.1824 Y64.9107
G01 X44.2534 Y64.9633
G01 X44.3152 Y65.0192
G01 X44.3222 Y65.0262
G01 X44.3749 Y65.0843
G01 X44.3811 Y65.0919
G01 X44.4307 Y65.1590
G01 X44.4761 Y65.2347
G01 X44.5139 Y65.3146
G01 X44.5421 Y65.3931
G01 X44.5450 Y65.4025
G01 X44.5640 Y65.4786
G01 X44.5659 Y65.4883
G01 X44.5781 Y65.5708
G01 X44.5823 Y65.6541
G01 X44.5823 Y65.6639
G01 X44.5784 Y65.7423
G01 X44.5775 Y65.7521
G01 X44.5651 Y65.8346
G01 X44.5436 Y65.9203
G01 X44.5157 Y65.9988
G01 X44.5119 Y66.0079
G01 X44.4761 Y66.0833
G01 X44.4307 Y66.1590
G01 X44.3811 Y66.2261
G01 X44.3749 Y66.2337
G01 X44.3188 Y66.2954
G01 X44.2534 Y66.3547
G01 X44.1864 Y66.4045
G01 X44.1783 Y66.4099
G01 X44.1067 Y66.4527
G01 X44.0268 Y66.4905
G01 X43.9483 Y66.5187
G01 X43.9389 Y66.5216
G01 X43.8580 Y66.5417
G01 X43.7706 Y66.5547
G01 X43.6824 Y66.5590
G01 X43.5991 Y66.5550
G01 X43.5893 Y66.5541
G01 X43.5044 Y66.5412
G01 X43.4211 Y66.5202
G01 X43.3426 Y66.4923
G01 X43.3335 Y66.4885
G01 X43.2560 Y66.4515
G01 X43.1824 Y66.4073
G01 X43.1134 Y66.3562
G01 X43.1077 Y66.3515
G01 X43.0478 Y66.2971
G01 X43.0131 Y66.2593
G01 X40.2124 Y66.2593
G01 X40.1666 Y66.3205
G01 X40.1030 Y66.3907
G01 X40.0917 Y66.4017
G01 X40.0917 Y72.4093
G01 X40.1030 Y72.4203
G01 X40.1682 Y72.4924
G01 X40.2290 Y72.5743
G01 X40.2814 Y72.6618
G01 X40.3250 Y72.7541
G01 X40.3594 Y72.8502
G01 X40.3842 Y72.9491
G01 X40.3992 Y73.0501
G01 X40.4042 Y73.1520
G01 X40.3992 Y73.2539
G01 X40.3842 Y73.3549
G01 X40.3594 Y73.4538
G01 X40.3250 Y73.5499
G01 X40.2814 Y73.6422
G01 X40.2290 Y73.7297
G01 X40.1682 Y73.8116
G01 X40.1030 Y73.8837
G01 X40.0917 Y73.8947
G01 X40.0917 Y79.9240
G01 X40.1510 Y79.9682
G01 X40.2231 Y80.0334
G01 X40.2300 Y80.0403
G01 X40.2936 Y80.1105
G01 X40.2982 Y80.1162
G01 X40.3560 Y80.1943
G01 X40.4060 Y80.2776
G01 X40.4096 Y80.2840
G01 X40.4501 Y80.3696
G01 X40.4538 Y80.3787
G01 X40.4864 Y80.4702
G01 X40.5101 Y80.5644
G01 X40.5121 Y80.5740
G01 X40.5262 Y80.6701
G01 X40.5312 Y80.7720
G01 X40.5266 Y80.8690
G01 X40.5256 Y80.8788
G01 X40.5112 Y80.9749
G01 X40.4877 Y81.0691
G01 X40.4849 Y81.0785
G01 X40.4520 Y81.1699
G01 X40.4084 Y81.2622
G01 X40.3560 Y81.3497
G01 X40.2982 Y81.4278
G01 X40.2920 Y81.4354
G01 X40.2266 Y81.5072
G01 X40.1548 Y81.5726
G01 X40.1472 Y81.5788
G01 X40.0711 Y81.6352
G01 X40.0649 Y81.6392
G01 X39.9816 Y81.6890
G01 X39.8893 Y81.7326
G01 X39.7932 Y81.7670
G01 X39.6943 Y81.7918
G01 X39.5933 Y81.8068
G01 X39.4914 Y81.8118
G01 X39.3895 Y81.8068
G01 X39.2885 Y81.7918
G01 X39.1896 Y81.7670
G01 X39.0935 Y81.7326
G01 X39.0012 Y81.6890
G01 X38.9137 Y81.6366
G01 X38.8318 Y81.5758
G01 X38.7562 Y81.5072
G01 X38.6876 Y81.4316
G01 X38.6282 Y81.3517
G01 X38.6242 Y81.3455
G01 X38.5744 Y81.2622
G01 X38.5308 Y81.1699
G01 X38.4964 Y81.0738
G01 X38.4716 Y80.9749
G01 X38.4566 Y80.8739
G01 X38.4516 Y80.7720
G01 X38.4566 Y80.6701
G01 X38.4711 Y80.5716
G01 X38.4727 Y80.5644
G01 X38.4964 Y80.4702
G01 X38.5308 Y80.3741
G01 X38.5744 Y80.2818
G01 X38.6255 Y80.1964
G01 X38.6297 Y80.1903
G01 X38.6876 Y80.1124
G01 X38.7544 Y80.0385
G01 X38.7597 Y80.0334
G01 X38.8318 Y79.9682
G01 X38.8911 Y79.9240
G00 Z2.0000
G00 X28.3074 Y80.9472
G01 F100.00
G01 Z0.0000
G01 F350.00
G01 X28.2966 Y80.8739
G01 X28.2916 Y80.7720
G01 X28.2966 Y80.6701
G01 X28.3107 Y80.5740
G01 X28.3127 Y80.5644
G01 X28.3351 Y80.4749
G01 X28.3379 Y80.4655
G01 X28.3708 Y80.3741
G01 X28.4122 Y80.2862
G01 X28.4168 Y80.2776
G01 X28.4642 Y80.1985
G01 X28.4697 Y80.1903
G01 X28.5276 Y80.1124
G01 X28.5962 Y80.0368
G01 X28.6680 Y79.9714
G01 X28.6756 Y79.9652
G01 X28.7537 Y79.9074
G01 X28.8370 Y79.8574
G01 X28.8456 Y79.8528
G01 X28.9290 Y79.8133
G01 X28.9381 Y79.8096
G01 X29.0296 Y79.7770
G01 X29.1285 Y79.7522
G01 X29.2295 Y79.7372
G01 X29.3265 Y79.7323
G01 X29.3363 Y79.7323
G01 X29.4333 Y79.7372
G01 X29.5294 Y79.7513
G01 X29.5390 Y79.7533
G01 X29.6332 Y79.7770
G01 X29.7293 Y79.8114
G01 X29.8172 Y79.8528
G01 X29.8258 Y79.8574
G01 X29.9091 Y79.9074
G01 X29.9872 Y79.9652
G01 X29.9948 Y79.9714
G01 X30.0666 Y80.0368
G01 X30.1320 Y80.1086
G01 X30.1382 Y80.1162
G01 X30.1960 Y80.1943
G01 X30.2460 Y80.2776
G01 X30.2506 Y80.2862
G01 X30.2901 Y80.3696
G01 X30.2930 Y80.3764
G01 X30.3264 Y80.4702
G01 X30.3501 Y80.5644
G01 X30.3521 Y80.5740
G01 X30.3662 Y80.6701
G01 X30.3711 Y80.7671
G01 X30.3711 Y80.7769
G01 X30.3662 Y80.8739
G01 X30.3554 Y80.9472
G01 X36.3110 Y86.9027
G01 X63.2458 Y86.9027
G01 X79.1990 Y70.9496
G01 X79.2426 Y70.9100
G01 X79.2859 Y70.8777
G01 X79.2920 Y70.8736
G01 X79.3404 Y70.8446
G01 X79.3892 Y70.8214
G01 X79.3983 Y70.8177
G01 X79.4492 Y70.7996
G01 X79.5015 Y70.7864
G01 X79.5111 Y70.7844
G01 X79.5646 Y70.7766
G01 X79.6209 Y70.7738
G01 X86.0661 Y70.7737
G01 X86.1008 Y70.7359
G01 X86.1626 Y70.6799
G01 X86.1683 Y70.6753
G01 X86.2334 Y70.6271
G01 X86.2395 Y70.6231
G01 X86.3111 Y70.5803
G01 X86.3887 Y70.5435
G01 X86.3956 Y70.5407
G01 X86.4741 Y70.5128
G01 X86.5598 Y70.4913
G01 X86.6472 Y70.4783
G01 X86.7305 Y70.4741
G01 X86.7403 Y70.4741
G01 X86.8236 Y70.4783
G01 X86.9110 Y70.4913
G01 X86.9967 Y70.5128
G01 X87.0752 Y70.5407
G01 X87.0843 Y70.5445
G01 X87.1553 Y70.5781
G01 X87.1639 Y70.5827
G01 X87.2354 Y70.6257
G01 X87.3064 Y70.6783
G01 X87.3718 Y70.7376
G01 X87.4311 Y70.8030
G01 X87.4837 Y70.8740
G01 X87.5267 Y70.9455
G01 X87.5313 Y70.9541
G01 X87.5649 Y71.0251
G01 X87.5687 Y71.0342
G01 X87.5966 Y71.1127
G01 X87.6170 Y71.1936
G01 X87.6186 Y71.2008
G01 X87.6311 Y71.2858
G01 X87.6354 Y71.3740
G01 X87.6311 Y71.4622
G01 X87.6189 Y71.5447
G01 X87.6170 Y71.5544
G01 X87.5966 Y71.6353
G01 X87.5687 Y71.7138
G01 X87.5649 Y71.7229
G01 X87.5291 Y71.7983
G01 X87.4863 Y71.8699
G01 X87.4809 Y71.8780
G01 X87.4341 Y71.9411
G01 X87.4279 Y71.9487
G01 X87.3718 Y72.0104
G01 X87.3064 Y72.0697
G01 X87.2354 Y72.1223
G01 X87.1597 Y72.1677
G01 X87.0798 Y72.2055
G01 X86.9967 Y72.2352
G01 X86.9110 Y72.2567
G01 X86.8236 Y72.2697
G01 X86.7354 Y72.2740
G01 X86.6521 Y72.2700
G01 X86.6423 Y72.2691
G01 X86.5598 Y72.2567
G01 X86.4789 Y72.2366
G01 X86.4695 Y72.2337
G01 X86.3933 Y72.2064
G01 X86.3865 Y72.2035
G01 X86.3111 Y72.1677
G01 X86.2395 Y72.1249
G01 X86.2334 Y72.1209
G01 X86.1683 Y72.0727
G01 X86.1626 Y72.0681
G01 X86.1008 Y72.0121
G01 X86.0661 Y71.9743
G01 X79.8720 Y71.9743
G01 X63.9188 Y87.9274
G01 X63.8752 Y87.9670
G01 X63.8319 Y87.9993
G01 X63.8237 Y88.0047
G01 X63.7774 Y88.0324
G01 X63.7241 Y88.0576
G01 X63.6733 Y88.0759
G01 X63.6639 Y88.0787
G01 X63.6091 Y88.0922
G01 X63.5532 Y88.1004
G01 X63.4944 Y88.1033
G01 X36.0624 Y88.1033
G01 X36.0036 Y88.1004
G01 X35.9477 Y88.0922
G01 X35.8929 Y88.0787
G01 X35.8835 Y88.0759
G01 X35.8327 Y88.0576
G01 X35.7794 Y88.0324
G01 X35.7331 Y88.0047
G01 X35.7249 Y87.9993
G01 X35.6816 Y87.9670
G01 X35.6380 Y87.9274
G01 X29.5066 Y81.7960
G01 X29.4333 Y81.8068
G01 X29.3314 Y81.8118
G01 X29.2295 Y81.8068
G01 X29.1562 Y81.7960
G01 X17.1274 Y93.8249
G01 X17.1274 Y95.8352
G01 X17.1399 Y95.8472
G01 X17.1933 Y95.9063
G01 X17.2409 Y95.9703
G01 X17.2464 Y95.9784
G01 X17.2872 Y96.0468
G01 X17.3214 Y96.1188
G01 X17.3252 Y96.1279
G01 X17.3504 Y96.1983
G01 X17.3532 Y96.2077
G01 X17.3724 Y96.2850
G01 X17.3843 Y96.3638
G01 X17.3852 Y96.3736
G01 X17.3890 Y96.4532
G01 X17.3849 Y96.5377
G01 X17.3733 Y96.6165
G01 X17.3714 Y96.6261
G01 X17.3532 Y96.6987
G01 X17.3504 Y96.7081
G01 X17.3252 Y96.7785
G01 X17.3214 Y96.7876
G01 X17.2872 Y96.8595
G01 X17.2464 Y96.9279
G01 X17.2409 Y96.9361
G01 X17.1933 Y97.0000
G01 X17.1365 Y97.0627
G01 X17.0739 Y97.1195
G01 X17.0099 Y97.1671
G01 X17.0018 Y97.1725
G01 X16.9334 Y97.2134
G01 X16.8614 Y97.2476
G01 X16.8523 Y97.2513
G01 X16.7772 Y97.2781
G01 X16.6952 Y97.2986
G01 X16.6164 Y97.3104
G01 X16.6066 Y97.3114
G01 X16.5270 Y97.3152
G01 X16.4474 Y97.3114
G01 X16.4376 Y97.3104
G01 X16.3588 Y97.2986
G01 X16.2768 Y97.2781
G01 X16.2017 Y97.2513
G01 X16.1926 Y97.2476
G01 X16.1207 Y97.2134
G01 X16.0523 Y97.1725
G01 X16.0441 Y97.1671
G01 X15.9821 Y97.1211
G01 X15.9764 Y97.1163
G01 X15.9175 Y97.0627
G01 X15.8639 Y97.0038
G01 X15.8577 Y96.9962
G01 X15.8131 Y96.9361
G01 X15.8077 Y96.9279
G01 X15.7668 Y96.8595
G01 X15.7326 Y96.7876
G01 X15.7289 Y96.7785
G01 X15.7021 Y96.7034
G01 X15.6816 Y96.6214
G01 X15.6692 Y96.5377
G01 X15.6651 Y96.4581
G01 X15.6650 Y96.4507
G01 X15.6692 Y96.3687
G01 X15.6816 Y96.2850
G01 X15.7021 Y96.2030
G01 X15.7306 Y96.1233
G01 X15.7668 Y96.0468
G01 X15.8103 Y95.9743
G01 X15.8607 Y95.9063
G01 X15.9141 Y95.8472
G01 X15.9192 Y95.8419
G01 X15.9269 Y95.8350
G01 X15.9269 Y93.5763
G01 X15.9294 Y93.5224
G01 X15.9304 Y93.5126
G01 X15.9376 Y93.4640
G01 X15.9395 Y93.4544
G01 X15.9527 Y93.4020
G01 X15.9726 Y93.3466
G01 X15.9955 Y93.2977
G01 X16.0002 Y93.2891
G01 X16.0280 Y93.2428
G01 X16.0616 Y93.1974
G01 X16.0663 Y93.1918
G01 X16.1027 Y93.1518
G01 X28.3074 Y80.9472
G00 Z2.0000
G00 X15.9640 Y71.5523
G01 F100.00
G01 Z0.0000
G01 F350.00
G01 X16.1350 Y71.5566
G01 X16.3046 Y71.5787
G01 X16.4708 Y71.6180
G01 X16.6323 Y71.6740
G01 X16.7876 Y71.7469
G01 X16.9341 Y71.8345
G01 X17.0706 Y71.9375
G01 X17.1963 Y72.0536
G01 X17.3093 Y72.1818
G01 X17.4079 Y72.3212
G01 X17.4923 Y72.4703
G01 X17.5609 Y72.6271
G01 X17.6131 Y72.7900
G01 X17.6480 Y72.9570
G01 X17.6653 Y73.1271
G01 X17.6653 Y73.2983
G01 X17.6480 Y73.4684
G01 X17.6131 Y73.6354
G01 X17.5609 Y73.7983
G01 X17.4923 Y73.9551
G01 X17.4079 Y74.1042
G01 X17.3093 Y74.2436
G01 X17.1963 Y74.3718
G01 X17.0706 Y74.4879
G01 X16.9341 Y74.5909
G01 X16.7876 Y74.6785
G01 X16.6323 Y74.7514
G01 X16.4708 Y74.8074
G01 X16.3046 Y74.8467
G01 X16.1350 Y74.8688
G01 X15.9640 Y74.8731
G01 X15.7934 Y74.8597
G01 X15.6251 Y74.8290
G01 X15.4613 Y74.7816
G01 X15.3028 Y74.7169
G01 X15.1519 Y74.6364
G01 X15.0100 Y74.5411
G01 X14.8787 Y74.4313
G01 X14.7594 Y74.3091
G01 X14.6531 Y74.1750
G01 X14.5616 Y74.0308
G01 X14.4849 Y73.8779
G01 X14.4245 Y73.7179
G01 X14.3809 Y73.5526
G01 X14.3546 Y73.3836
G01 X14.3460 Y73.2125
G01 X14.3546 Y73.0418
G01 X14.3809 Y72.8728
G01 X14.4245 Y72.7075
G01 X14.4849 Y72.5475
G01 X14.5616 Y72.3946
G01 X14.6531 Y72.2504
G01 X14.7595 Y72.1162
G01 X14.8787 Y71.9936
G01 X15.0100 Y71.8844
G01 X15.1518 Y71.7890
G01 X15.3028 Y71.7085
G01 X15.4613 Y71.6438
G01 X15.6251 Y71.5964
G01 X15.7934 Y71.5657
G01 X15.9640 Y71.5523
G00 Z2.0000
G00 X13.7450 Y95.5127
G01 F100.00
G01 Z0.0000
G01 F350.00
G01 X13.9033 Y95.5217
G01 X14.0590 Y95.5483
G01 X14.2112 Y95.5919
G01 X14.3573 Y95.6526
G01 X14.4959 Y95.7290
G01 X14.6249 Y95.8206
G01 X14.7430 Y95.9258
G01 X14.8482 Y96.0439
G01 X14.9398 Y96.1729
G01 X15.0162 Y96.3115
G01 X15.0769 Y96.4576
G01 X15.1205 Y96.6098
G01 X15.1471 Y96.7655
G01 X15.1561 Y96.9234
G01 X15.1471 Y97.0817
G01 X15.1205 Y97.2374
G01 X15.0769 Y97.3896
G01 X15.0162 Y97.5357
G01 X14.9398 Y97.6743
G01 X14.8482 Y97.8033
G01 X14.7430 Y97.9214
G01 X14.6249 Y98.0266
G01 X14.4959 Y98.1182
G01 X14.3573 Y98.1946
G01 X14.2112 Y98.2553
G01 X14.0590 Y98.2989
G01 X13.9033 Y98.3255
G01 X13.7450 Y98.3345
G01 X13.5871 Y98.3255
G01 X13.4314 Y98.2989
G01 X13.2792 Y98.2553
G01 X13.1331 Y98.1946
G01 X12.9945 Y98.1182
G01 X12.8655 Y98.0266
G01 X12.7474 Y97.9214
G01 X12.6422 Y97.8033
G01 X12.5506 Y97.6743
G01 X12.4742 Y97.5357
G01 X12.4135 Y97.3896
G01 X12.3699 Y97.2374
G01 X12.3433 Y97.0817
G01 X12.3343 Y96.9234
G01 X12.3433 Y96.7655
G01 X12.3699 Y96.6098
G01 X12.4135 Y96.4576
G01 X12.4742 Y96.3115
G01 X12.5506 Y96.1729
G01 X12.6422 Y96.0439
G01 X12.7474 Y95.9258
G01 X12.8655 Y95.8206
G01 X12.9945 Y95.7290
G01 X13.1331 Y95.6526
G01 X13.2792 Y95.5919
G01 X13.4314 Y95.5483
G01 X13.5871 Y95.5217
G01 X13.7450 Y95.5127
G00 Z2.0000
G00 X15.1994 Y99.0235
G01 F100.00
G01 Z0.0000
G01 F350.00
G01 X15.3572 Y99.0325
G01 X15.5134 Y99.0591
G01 X15.6652 Y99.1027
G01 X15.8117 Y99.1634
G01 X15.9497 Y99.2398
G01 X16.0788 Y99.3314
G01 X16.1969 Y99.4366
G01 X16.3021 Y99.5547
G01 X16.3937 Y99.6838
G01 X16.4705 Y99.8223
G01 X16.5308 Y99.9684
G01 X16.5749 Y100.1207
G01 X16.6015 Y100.2761
G01 X16.6100 Y100.4341
G01 X16.6015 Y100.5927
G01 X16.5749 Y100.7480
G01 X16.5308 Y100.9004
G01 X16.4705 Y101.0465
G01 X16.3937 Y101.1849
G01 X16.3021 Y101.3141
G01 X16.1969 Y101.4321
G01 X16.0788 Y101.5374
G01 X15.9497 Y101.6290
G01 X15.8117 Y101.7054
G01 X15.6652 Y101.7661
G01 X15.5134 Y101.8097
G01 X15.3572 Y101.8363
G01 X15.1994 Y101.8453
G01 X15.0415 Y101.8363
G01 X14.8853 Y101.8097
G01 X14.7336 Y101.7661
G01 X14.5870 Y101.7054
G01 X14.4490 Y101.6290
G01 X14.3199 Y101.5374
G01 X14.2019 Y101.4321
G01 X14.0966 Y101.3141
G01 X14.0050 Y101.1849
G01 X13.9282 Y101.0465
G01 X13.8679 Y100.9004
G01 X13.8238 Y100.7480
G01 X13.7973 Y100.5927
G01 X13.7887 Y100.4341
G01 X13.7973 Y100.2761
G01 X13.8238 Y100.1207
G01 X13.8679 Y99.9684
G01 X13.9282 Y99.8223
G01 X14.0050 Y99.6838
G01 X14.0966 Y99.5547
G01 X14.2019 Y99.4366
G01 X14.3199 Y99.3314
G01 X14.4490 Y99.2398
G01 X14.5870 Y99.1634
G01 X14.7336 Y99.1027
G01 X14.8853 Y99.0591
G01 X15.0415 Y99.0325
G01 X15.1994 Y99.0235
G00 Z2.0000
G00 X55.9638 Y91.5523
G01 F100.00
G01 Z0.0000
G01 F350.00
G01 X56.1349 Y91.5566
G01 X56.3045 Y91.5786
G01 X56.4708 Y91.6179
G01 X56.6323 Y91.6740
G01 X56.7875 Y91.7463
G01 X56.9340 Y91.8345
G01 X57.0706 Y91.9370
G01 X57.1961 Y92.0534
G01 X57.3092 Y92.1818
G01 X57.4079 Y92.3212
G01 X57.4923 Y92.4699
G01 X57.5608 Y92.6265
G01 X57.6130 Y92.7894
G01 X57.6479 Y92.9569
G01 X57.6652 Y93.1270
G01 X57.6652 Y93.2978
G01 X57.6479 Y93.4679
G01 X57.6130 Y93.6354
G01 X57.5608 Y93.7983
G01 X57.4923 Y93.9550
G01 X57.4079 Y94.1036
G01 X57.3092 Y94.2430
G01 X57.1961 Y94.3714
G01 X57.0706 Y94.4879
G01 X56.9340 Y94.5904
G01 X56.7875 Y94.6785
G01 X56.6323 Y94.7508
G01 X56.4708 Y94.8069
G01 X56.3045 Y94.8462
G01 X56.1349 Y94.8682
G01 X55.9638 Y94.8725
G01 X55.7932 Y94.8596
G01 X55.6252 Y94.8290
G01 X55.4613 Y94.7810
G01 X55.3026 Y94.7168
G01 X55.1518 Y94.6363
G01 X55.0100 Y94.5410
G01 X54.8787 Y94.4313
G01 X54.7593 Y94.3086
G01 X54.6530 Y94.1750
G01 X54.5615 Y94.0303
G01 X54.4848 Y93.8773
G01 X54.4244 Y93.7174
G01 X54.3809 Y93.5521
G01 X54.3545 Y93.3830
G01 X54.3459 Y93.2124
G01 X54.3545 Y93.0418
G01 X54.3809 Y92.8727
G01 X54.4245 Y92.7075
G01 X54.4848 Y92.5475
G01 X54.5615 Y92.3945
G01 X54.6530 Y92.2499
G01 X54.7593 Y92.1163
G01 X54.8787 Y91.9935
G01 X55.0100 Y91.8838
G01 X55.1518 Y91.7885
G01 X55.3026 Y91.7080
G01 X55.4613 Y91.6438
G01 X55.6252 Y91.5959
G01 X55.7932 Y91.5652
G01 X55.9638 Y91.5523
G00 Z2.0000
G00 X73.0194 Y92.1427
G01 F100.00
G01 Z0.0000
G01 F350.00
G01 X73.1429 Y92.1510
G01 X73.2647 Y92.1753
G01 X73.3824 Y92.2153
G01 X73.4936 Y92.2700
G01 X73.5964 Y92.3389
G01 X73.6897 Y92.4207
G01 X73.7715 Y92.5140
G01 X73.8404 Y92.6168
G01 X73.8951 Y92.7280
G01 X73.9351 Y92.8457
G01 X73.9594 Y92.9675
G01 X73.9677 Y93.0910
G01 X73.9594 Y93.2144
G01 X73.9351 Y93.3363
G01 X73.8951 Y93.4540
G01 X73.8404 Y93.5651
G01 X73.7715 Y93.6680
G01 X73.6897 Y93.7613
G01 X73.5964 Y93.8431
G01 X73.4936 Y93.9120
G01 X73.3824 Y93.9666
G01 X73.2647 Y94.0067
G01 X73.1429 Y94.0310
G01 X73.0194 Y94.0393
G01 X72.8960 Y94.0310
G01 X72.7741 Y94.0067
G01 X72.6564 Y93.9666
G01 X72.5453 Y93.9120
G01 X72.4424 Y93.8431
G01 X72.3491 Y93.7613
G01 X72.2673 Y93.6680
G01 X72.1984 Y93.5651
G01 X72.1438 Y93.4540
G01 X72.1037 Y93.3363
G01 X72.0794 Y93.2144
G01 X72.0711 Y93.0910
G01 X72.0794 Y92.9675
G01 X72.1037 Y92.8457
G01 X72.1438 Y92.7280
G01 X72.1984 Y92.6168
G01 X72.2673 Y92.5140
G01 X72.3491 Y92.4207
G01 X72.4424 Y92.3389
G01 X72.5453 Y92.2700
G01 X72.6564 Y92.2153
G01 X72.7741 Y92.1753
G01 X72.8960 Y92.1510
G01 X73.0194 Y92.1427
G00 Z2.0000
G00 X73.9019 Y92.9991
G01 F100.00
G01 Z0.0000
G01 F350.00
G01 X73.9029 Y93.0089
G01 X73.9068 Y93.0910
G01 X73.9025 Y93.1780
G01 X73.8897 Y93.2641
G01 X73.8686 Y93.3486
G01 X73.8393 Y93.4306
G01 X73.8020 Y93.5093
G01 X73.7572 Y93.5840
G01 X73.7054 Y93.6540
G01 X73.6469 Y93.7185
G01 X73.5824 Y93.7770
G01 X73.5124 Y93.8288
G01 X73.4377 Y93.8736
G01 X73.3590 Y93.9109
G01 X73.2770 Y93.9402
G01 X73.1925 Y93.9613
G01 X73.1064 Y93.9741
G01 X73.0194 Y93.9784
G01 X72.9324 Y93.9741
G01 X72.8463 Y93.9613
G01 X72.7618 Y93.9402
G01 X72.6798 Y93.9109
G01 X72.6011 Y93.8736
G01 X72.5264 Y93.8288
G01 X72.4564 Y93.7770
G01 X72.3919 Y93.7185
G01 X72.3334 Y93.6540
G01 X72.2816 Y93.5840
G01 X72.2368 Y93.5093
G01 X72.1995 Y93.4306
G01 X72.1702 Y93.3486
G01 X72.1491 Y93.2641
G01 X72.1363 Y93.1780
G01 X72.1320 Y93.0910
G01 X72.1363 Y93.0040
G01 X72.1491 Y92.9179
G01 X72.1702 Y92.8334
G01 X72.1995 Y92.7514
G01 X72.2368 Y92.6727
G01 X72.2816 Y92.5980
G01 X72.3334 Y92.5280
G01 X72.3919 Y92.4635
G01 X72.4564 Y92.4050
G01 X72.5264 Y92.3532
G01 X72.6011 Y92.3084
G01 X72.6798 Y92.2711
G01 X72.7618 Y92.2418
G01 X72.8463 Y92.2207
G01 X72.9324 Y92.2079
G01 X73.0194 Y92.2036
G01 X73.1064 Y92.2079
G01 X73.1925 Y92.2207
G01 X73.2770 Y92.2418
G01 X73.3590 Y92.2711
G01 X73.4377 Y92.3084
G01 X73.5124 Y92.3532
G01 X73.5824 Y92.4050
G01 X73.6469 Y92.4635
G01 X73.7054 Y92.5280
G01 X73.7572 Y92.5980
G01 X73.8020 Y92.6727
G01 X73.8393 Y92.7514
G01 X73.8686 Y92.8334
G01 X73.8897 Y92.9179
G01 X73.9019 Y92.9991
G00 Z2.0000
G00 X67.5584 Y107.2435
G01 F100.00
G01 Z0.0000
G01 F350.00
G01 X67.6840 Y107.2513
G01 X67.8071 Y107.2761
G01 X67.9260 Y107.3167
G01 X68.0387 Y107.3719
G01 X68.1431 Y107.4418
G01 X68.2378 Y107.5246
G01 X68.3206 Y107.6193
G01 X68.3905 Y107.7237
G01 X68.4457 Y107.8364
G01 X68.4863 Y107.9553
G01 X68.5111 Y108.0784
G01 X68.5189 Y108.2040
G01 X68.5111 Y108.3296
G01 X68.4863 Y108.4527
G01 X68.4457 Y108.5716
G01 X68.3905 Y108.6843
G01 X68.3206 Y108.7887
G01 X68.2648 Y108.8532
G01 X68.2593 Y108.8613
G01 X68.2370 Y108.8986
G01 X68.2339 Y108.9052
G01 X68.2313 Y108.9119
G01 X68.2281 Y108.9235
G01 X68.2206 Y108.9640
G01 X68.2197 Y108.9719
G01 X68.2194 Y108.9797
G01 X68.2194 Y110.9126
G01 X68.2199 Y110.9228
G01 X68.2220 Y110.9353
G01 X68.2321 Y110.9790
G01 X68.2348 Y110.9884
G01 X68.2384 Y110.9974
G01 X68.2416 Y111.0040
G01 X68.2467 Y111.0123
G01 X68.2525 Y111.0201
G01 X68.2935 Y111.0672
G01 X68.3878 Y111.1646
G01 X68.3933 Y111.1698
G01 X68.4033 Y111.1776
G01 X68.4409 Y111.2032
G01 X68.4474 Y111.2068
G01 X68.4541 Y111.2100
G01 X68.4658 Y111.2141
G01 X68.5151 Y111.2244
G01 X68.5252 Y111.2257
G01 X68.5328 Y111.2260
G01 X74.7185 Y111.2259
G01 X74.7259 Y111.2252
G01 X74.7332 Y111.2241
G01 X74.7831 Y111.2127
G01 X74.7902 Y111.2104
G01 X74.7993 Y111.2066
G01 X74.8059 Y111.2032
G01 X74.8122 Y111.1992
G01 X74.8508 Y111.1704
G01 X74.8583 Y111.1643
G01 X74.8651 Y111.1574
G01 X74.8962 Y111.1211
G01 X74.9964 Y111.0298
G01 X75.1072 Y110.9511
G01 X75.2263 Y110.8874
G01 X75.3525 Y110.8385
G01 X75.4844 Y110.8054
G01 X75.6185 Y110.7886
G01 X75.7543 Y110.7886
G01 X75.8884 Y110.8054
G01 X76.0203 Y110.8385
G01 X76.1465 Y110.8874
G01 X76.2656 Y110.9511
G01 X76.3764 Y111.0298
G01 X76.4766 Y111.1211
G01 X76.5077 Y111.1574
G01 X76.5145 Y111.1643
G01 X76.5220 Y111.1704
G01 X76.5606 Y111.1992
G01 X76.5669 Y111.2032
G01 X76.5735 Y111.2066
G01 X76.5826 Y111.2104
G01 X76.5897 Y111.2127
G01 X76.6396 Y111.2241
G01 X76.6469 Y111.2252
G01 X76.6543 Y111.2259
G01 X82.8426 Y111.2260
G01 X82.8502 Y111.2255
G01 X82.8577 Y111.2244
G01 X82.9046 Y111.2147
G01 X82.9117 Y111.2126
G01 X82.9209 Y111.2090
G01 X82.9276 Y111.2057
G01 X82.9339 Y111.2019
G01 X82.9716 Y111.1762
G01 X82.9796 Y111.1698
G01 X82.9851 Y111.1646
G01 X83.0732 Y111.0735
G01 X83.1783 Y110.9889
G01 X83.2939 Y110.9176
G01 X83.4168 Y110.8608
G01 X83.5458 Y110.8198
G01 X83.6795 Y110.7947
G01 X83.8144 Y110.7863
G01 X83.9493 Y110.7947
G01 X84.0830 Y110.8198
G01 X84.2120 Y110.8608
G01 X84.3350 Y110.9176
G01 X84.4505 Y110.9889
G01 X84.5557 Y111.0736
G01 X84.6502 Y111.1709
G01 X84.7317 Y111.2789
G01 X84.7996 Y111.3962
G01 X84.8522 Y111.5210
G01 X84.8895 Y111.6515
G01 X84.9105 Y111.7854
G01 X84.9142 Y111.9210
G01 X84.9021 Y112.0560
G01 X84.8727 Y112.1882
G01 X84.8280 Y112.3159
G01 X84.7676 Y112.4373
G01 X84.6926 Y112.5500
G01 X84.6045 Y112.6529
G01 X84.5044 Y112.7442
G01 X84.3936 Y112.8229
G01 X84.2745 Y112.8866
G01 X84.1483 Y112.9355
G01 X84.0164 Y112.9686
G01 X83.8823 Y112.9854
G01 X83.7465 Y112.9854
G01 X83.6124 Y112.9686
G01 X83.4805 Y112.9355
G01 X83.3543 Y112.8866
G01 X83.2352 Y112.8229
G01 X83.1244 Y112.7442
G01 X83.0242 Y112.6529
G01 X82.9931 Y112.6166
G01 X82.9863 Y112.6097
G01 X82.9788 Y112.6035
G01 X82.9402 Y112.5748
G01 X82.9318 Y112.5696
G01 X82.9251 Y112.5663
G01 X82.9182 Y112.5636
G01 X82.9111 Y112.5613
G01 X82.8612 Y112.5499
G01 X82.8515 Y112.5485
G01 X82.8416 Y112.5480
G01 X76.6557 Y112.5481
G01 X76.6431 Y112.5495
G01 X76.5962 Y112.5593
G01 X76.5891 Y112.5614
G01 X76.5821 Y112.5640
G01 X76.5754 Y112.5672
G01 X76.5668 Y112.5721
G01 X76.5292 Y112.5978
G01 X76.5213 Y112.6041
G01 X76.5158 Y112.6094
G01 X76.4276 Y112.7005
G01 X76.3225 Y112.7851
G01 X76.2070 Y112.8564
G01 X76.0840 Y112.9132
G01 X75.9550 Y112.9542
G01 X75.8213 Y112.9793
G01 X75.6864 Y112.9877
G01 X75.5515 Y112.9793
G01 X75.4178 Y112.9542
G01 X75.2888 Y112.9132
G01 X75.1659 Y112.8564
G01 X75.0503 Y112.7851
G01 X74.9452 Y112.7005
G01 X74.8571 Y112.6094
G01 X74.8516 Y112.6041
G01 X74.8436 Y112.5978
G01 X74.8059 Y112.5721
G01 X74.7996 Y112.5683
G01 X74.7929 Y112.5650
G01 X74.7837 Y112.5614
G01 X74.7766 Y112.5593
G01 X74.7297 Y112.5495
G01 X74.7171 Y112.5481
G01 X68.5287 Y112.5480
G01 X68.5214 Y112.5485
G01 X68.5116 Y112.5499
G01 X68.4617 Y112.5613
G01 X68.4523 Y112.5644
G01 X68.4455 Y112.5674
G01 X68.4368 Y112.5721
G01 X68.4305 Y112.5762
G01 X68.3940 Y112.6035
G01 X68.3865 Y112.6097
G01 X68.3797 Y112.6166
G01 X68.3486 Y112.6529
G01 X68.2484 Y112.7442
G01 X68.1376 Y112.8229
G01 X68.0185 Y112.8866
G01 X67.8923 Y112.9355
G01 X67.7604 Y112.9686
G01 X67.6263 Y112.9854
G01 X67.4905 Y112.9854
G01 X67.3564 Y112.9686
G01 X67.2245 Y112.9355
G01 X67.0983 Y112.8866
G01 X66.9792 Y112.8229
G01 X66.8684 Y112.7442
G01 X66.7683 Y112.6529
G01 X66.6802 Y112.5500
G01 X66.6053 Y112.4373
G01 X66.5448 Y112.3159
G01 X66.5001 Y112.1882
G01 X66.4707 Y112.0559
G01 X66.4581 Y111.9210
G01 X66.4623 Y111.7855
G01 X66.4833 Y111.6515
G01 X66.5206 Y111.5210
G01 X66.5732 Y111.3962
G01 X66.6411 Y111.2789
G01 X66.7226 Y111.1709
G01 X66.8233 Y111.0672
G01 X66.8643 Y111.0201
G01 X66.8687 Y111.0143
G01 X66.8727 Y111.0082
G01 X66.8763 Y111.0018
G01 X66.8794 Y110.9952
G01 X66.8820 Y110.9884
G01 X66.8841 Y110.9814
G01 X66.8954 Y110.9328
G01 X66.8966 Y110.9253
G01 X66.8974 Y110.9152
G01 X66.8974 Y108.9797
G01 X66.8969 Y108.9692
G01 X66.8957 Y108.9615
G01 X66.8876 Y108.9188
G01 X66.8855 Y108.9119
G01 X66.8829 Y108.9052
G01 X66.8775 Y108.8944
G01 X66.8562 Y108.8592
G01 X66.8505 Y108.8512
G01 X66.7962 Y108.7887
G01 X66.7263 Y108.6843
G01 X66.6711 Y108.5716
G01 X66.6305 Y108.4527
G01 X66.6057 Y108.3296
G01 X66.5979 Y108.2040
G01 X66.6057 Y108.0784
G01 X66.6305 Y107.9553
G01 X66.6711 Y107.8364
G01 X66.7263 Y107.7237
G01 X66.7962 Y107.6193
G01 X66.8790 Y107.5246
G01 X66.9737 Y107.4418
G01 X67.0781 Y107.3719
G01 X67.1908 Y107.3167
G01 X67.3097 Y107.2761
G01 X67.4328 Y107.2513
G01 X67.5584 Y107.2435
G00 Z2.0000
G00 X66.9581 Y111.0390
G01 F100.00
G01 Z0.0000
G01 F350.00
G01 X66.9581 Y108.8733
G01 X66.9203 Y108.8386
G01 X66.8643 Y108.7768
G01 X66.8129 Y108.7080
G01 X66.8087 Y108.7020
G01 X66.7647 Y108.6283
G01 X66.7289 Y108.5529
G01 X66.7251 Y108.5438
G01 X66.6979 Y108.4676
G01 X66.6958 Y108.4605
G01 X66.6757 Y108.3796
G01 X66.6633 Y108.2971
G01 X66.6624 Y108.2873
G01 X66.6584 Y108.2040
G01 X66.6624 Y108.1207
G01 X66.6633 Y108.1109
G01 X66.6752 Y108.0308
G01 X66.6768 Y108.0236
G01 X66.6972 Y107.9427
G01 X66.7269 Y107.8596
G01 X66.7647 Y107.7797
G01 X66.8075 Y107.7081
G01 X66.8129 Y107.7000
G01 X66.8597 Y107.6369
G01 X66.8659 Y107.6293
G01 X66.9220 Y107.5676
G01 X66.9837 Y107.5115
G01 X66.9913 Y107.5053
G01 X67.0584 Y107.4557
G01 X67.1341 Y107.4103
G01 X67.2140 Y107.3725
G01 X67.2971 Y107.3428
G01 X67.3828 Y107.3213
G01 X67.4702 Y107.3083
G01 X67.5584 Y107.3040
G01 X67.6417 Y107.3080
G01 X67.6515 Y107.3089
G01 X67.7291 Y107.3205
G01 X67.7388 Y107.3224
G01 X67.8197 Y107.3428
G01 X67.9028 Y107.3725
G01 X67.9827 Y107.4103
G01 X68.0543 Y107.4531
G01 X68.0624 Y107.4585
G01 X68.1255 Y107.5053
G01 X68.1331 Y107.5115
G01 X68.1948 Y107.5676
G01 X68.2541 Y107.6330
G01 X68.3067 Y107.7040
G01 X68.3497 Y107.7755
G01 X68.3543 Y107.7841
G01 X68.3879 Y107.8551
G01 X68.3917 Y107.8642
G01 X68.4196 Y107.9427
G01 X68.4411 Y108.0284
G01 X68.4535 Y108.1109
G01 X68.4544 Y108.1207
G01 X68.4584 Y108.2040
G01 X68.4544 Y108.2873
G01 X68.4535 Y108.2971
G01 X68.4411 Y108.3796
G01 X68.4210 Y108.4605
G01 X68.4189 Y108.4676
G01 X68.3917 Y108.5438
G01 X68.3879 Y108.5529
G01 X68.3521 Y108.6283
G01 X68.3081 Y108.7020
G01 X68.3039 Y108.7080
G01 X68.2525 Y108.7768
G01 X68.1965 Y108.8386
G01 X68.1587 Y108.8733
G01 X68.1587 Y111.0390
G01 X68.2180 Y111.0832
G01 X68.2936 Y111.1518
G01 X68.3622 Y111.2274
G01 X68.4064 Y111.2867
G01 X74.8384 Y111.2867
G01 X74.8826 Y111.2274
G01 X74.9478 Y111.1553
G01 X74.9547 Y111.1484
G01 X75.0249 Y111.0848
G01 X75.0306 Y111.0802
G01 X75.1087 Y111.0224
G01 X75.1920 Y110.9724
G01 X75.1984 Y110.9688
G01 X75.2840 Y110.9283
G01 X75.2931 Y110.9246
G01 X75.3846 Y110.8920
G01 X75.4788 Y110.8683
G01 X75.4884 Y110.8663
G01 X75.5845 Y110.8522
G01 X75.6864 Y110.8472
G01 X75.7883 Y110.8522
G01 X75.8844 Y110.8663
G01 X75.8940 Y110.8683
G01 X75.9882 Y110.8920
G01 X76.0797 Y110.9246
G01 X76.0888 Y110.9283
G01 X76.1744 Y110.9688
G01 X76.1808 Y110.9724
G01 X76.2641 Y111.0224
G01 X76.3422 Y111.0802
G01 X76.3479 Y111.0848
G01 X76.4181 Y111.1484
G01 X76.4250 Y111.1553
G01 X76.4902 Y111.2274
G01 X76.5344 Y111.2867
G01 X82.9664 Y111.2867
G01 X83.0106 Y111.2274
G01 X83.0758 Y111.1553
G01 X83.0827 Y111.1484
G01 X83.1529 Y111.0848
G01 X83.1586 Y111.0802
G01 X83.2367 Y111.0224
G01 X83.3200 Y110.9724
G01 X83.3264 Y110.9688
G01 X83.4120 Y110.9283
G01 X83.4211 Y110.9246
G01 X83.5126 Y110.8920
G01 X83.6068 Y110.8683
G01 X83.6164 Y110.8663
G01 X83.7125 Y110.8522
G01 X83.8095 Y110.8473
G01 X83.8193 Y110.8473
G01 X83.9163 Y110.8522
G01 X84.0173 Y110.8672
G01 X84.1162 Y110.8920
G01 X84.2123 Y110.9264
G01 X84.3046 Y110.9700
G01 X84.3921 Y111.0224
G01 X84.4740 Y111.0832
G01 X84.5461 Y111.1484
G01 X84.5530 Y111.1553
G01 X84.6182 Y111.2274
G01 X84.6761 Y111.3053
G01 X84.6816 Y111.3135
G01 X84.7314 Y111.3968
G01 X84.7731 Y111.4846
G01 X84.7768 Y111.4937
G01 X84.8079 Y111.5805
G01 X84.8107 Y111.5899
G01 X84.8342 Y111.6841
G01 X84.8492 Y111.7851
G01 X84.8542 Y111.8870
G01 X84.8496 Y111.9840
G01 X84.8486 Y111.9938
G01 X84.8342 Y112.0899
G01 X84.8107 Y112.1841
G01 X84.8079 Y112.1935
G01 X84.7768 Y112.2803
G01 X84.7731 Y112.2894
G01 X84.7314 Y112.3772
G01 X84.6790 Y112.4647
G01 X84.6182 Y112.5466
G01 X84.5496 Y112.6222
G01 X84.4740 Y112.6908
G01 X84.3921 Y112.7516
G01 X84.3046 Y112.8040
G01 X84.2168 Y112.8457
G01 X84.2077 Y112.8494
G01 X84.1162 Y112.8820
G01 X84.0220 Y112.9057
G01 X84.0124 Y112.9077
G01 X83.9212 Y112.9212
G01 X83.9114 Y112.9222
G01 X83.8193 Y112.9267
G01 X83.8095 Y112.9267
G01 X83.7125 Y112.9218
G01 X83.6164 Y112.9077
G01 X83.6068 Y112.9057
G01 X83.5126 Y112.8820
G01 X83.4211 Y112.8494
G01 X83.4120 Y112.8457
G01 X83.3242 Y112.8040
G01 X83.2409 Y112.7542
G01 X83.2327 Y112.7487
G01 X83.1548 Y112.6908
G01 X83.0827 Y112.6256
G01 X83.0758 Y112.6187
G01 X83.0106 Y112.5466
G01 X82.9664 Y112.4873
G01 X76.5344 Y112.4873
G01 X76.4902 Y112.5466
G01 X76.4250 Y112.6187
G01 X76.4181 Y112.6256
G01 X76.3479 Y112.6892
G01 X76.3422 Y112.6938
G01 X76.2641 Y112.7516
G01 X76.1808 Y112.8016
G01 X76.1744 Y112.8052
G01 X76.0888 Y112.8457
G01 X76.0797 Y112.8494
G01 X75.9882 Y112.8820
G01 X75.8940 Y112.9057
G01 X75.8844 Y112.9077
G01 X75.7883 Y112.9218
G01 X75.6864 Y112.9268
G01 X75.5845 Y112.9218
G01 X75.4884 Y112.9077
G01 X75.4788 Y112.9057
G01 X75.3846 Y112.8820
G01 X75.2931 Y112.8494
G01 X75.2840 Y112.8457
G01 X75.1984 Y112.8052
G01 X75.1920 Y112.8016
G01 X75.1087 Y112.7516
G01 X75.0306 Y112.6938
G01 X75.0249 Y112.6892
G01 X74.9547 Y112.6256
G01 X74.9478 Y112.6187
G01 X74.8826 Y112.5466
G01 X74.8384 Y112.4873
G01 X68.4064 Y112.4873
G01 X68.3622 Y112.5466
G01 X68.2970 Y112.6187
G01 X68.2901 Y112.6256
G01 X68.2180 Y112.6908
G01 X68.1401 Y112.7487
G01 X68.1319 Y112.7542
G01 X68.0486 Y112.8040
G01 X67.9608 Y112.8457
G01 X67.9517 Y112.8494
G01 X67.8602 Y112.8820
G01 X67.7660 Y112.9057
G01 X67.7564 Y112.9077
G01 X67.6603 Y112.9218
G01 X67.5633 Y112.9267
G01 X67.5535 Y112.9267
G01 X67.4614 Y112.9222
G01 X67.4516 Y112.9212
G01 X67.3604 Y112.9077
G01 X67.3508 Y112.9057
G01 X67.2566 Y112.8820
G01 X67.1605 Y112.8476
G01 X67.0682 Y112.8040
G01 X66.9849 Y112.7542
G01 X66.9767 Y112.7487
G01 X66.8988 Y112.6908
G01 X66.8267 Y112.6256
G01 X66.8198 Y112.6187
G01 X66.7546 Y112.5466
G01 X66.6938 Y112.4647
G01 X66.6414 Y112.3772
G01 X66.5997 Y112.2894
G01 X66.5960 Y112.2803
G01 X66.5649 Y112.1935
G01 X66.5627 Y112.1865
G01 X66.5386 Y112.0899
G01 X66.5242 Y111.9938
G01 X66.5232 Y111.9840
G01 X66.5186 Y111.8870
G01 X66.5236 Y111.7851
G01 X66.5377 Y111.6890
G01 X66.5397 Y111.6794
G01 X66.5621 Y111.5899
G01 X66.5649 Y111.5805
G01 X66.5978 Y111.4891
G01 X66.6392 Y111.4012
G01 X66.6438 Y111.3926
G01 X66.6912 Y111.3135
G01 X66.6967 Y111.3053
G01 X66.7546 Y111.2274
G01 X66.8232 Y111.1518
G01 X66.8988 Y111.0832
G01 X66.9581 Y111.0390
G00 Z2.0000
G00 X66.7104 Y122.6473
G01 F100.00
G01 Z0.0000
G01 F350.00
G01 X60.2144 Y122.6473
G01 X51.1540 Y131.7076
G01 X51.1545 Y131.7179
G01 X51.1544 Y131.7252
G01 X51.1503 Y131.8048
G01 X51.1379 Y131.8885
G01 X51.1174 Y131.9706
G01 X51.0907 Y132.0456
G01 X51.0869 Y132.0547
G01 X51.0527 Y132.1267
G01 X51.0119 Y132.1951
G01 X51.0064 Y132.2032
G01 X50.9619 Y132.2633
G01 X50.9556 Y132.2709
G01 X50.9020 Y132.3299
G01 X50.8431 Y132.3835
G01 X50.8355 Y132.3897
G01 X50.7714 Y132.4371
G01 X50.6988 Y132.4805
G01 X50.6224 Y132.5167
G01 X50.5474 Y132.5437
G01 X50.5380 Y132.5465
G01 X50.4655 Y132.5647
G01 X50.4558 Y132.5666
G01 X50.3770 Y132.5782
G01 X50.2974 Y132.5822
G01 X50.2876 Y132.5822
G01 X50.2080 Y132.5782
G01 X50.1243 Y132.5658
G01 X50.0423 Y132.5452
G01 X49.9626 Y132.5167
G01 X49.8862 Y132.4805
G01 X49.8177 Y132.4397
G01 X49.8096 Y132.4342
G01 X49.7495 Y132.3897
G01 X49.7419 Y132.3835
G01 X49.6830 Y132.3299
G01 X49.6294 Y132.2709
G01 X49.6231 Y132.2633
G01 X49.5758 Y132.1992
G01 X49.5335 Y132.1288
G01 X49.4981 Y132.0547
G01 X49.4943 Y132.0456
G01 X49.4676 Y131.9706
G01 X49.4471 Y131.8885
G01 X49.4347 Y131.8048
G01 X49.4306 Y131.7252
G01 X49.4306 Y131.7154
G01 X49.4343 Y131.6407
G01 X49.4353 Y131.6310
G01 X49.4471 Y131.5522
G01 X49.4676 Y131.4701
G01 X49.4961 Y131.3905
G01 X49.5301 Y131.3184
G01 X49.5347 Y131.3097
G01 X49.5731 Y131.2456
G01 X49.5786 Y131.2374
G01 X49.6262 Y131.1735
G01 X49.6813 Y131.1126
G01 X49.6865 Y131.1074
G01 X49.7457 Y131.0540
G01 X49.8136 Y131.0036
G01 X49.8862 Y130.9601
G01 X49.9626 Y130.9239
G01 X50.0423 Y130.8954
G01 X50.1243 Y130.8749
G01 X50.2080 Y130.8625
G01 X50.2876 Y130.8585
G01 X50.3050 Y130.8588
G01 X59.5413 Y121.6226
G01 X59.5850 Y121.5830
G01 X59.6283 Y121.5507
G01 X59.6343 Y121.5466
G01 X59.6828 Y121.5176
G01 X59.7316 Y121.4944
G01 X59.7406 Y121.4907
G01 X59.7915 Y121.4726
G01 X59.8439 Y121.4594
G01 X59.8535 Y121.4574
G01 X59.9069 Y121.4496
G01 X59.9633 Y121.4468
G01 X66.1093 Y121.4467
G01 X63.1952 Y118.5327
G01 X63.1574 Y118.4908
G01 X63.1223 Y118.4435
G01 X63.0920 Y118.3930
G01 X63.0688 Y118.3442
G01 X63.0651 Y118.3351
G01 X63.0485 Y118.2889
G01 X63.0457 Y118.2795
G01 X63.0327 Y118.2271
G01 X63.0240 Y118.1688
G01 X63.0211 Y118.1100
G01 X63.0211 Y90.2970
G01 X63.0237 Y90.2431
G01 X63.0246 Y90.2333
G01 X63.0327 Y90.1799
G01 X63.0470 Y90.1228
G01 X63.0651 Y90.0719
G01 X63.0688 Y90.0628
G01 X63.0920 Y90.0140
G01 X63.1210 Y89.9656
G01 X63.1251 Y89.9595
G01 X63.1574 Y89.9162
G01 X63.1970 Y89.8726
G01 X79.5800 Y73.4896
G01 X79.6236 Y73.4500
G01 X79.6689 Y73.4163
G01 X79.7172 Y73.3870
G01 X79.7258 Y73.3824
G01 X79.7747 Y73.3594
G01 X79.8302 Y73.3396
G01 X79.8825 Y73.3264
G01 X79.8921 Y73.3244
G01 X79.9456 Y73.3166
G01 X80.0019 Y73.3138
G01 X86.0661 Y73.3137
G01 X86.1008 Y73.2759
G01 X86.1607 Y73.2215
G01 X86.1664 Y73.2168
G01 X86.2354 Y73.1657
G01 X86.3090 Y73.1215
G01 X86.3865 Y73.0845
G01 X86.3956 Y73.0807
G01 X86.4741 Y73.0528
G01 X86.5574 Y73.0318
G01 X86.6423 Y73.0189
G01 X86.6521 Y73.0180
G01 X86.7354 Y73.0140
G01 X86.8236 Y73.0183
G01 X86.9110 Y73.0313
G01 X86.9919 Y73.0514
G01 X87.0013 Y73.0543
G01 X87.0798 Y73.0825
G01 X87.1597 Y73.1203
G01 X87.2313 Y73.1631
G01 X87.2394 Y73.1685
G01 X87.3064 Y73.2183
G01 X87.3718 Y73.2776
G01 X87.4279 Y73.3393
G01 X87.4341 Y73.3469
G01 X87.4809 Y73.4100
G01 X87.4863 Y73.4181
G01 X87.5291 Y73.4897
G01 X87.5669 Y73.5696
G01 X87.5966 Y73.6527
G01 X87.6170 Y73.7336
G01 X87.6189 Y73.7433
G01 X87.6305 Y73.8209
G01 X87.6314 Y73.8307
G01 X87.6354 Y73.9140
G01 X87.6311 Y74.0022
G01 X87.6181 Y74.0896
G01 X87.5980 Y74.1705
G01 X87.5951 Y74.1799
G01 X87.5669 Y74.2584
G01 X87.5291 Y74.3383
G01 X87.4863 Y74.4099
G01 X87.4809 Y74.4180
G01 X87.4341 Y74.4811
G01 X87.4279 Y74.4887
G01 X87.3718 Y74.5504
G01 X87.3064 Y74.6097
G01 X87.2354 Y74.6623
G01 X87.1639 Y74.7053
G01 X87.1553 Y74.7099
G01 X87.0843 Y74.7435
G01 X87.0752 Y74.7473
G01 X86.9967 Y74.7752
G01 X86.9110 Y74.7967
G01 X86.8285 Y74.8091
G01 X86.8187 Y74.8100
G01 X86.7354 Y74.8140
G01 X86.6521 Y74.8100
G01 X86.6423 Y74.8091
G01 X86.5598 Y74.7967
G01 X86.4789 Y74.7766
G01 X86.4718 Y74.7745
G01 X86.3956 Y74.7473
G01 X86.3865 Y74.7435
G01 X86.3111 Y74.7077
G01 X86.2374 Y74.6637
G01 X86.2314 Y74.6595
G01 X86.1626 Y74.6081
G01 X86.1008 Y74.5521
G01 X86.0661 Y74.5143
G01 X80.2530 Y74.5143
G01 X64.2217 Y90.5456
G01 X64.2217 Y117.8614
G01 X67.3832 Y121.0230
G01 X67.4565 Y121.0122
G01 X67.5584 Y121.0072
G01 X67.6603 Y121.0122
G01 X67.7564 Y121.0263
G01 X67.7660 Y121.0283
G01 X67.8555 Y121.0507
G01 X67.8649 Y121.0535
G01 X67.9563 Y121.0864
G01 X68.0464 Y121.1288
G01 X68.0528 Y121.1324
G01 X68.1319 Y121.1798
G01 X68.1401 Y121.1853
G01 X68.2180 Y121.2432
G01 X68.2936 Y121.3118
G01 X68.3622 Y121.3874
G01 X68.4201 Y121.4653
G01 X68.4256 Y121.4735
G01 X68.4754 Y121.5568
G01 X68.5190 Y121.6491
G01 X68.5534 Y121.7452
G01 X68.5782 Y121.8441
G01 X68.5932 Y121.9451
G01 X68.5982 Y122.0470
G01 X68.5932 Y122.1489
G01 X68.5782 Y122.2499
G01 X68.5547 Y122.3441
G01 X68.5519 Y122.3535
G01 X68.5208 Y122.4403
G01 X68.5171 Y122.4494
G01 X68.4754 Y122.5372
G01 X68.4256 Y122.6205
G01 X68.4201 Y122.6287
G01 X68.3622 Y122.7066
G01 X68.2936 Y122.7822
G01 X68.2180 Y122.8508
G01 X68.1401 Y122.9087
G01 X68.1340 Y122.9129
G01 X68.0486 Y122.9640
G01 X67.9563 Y123.0076
G01 X67.8602 Y123.0420
G01 X67.7613 Y123.0668
G01 X67.6603 Y123.0818
G01 X67.5584 Y123.0868
G01 X67.4565 Y123.0818
G01 X67.3555 Y123.0668
G01 X67.2566 Y123.0420
G01 X67.1605 Y123.0076
G01 X67.0682 Y122.9640
G01 X66.9828 Y122.9129
G01 X66.9767 Y122.9087
G01 X66.8988 Y122.8508
G01 X66.8249 Y122.7840
G01 X66.8198 Y122.7787
G01 X66.7546 Y122.7066
G01 X66.7104 Y122.6473
G00 Z2.0000
G00 X74.6624 Y122.2222
G01 F100.00
G01 Z0.0000
G01 F350.00
G01 X74.6516 Y122.1489
G01 X74.6466 Y122.0470
G01 X74.6516 Y121.9451
G01 X74.6657 Y121.8490
G01 X74.6677 Y121.8394
G01 X74.6901 Y121.7499
G01 X74.6929 Y121.7405
G01 X74.7258 Y121.6491
G01 X74.7672 Y121.5612
G01 X74.7718 Y121.5526
G01 X74.8192 Y121.4735
G01 X74.8247 Y121.4653
G01 X74.8826 Y121.3874
G01 X74.9512 Y121.3118
G01 X75.0230 Y121.2464
G01 X75.0306 Y121.2402
G01 X75.1087 Y121.1824
G01 X75.1941 Y121.1312
G01 X75.2006 Y121.1278
G01 X75.2840 Y121.0883
G01 X75.2931 Y121.0846
G01 X75.3846 Y121.0520
G01 X75.4835 Y121.0272
G01 X75.5845 Y121.0122
G01 X75.6815 Y121.0073
G01 X75.6913 Y121.0073
G01 X75.7883 Y121.0122
G01 X75.8844 Y121.0263
G01 X75.8940 Y121.0283
G01 X75.9882 Y121.0520
G01 X76.0843 Y121.0864
G01 X76.1766 Y121.1300
G01 X76.2599 Y121.1798
G01 X76.2681 Y121.1853
G01 X76.3422 Y121.2402
G01 X76.3479 Y121.2448
G01 X76.4181 Y121.3084
G01 X76.4250 Y121.3153
G01 X76.4902 Y121.3874
G01 X76.5481 Y121.4653
G01 X76.5536 Y121.4735
G01 X76.6034 Y121.5568
G01 X76.6451 Y121.6446
G01 X76.6488 Y121.6537
G01 X76.6814 Y121.7452
G01 X76.7051 Y121.8394
G01 X76.7071 Y121.8490
G01 X76.7212 Y121.9451
G01 X76.7261 Y122.0421
G01 X76.7261 Y122.0519
G01 X76.7212 Y122.1489
G01 X76.7104 Y122.2222
G01 X91.6618 Y137.1735
G01 X100.7283 Y137.1735
G01 X100.7353 Y137.1659
G01 X100.7405 Y137.1607
G01 X100.7997 Y137.1073
G01 X100.8676 Y137.0569
G01 X100.9402 Y137.0134
G01 X101.0121 Y136.9793
G01 X101.0212 Y136.9755
G01 X101.0963 Y136.9488
G01 X101.1735 Y136.9293
G01 X101.1832 Y136.9274
G01 X101.2571 Y136.9164
G01 X101.2669 Y136.9154
G01 X101.3465 Y136.9117
G01 X101.4310 Y136.9158
G01 X101.5147 Y136.9282
G01 X101.5920 Y136.9475
G01 X101.6014 Y136.9503
G01 X101.6764 Y136.9773
G01 X101.7485 Y137.0112
G01 X101.7571 Y137.0159
G01 X101.8254 Y137.0569
G01 X101.8895 Y137.1043
G01 X101.8971 Y137.1105
G01 X101.9560 Y137.1641
G01 X102.0096 Y137.2231
G01 X102.0159 Y137.2307
G01 X102.0632 Y137.2948
G01 X102.1067 Y137.3673
G01 X102.1409 Y137.4393
G01 X102.1447 Y137.4484
G01 X102.1714 Y137.5234
G01 X102.1909 Y137.6007
G01 X102.1928 Y137.6103
G01 X102.2043 Y137.6892
G01 X102.2085 Y137.7737
G01 X102.2047 Y137.8533
G01 X102.2037 Y137.8630
G01 X102.1919 Y137.9418
G01 X102.1727 Y138.0192
G01 X102.1698 Y138.0285
G01 X102.1429 Y138.1035
G01 X102.1089 Y138.1756
G01 X102.1055 Y138.1822
G01 X102.0632 Y138.2526
G01 X102.0159 Y138.3166
G01 X102.0096 Y138.3242
G01 X101.9560 Y138.3832
G01 X101.8971 Y138.4368
G01 X101.8895 Y138.4430
G01 X101.8254 Y138.4904
G01 X101.7571 Y138.5315
G01 X101.7485 Y138.5361
G01 X101.6764 Y138.5700
G01 X101.6014 Y138.5970
G01 X101.5920 Y138.5999
G01 X101.5147 Y138.6191
G01 X101.4359 Y138.6309
G01 X101.4261 Y138.6319
G01 X101.3465 Y138.6357
G01 X101.2620 Y138.6315
G01 X101.1783 Y138.6191
G01 X101.0963 Y138.5985
G01 X101.0166 Y138.5700
G01 X100.9402 Y138.5339
G01 X100.8676 Y138.4904
G01 X100.7997 Y138.4400
G01 X100.7405 Y138.3866
G01 X100.7285 Y138.3740
G01 X91.4132 Y138.3740
G01 X91.3592 Y138.3715
G01 X91.3494 Y138.3705
G01 X91.2960 Y138.3625
G01 X91.2436 Y138.3495
G01 X91.2342 Y138.3466
G01 X91.1834 Y138.3283
G01 X91.1346 Y138.3053
G01 X91.1280 Y138.3019
G01 X91.0797 Y138.2728
G01 X91.0362 Y138.2408
G01 X91.0286 Y138.2345
G01 X90.9887 Y138.1982
G01 X75.8616 Y123.0710
G01 X75.7883 Y123.0818
G01 X75.6864 Y123.0868
G01 X75.5845 Y123.0818
G01 X75.5112 Y123.0710
G01 X57.4418 Y141.1404
G01 X57.4019 Y141.1768
G01 X57.3943 Y141.1830
G01 X57.3509 Y141.2151
G01 X57.3046 Y141.2430
G01 X57.2960 Y141.2476
G01 X57.2471 Y141.2706
G01 X57.1963 Y141.2889
G01 X57.1869 Y141.2917
G01 X57.1345 Y141.3047
G01 X57.0811 Y141.3128
G01 X57.0713 Y141.3137
G01 X57.0174 Y141.3163
G01 X49.7784 Y141.3163
G01 X49.7196 Y141.3134
G01 X49.6637 Y141.3052
G01 X49.6089 Y141.2917
G01 X49.5995 Y141.2889
G01 X49.5487 Y141.2706
G01 X49.4954 Y141.2454
G01 X49.4491 Y141.2177
G01 X49.4409 Y141.2123
G01 X49.3976 Y141.1800
G01 X49.3557 Y141.1422
G01 X47.7632 Y139.5497
G01 X47.7237 Y139.5061
G01 X47.6914 Y139.4628
G01 X47.6873 Y139.4567
G01 X47.6583 Y139.4082
G01 X47.6351 Y139.3595
G01 X47.6314 Y139.3504
G01 X47.6133 Y139.2995
G01 X47.6000 Y139.2472
G01 X47.5981 Y139.2375
G01 X47.5903 Y139.1841
G01 X47.5876 Y139.1302
G01 X47.5874 Y137.4198
G01 X47.5798 Y137.4128
G01 X47.5747 Y137.4076
G01 X47.5213 Y137.3484
G01 X47.4737 Y137.2845
G01 X47.4682 Y137.2764
G01 X47.4274 Y137.2079
G01 X47.3932 Y137.1360
G01 X47.3894 Y137.1269
G01 X47.3627 Y137.0518
G01 X47.3422 Y136.9698
G01 X47.3304 Y136.8910
G01 X47.3294 Y136.8812
G01 X47.3256 Y136.8016
G01 X47.3294 Y136.7220
G01 X47.3304 Y136.7122
G01 X47.3417 Y136.6358
G01 X47.3432 Y136.6286
G01 X47.3627 Y136.5514
G01 X47.3912 Y136.4717
G01 X47.4274 Y136.3953
G01 X47.4682 Y136.3268
G01 X47.4737 Y136.3187
G01 X47.5182 Y136.2586
G01 X47.5245 Y136.2510
G01 X47.5781 Y136.1921
G01 X47.6370 Y136.1385
G01 X47.6446 Y136.1322
G01 X47.7087 Y136.0849
G01 X47.7813 Y136.0414
G01 X47.8577 Y136.0052
G01 X47.9374 Y135.9767
G01 X48.0194 Y135.9562
G01 X48.1031 Y135.9438
G01 X48.1876 Y135.9396
G01 X48.2696 Y135.9435
G01 X48.3509 Y135.9553
G01 X48.3606 Y135.9572
G01 X48.4378 Y135.9767
G01 X48.5175 Y136.0052
G01 X48.5939 Y136.0414
G01 X48.6624 Y136.0822
G01 X48.6705 Y136.0877
G01 X48.7306 Y136.1322
G01 X48.7382 Y136.1385
G01 X48.7971 Y136.1921
G01 X48.8539 Y136.2548
G01 X48.9043 Y136.3227
G01 X48.9454 Y136.3910
G01 X48.9500 Y136.3996
G01 X48.9820 Y136.4672
G01 X48.9858 Y136.4763
G01 X49.0125 Y136.5514
G01 X49.0320 Y136.6286
G01 X49.0335 Y136.6358
G01 X49.0448 Y136.7122
G01 X49.0458 Y136.7220
G01 X49.0496 Y136.8016
G01 X49.0458 Y136.8812
G01 X49.0448 Y136.8910
G01 X49.0330 Y136.9698
G01 X49.0125 Y137.0518
G01 X48.9858 Y137.1269
G01 X48.9820 Y137.1360
G01 X48.9478 Y137.2079
G01 X48.9070 Y137.2764
G01 X48.9015 Y137.2845
G01 X48.8539 Y137.3484
G01 X48.8005 Y137.4076
G01 X48.7879 Y137.4196
G01 X48.7879 Y138.8766
G01 X50.0270 Y140.1157
G01 X56.7688 Y140.1157
G01 X74.6624 Y122.2222
G00 Z2.0000
G00 X75.7543 Y120.9486
G01 F100.00
G01 Z0.0000
G01 F350.00
G01 X75.8884 Y120.9654
G01 X76.0203 Y120.9985
G01 X76.1465 Y121.0474
G01 X76.2656 Y121.1111
G01 X76.3764 Y121.1898
G01 X76.4765 Y121.2811
G01 X76.5646 Y121.3840
G01 X76.6396 Y121.4967
G01 X76.7000 Y121.6181
G01 X76.7447 Y121.7458
G01 X76.7741 Y121.8779
G01 X76.7862 Y122.0130
G01 X76.7833 Y122.1195
G01 X76.7835 Y122.1295
G01 X76.7848 Y122.1394
G01 X76.7928 Y122.1848
G01 X76.7954 Y122.1940
G01 X76.7978 Y122.2008
G01 X76.8008 Y122.2073
G01 X76.8042 Y122.2136
G01 X76.8306 Y122.2539
G01 X76.8352 Y122.2600
G01 X76.8402 Y122.2657
G01 X91.6278 Y137.0534
G01 X91.6331 Y137.0583
G01 X91.6405 Y137.0641
G01 X91.6755 Y137.0879
G01 X91.6819 Y137.0919
G01 X91.6909 Y137.0964
G01 X91.6979 Y137.0992
G01 X91.7075 Y137.1021
G01 X91.7539 Y137.1113
G01 X91.7635 Y137.1124
G01 X91.7707 Y137.1127
G01 X98.9833 Y137.1127
G01 X98.9930 Y137.1122
G01 X99.0027 Y137.1108
G01 X99.0507 Y137.1000
G01 X99.0601 Y137.0972
G01 X99.0714 Y137.0923
G01 X99.0779 Y137.0888
G01 X99.0841 Y137.0847
G01 X99.1251 Y137.0528
G01 X99.1307 Y137.0478
G01 X99.1360 Y137.0423
G01 X99.1438 Y137.0325
G01 X99.1491 Y137.0239
G01 X99.1717 Y136.9804
G01 X99.1747 Y136.9736
G01 X99.1772 Y136.9666
G01 X99.1802 Y136.9546
G01 X99.1817 Y136.9424
G01 X99.1834 Y136.8932
G01 X99.1830 Y136.8833
G01 X99.1820 Y136.8759
G01 X99.1792 Y136.8638
G01 X99.1759 Y136.8545
G01 X99.1572 Y136.8116
G01 X99.1518 Y136.8009
G01 X99.1479 Y136.7949
G01 X99.1436 Y136.7891
G01 X99.1356 Y136.7803
