;FLAVOR:Marlin
;TIME:1330
;Filament used: 0.365028m
;Layer height: 0.12
;MINX:94.103
;MINY:94.114
;MINZ:0.12
;MAXX:125.897
;MAXY:125.825
;MAXZ:6
;TARGET_MACHINE.NAME:Creality Ender-3 Pro
;Generated with Cura_SteamEngine 5.6.0
M82 ;absolute extrusion mode
; Ender 3 Custom Start G-code
G92 E0 ; Reset Extruder
G28 ; Home all axes
G1 Z5.0 F3000 ; Move Z Axis up a bit during heating to not damage bed
M104 S175 ; Start heating up the nozzle most of the way
M190 S65 ; Start heating the bed, wait until target temperature reached
M109 S230.0 ; Finish heating the nozzle
G1 Z2.0 F3000 ; Move Z Axis up little to prevent scratching of Heat Bed
G1 X0.1 Y20 Z0.3 F5000.0 ; Move to start position
G1 X0.1 Y200.0 Z0.3 F1500.0 E15 ; Draw the first line
G1 X0.4 Y200.0 Z0.3 F5000.0 ; Move to side a little
G1 X0.4 Y20 Z0.3 F1500.0 E30 ; Draw the second line
G92 E0 ; Reset Extruder
G1 Z2.0 F3000 ; Move Z Axis up little to prevent scratching of Heat Bed
G1 X5 Y20 Z0.3 F5000.0 ; Move over to prevent blob squish
G92 E0
G92 E0
G1 F1500 E-6.5
;LAYER_COUNT:50
;LAYER:0
M107
G0 F6000 X97.514 Y100.135 Z0.12
;TYPE:SKIRT
G1 F1500 E0
G1 F1200 X100.998 Y96.896 E0.09493
G1 X105.3 Y94.825 E0.19021
G1 X110 Y94.114 E0.28507
G1 X114.7 Y94.825 E0.37993
G1 X119.002 Y96.896 E0.47522
G1 X122.466 Y100.115 E0.56958
G1 X124.857 Y104.252 E0.66494
G1 X125.897 Y108.861 E0.75923
G1 X125.56 Y113.567 E0.85338
G1 X123.789 Y118.078 E0.95009
G1 X120.895 Y121.704 E1.04268
G1 X116.897 Y124.432 E1.13926
G1 X112.372 Y125.825 E1.23375
G1 X107.628 Y125.825 E1.32842
G1 X103.091 Y124.428 E1.42315
G1 X99.121 Y121.719 E1.51907
G1 X96.204 Y118.064 E1.61239
G1 X94.44 Y113.567 E1.70879
G1 X94.103 Y108.86 E1.80296
G1 X95.153 Y104.233 E1.89765
G1 X97.514 Y100.135 E1.99203
G0 F6000 X97.832 Y100.385
G1 F1200 X101.226 Y97.23 E2.0845
G1 X105.42 Y95.211 E2.17739
G1 X110 Y94.518 E2.26983
G1 X114.58 Y95.211 E2.36227
G1 X118.774 Y97.23 E2.45516
G1 X122.15 Y100.367 E2.54713
G1 X124.48 Y104.399 E2.64006
G1 X125.494 Y108.891 E2.73196
G1 X125.165 Y113.479 E2.82375
G1 X123.44 Y117.873 E2.91795
G1 X120.617 Y121.41 E3.00826
G1 X116.723 Y124.067 E3.10234
G1 X112.312 Y125.425 E3.19444
G1 X107.688 Y125.425 E3.28672
G1 X103.265 Y124.063 E3.37907
G1 X99.399 Y121.425 E3.47247
G1 X96.553 Y117.859 E3.56352
G1 X94.835 Y113.479 E3.65741
G1 X94.506 Y108.891 E3.74921
G1 X95.529 Y104.382 E3.84148
G1 X97.832 Y100.385 E3.93353
G0 F6000 X98.15 Y100.635
G1 F1200 X101.455 Y97.563 E4.02358
G1 X105.539 Y95.597 E4.11403
G1 X110 Y94.922 E4.20407
G1 X114.461 Y95.597 E4.29411
G1 X118.545 Y97.563 E4.38456
G1 X121.834 Y100.619 E4.47416
G1 X124.103 Y104.546 E4.56466
G1 X125.091 Y108.921 E4.65417
G1 X124.77 Y113.391 E4.7436
G1 X123.091 Y117.668 E4.8353
G1 X120.339 Y121.116 E4.92334
G1 X116.549 Y123.702 E5.0149
G1 X112.252 Y125.025 E5.10462
G1 X107.748 Y125.025 E5.1945
G1 X103.439 Y123.698 E5.28448
G1 X99.677 Y121.131 E5.37537
G1 X96.902 Y117.654 E5.46414
G1 X95.23 Y113.391 E5.55553
G1 X94.909 Y108.921 E5.64496
G1 X95.905 Y104.531 E5.73479
G1 X98.15 Y100.635 E5.82453
G0 F6000 X98.468 Y100.885
G1 F1200 X101.684 Y97.896 E5.91214
G1 X105.658 Y95.983 E6.00016
G1 X110 Y95.326 E6.08779
G1 X114.342 Y95.983 E6.17543
G1 X118.316 Y97.896 E6.26345
G1 X121.518 Y100.871 E6.35067
G1 X123.726 Y104.693 E6.43875
G1 X124.688 Y108.951 E6.52587
G1 X124.375 Y113.303 E6.61294
G1 X122.742 Y117.463 E6.70213
G1 X120.061 Y120.822 E6.78789
G1 X116.375 Y123.337 E6.87694
G1 X112.192 Y124.625 E6.96429
G1 X107.808 Y124.625 E7.05177
G1 X103.613 Y123.333 E7.13937
G1 X99.955 Y120.837 E7.22774
G1 X97.251 Y117.449 E7.31425
G1 X95.625 Y113.303 E7.40312
G1 X95.312 Y108.951 E7.4902
G1 X96.281 Y104.68 E7.57759
G1 X98.468 Y100.885 E7.665
G0 F6000 X98.786 Y101.135
G1 F1200 X101.913 Y98.229 E7.75019
G1 X105.777 Y96.369 E7.83577
G1 X110 Y95.73 E7.921
G1 X114.223 Y96.369 E8.00624
G1 X118.087 Y98.229 E8.09182
G1 X121.202 Y101.123 E8.17667
G1 X123.349 Y104.84 E8.26233
G1 X124.285 Y108.981 E8.34705
G1 X123.98 Y113.215 E8.43177
G1 X122.393 Y117.258 E8.51844
G1 X119.783 Y120.528 E8.60194
G1 X116.201 Y122.972 E8.68847
G1 X112.132 Y124.225 E8.77344
G1 X107.868 Y124.225 E8.85853
G1 X103.787 Y122.968 E8.94375
G1 X100.233 Y120.543 E9.02961
G1 X97.6 Y117.244 E9.11384
G1 X96.02 Y113.215 E9.2002
G1 X95.715 Y108.981 E9.28492
G1 X96.657 Y104.829 E9.36988
G1 X98.786 Y101.135 E9.45497
G0 F6000 X99.104 Y101.385
G1 F1200 X102.142 Y98.562 E9.53773
G1 X105.896 Y96.755 E9.62087
G1 X110 Y96.134 E9.7037
G1 X114.104 Y96.755 E9.78653
G1 X117.858 Y98.562 E9.86967
G1 X120.886 Y101.375 E9.95215
G1 X122.972 Y104.987 E10.03539
G1 X123.882 Y109.011 E10.11772
G1 X123.585 Y113.127 E10.20008
G1 X122.044 Y117.053 E10.28424
G1 X119.505 Y120.234 E10.36546
G1 X116.027 Y122.607 E10.44949
G1 X112.072 Y123.825 E10.53207
G1 X107.928 Y123.825 E10.61477
G1 X103.961 Y122.603 E10.69761
G1 X100.511 Y120.249 E10.78096
G1 X97.949 Y117.039 E10.86292
G1 X96.415 Y113.127 E10.94677
G1 X96.118 Y109.011 E11.02912
G1 X97.033 Y104.978 E11.11165
G1 X99.104 Y101.385 E11.19441
G0 F6000 X99.422 Y101.635
G1 F1200 X102.371 Y98.895 E11.27475
G1 X106.015 Y97.141 E11.35545
G1 X110 Y96.538 E11.43588
G1 X113.985 Y97.141 E11.51631
G1 X117.629 Y98.895 E11.59702
G1 X120.57 Y101.627 E11.67712
G1 X122.595 Y105.134 E11.75794
G1 X123.479 Y109.041 E11.83788
G1 X123.19 Y113.039 E11.91787
G1 X121.695 Y116.848 E11.99953
G1 X119.227 Y119.94 E12.07848
G1 X115.853 Y122.242 E12.15999
G1 X112.012 Y123.425 E12.24019
G1 X107.988 Y123.425 E12.3205
G1 X104.135 Y122.238 E12.40095
G1 X100.789 Y119.955 E12.48179
G1 X98.298 Y116.834 E12.56148
G1 X96.81 Y113.039 E12.64282
G1 X96.521 Y109.041 E12.72282
G1 X97.409 Y105.127 E12.80291
G1 X99.422 Y101.635 E12.88335
G0 F6000 X99.74 Y101.885
G1 F1200 X102.6 Y99.228 E12.96125
G1 X106.134 Y97.527 E13.03952
G1 X110 Y96.942 E13.11755
G1 X113.866 Y97.527 E13.19558
G1 X117.4 Y99.228 E13.27385
G1 X120.254 Y101.879 E13.35158
G1 X122.218 Y105.281 E13.42997
G1 X123.076 Y109.071 E13.50752
G1 X122.795 Y112.951 E13.58515
G1 X121.346 Y116.643 E13.6643
G1 X118.949 Y119.646 E13.74098
G1 X115.679 Y121.877 E13.81998
G1 X111.952 Y123.025 E13.8978
G1 X108.048 Y123.025 E13.97571
G1 X104.309 Y121.873 E14.05379
G1 X101.067 Y119.661 E14.13211
G1 X98.647 Y116.629 E14.20953
G1 X97.205 Y112.951 E14.28836
G1 X96.924 Y109.071 E14.366
G1 X97.785 Y105.276 E14.44365
G1 X99.74 Y101.885 E14.52177
G0 F6000 X100.058 Y102.135
G1 F1200 X102.829 Y99.561 E14.59724
G1 X106.253 Y97.913 E14.67307
G1 X110 Y97.346 E14.7487
G1 X113.747 Y97.913 E14.82433
G1 X117.171 Y99.561 E14.90016
G1 X119.938 Y102.131 E14.97552
G1 X121.841 Y105.428 E15.05149
G1 X122.673 Y109.101 E15.12664
G1 X122.4 Y112.863 E15.20192
G1 X120.997 Y116.438 E15.27856
G1 X118.671 Y119.352 E15.35296
G1 X115.505 Y121.512 E15.42945
G1 X111.892 Y122.625 E15.50489
G1 X108.108 Y122.625 E15.58041
G1 X104.483 Y121.508 E15.6561
G1 X101.345 Y119.367 E15.73191
G1 X98.996 Y116.424 E15.80706
G1 X97.6 Y112.863 E15.88339
G1 X97.327 Y109.101 E15.95866
G1 X98.161 Y105.425 E16.03388
G1 X100.058 Y102.135 E16.10967
G0 F6000 X100.376 Y102.385
G1 F1200 X103.058 Y99.894 E16.18272
G1 X106.372 Y98.299 E16.25611
G1 X110 Y97.75 E16.32934
G1 X113.628 Y98.299 E16.40256
G1 X116.942 Y99.894 E16.47596
G1 X119.622 Y102.383 E16.54895
G1 X121.464 Y105.575 E16.62249
G1 X122.27 Y109.131 E16.69526
G1 X122.005 Y112.775 E16.76817
G1 X120.648 Y116.233 E16.8423
G1 X118.393 Y119.058 E16.91443
G1 X115.331 Y121.147 E16.98841
G1 X111.832 Y122.225 E17.06147
G1 X108.168 Y122.225 E17.13459
G1 X104.657 Y121.143 E17.20791
G1 X101.623 Y119.073 E17.2812
G1 X99.345 Y116.219 E17.35408
G1 X97.995 Y112.775 E17.4279
G1 X97.73 Y109.131 E17.50081
G1 X98.537 Y105.574 E17.5736
G1 X100.376 Y102.385 E17.64706
G0 F6000 X100.694 Y102.635
G1 F1200 X103.287 Y100.227 E17.71768
G1 X106.491 Y98.685 E17.78864
G1 X110 Y98.154 E17.85946
G1 X113.509 Y98.685 E17.93028
G1 X116.713 Y100.227 E18.00124
G1 X119.306 Y102.635 E18.07186
G1 X121.087 Y105.722 E18.14298
G1 X121.867 Y109.161 E18.21335
G1 X121.61 Y112.687 E18.2839
G1 X120.299 Y116.028 E18.35553
G1 X118.115 Y118.764 E18.42539
G1 X115.157 Y120.782 E18.49685
G1 X111.772 Y121.825 E18.56753
G1 X108.228 Y121.825 E18.63826
G1 X104.831 Y120.778 E18.7092
G1 X101.901 Y118.779 E18.77998
G1 X99.694 Y116.014 E18.85058
G1 X98.39 Y112.687 E18.92189
G1 X98.133 Y109.161 E18.99244
G1 X98.913 Y105.723 E19.0628
G1 X100.694 Y102.635 E19.13393
G0 F6000 X101.01 Y102.887
G1 F1200 X103.516 Y100.56 E19.20218
G1 X106.61 Y99.071 E19.2707
G1 X110 Y98.558 E19.33912
G1 X113.39 Y99.071 E19.40755
G1 X116.484 Y100.56 E19.47607
G1 X118.99 Y102.887 E19.54431
G1 X120.71 Y105.868 E19.61299
G1 X121.464 Y109.191 E19.68099
G1 X121.215 Y112.599 E19.74919
G1 X119.95 Y115.823 E19.8183
G1 X117.837 Y118.47 E19.88589
G1 X114.983 Y120.417 E19.95484
G1 X111.712 Y121.425 E20.02314
G1 X108.288 Y121.425 E20.09147
G1 X105.005 Y120.413 E20.16003
G1 X102.177 Y118.484 E20.22834
G1 X100.044 Y115.811 E20.29659
G1 X98.785 Y112.599 E20.36543
G1 X98.536 Y109.191 E20.43363
G1 X99.29 Y105.869 E20.50161
G1 X101.01 Y102.887 E20.5703
G0 F6000 X101.326 Y103.139
G1 F1200 X103.745 Y100.893 E20.63618
G1 X106.729 Y99.457 E20.70226
G1 X110 Y98.962 E20.76828
G1 X113.271 Y99.457 E20.8343
G1 X116.255 Y100.893 E20.90039
G1 X118.674 Y103.139 E20.96626
G1 X120.333 Y106.014 E21.0325
G1 X121.061 Y109.221 E21.09813
G1 X120.82 Y112.511 E21.16396
G1 X119.601 Y115.618 E21.23057
G1 X117.559 Y118.176 E21.29588
G1 X114.809 Y120.052 E21.36232
G1 X111.652 Y121.025 E21.42824
G1 X108.348 Y121.025 E21.49418
G1 X105.179 Y120.048 E21.56036
G1 X102.453 Y118.189 E21.6262
G1 X100.394 Y115.608 E21.69209
G1 X99.18 Y112.511 E21.75847
G1 X98.939 Y109.221 E21.8243
G1 X99.667 Y106.015 E21.88991
G1 X101.326 Y103.139 E21.95617
G0 F6000 X101.642 Y103.391
G1 F1200 X103.974 Y101.226 E22.01967
G1 X106.848 Y99.843 E22.08332
G1 X110 Y99.366 E22.14694
G1 X113.152 Y99.843 E22.21056
G1 X116.026 Y101.226 E22.2742
G1 X118.358 Y103.391 E22.33771
G1 X119.956 Y106.16 E22.40151
G1 X120.658 Y109.251 E22.46476
G1 X120.425 Y112.423 E22.52823
G1 X119.252 Y115.413 E22.59233
G1 X117.281 Y117.882 E22.65537
G1 X114.635 Y119.687 E22.71929
G1 X111.592 Y120.625 E22.78284
G1 X108.408 Y120.625 E22.84638
G1 X105.353 Y119.683 E22.91018
G1 X102.729 Y117.894 E22.97356
G1 X100.744 Y115.405 E23.03709
G1 X99.575 Y112.423 E23.10101
G1 X99.342 Y109.251 E23.16448
G1 X100.044 Y106.161 E23.22771
G1 X101.642 Y103.391 E23.29153
G0 F6000 X101.958 Y103.643
G1 F1200 X104.203 Y101.559 E23.35266
G1 X106.967 Y100.229 E23.41387
G1 X110 Y99.77 E23.47509
G1 X113.033 Y100.229 E23.5363
G1 X115.797 Y101.559 E23.59752
G1 X118.042 Y103.643 E23.65864
G1 X119.579 Y106.306 E23.72
G1 X120.255 Y109.281 E23.78089
G1 X120.03 Y112.335 E23.842
G1 X118.903 Y115.208 E23.90359
G1 X117.003 Y117.588 E23.96436
G1 X114.461 Y119.322 E24.02577
G1 X111.532 Y120.225 E24.08693
G1 X108.468 Y120.225 E24.14808
G1 X105.53 Y119.319 E24.20943
G1 X103.004 Y117.597 E24.27044
G1 X101.094 Y115.202 E24.33157
G1 X99.97 Y112.335 E24.39303
G1 X99.745 Y109.281 E24.45414
G1 X100.421 Y106.307 E24.515
G1 X101.958 Y103.643 E24.57638
G0 F6000 X102.274 Y103.895
G1 F1200 X104.432 Y101.892 E24.63514
G1 X107.086 Y100.615 E24.69391
G1 X110 Y100.174 E24.75273
G1 X112.914 Y100.615 E24.81154
G1 X115.568 Y101.892 E24.87032
G1 X117.726 Y103.895 E24.92907
G1 X119.202 Y106.452 E24.98799
G1 X119.852 Y109.311 E25.0465
G1 X119.635 Y112.247 E25.10525
G1 X118.554 Y115.003 E25.16433
G1 X116.725 Y117.294 E25.22283
G1 X114.287 Y118.957 E25.28173
G1 X111.472 Y119.825 E25.34051
G1 X108.528 Y119.825 E25.39926
G1 X105.707 Y118.955 E25.45818
G1 X103.279 Y117.3 E25.51681
G1 X101.444 Y114.999 E25.57555
G1 X100.365 Y112.247 E25.63454
G1 X100.148 Y109.311 E25.69329
G1 X100.798 Y106.453 E25.75178
G1 X102.274 Y103.895 E25.81072
G0 F6000 X102.59 Y104.147
G1 F1200 X104.661 Y102.225 E25.8671
G1 X107.205 Y101.001 E25.92344
G1 X110 Y100.578 E25.97985
G1 X112.795 Y101.001 E26.03626
G1 X115.339 Y102.225 E26.0926
G1 X117.41 Y104.147 E26.14899
G1 X118.825 Y106.598 E26.20547
G1 X119.449 Y109.341 E26.2616
G1 X119.24 Y112.159 E26.31799
G1 X118.205 Y114.798 E26.37456
G1 X116.447 Y117 E26.43079
G1 X114.113 Y118.592 E26.48717
G1 X111.412 Y119.425 E26.54358
G1 X108.588 Y119.425 E26.59994
G1 X105.884 Y118.591 E26.65641
G1 X103.554 Y117.003 E26.71268
G1 X101.794 Y114.796 E26.76901
G1 X100.76 Y112.159 E26.82553
G1 X100.551 Y109.341 E26.88193
G1 X101.175 Y106.599 E26.93804
G1 X102.59 Y104.147 E26.99454
G0 F6000 X102.906 Y104.399
G1 F1200 X104.89 Y102.558 E27.04855
G1 X107.324 Y101.387 E27.10245
G1 X110 Y100.982 E27.15646
G1 X112.676 Y101.387 E27.21048
G1 X115.11 Y102.558 E27.26438
G1 X117.094 Y104.399 E27.31839
G1 X118.448 Y106.744 E27.37243
G1 X119.046 Y109.371 E27.42619
G1 X118.845 Y112.071 E27.48022
G1 X117.856 Y114.593 E27.53428
G1 X116.169 Y116.706 E27.58824
G1 X113.939 Y118.227 E27.64211
G1 X111.352 Y119.025 E27.69614
G1 X108.648 Y119.025 E27.7501
G1 X106.061 Y118.227 E27.80413
G1 X103.829 Y116.706 E27.85803
G1 X102.144 Y114.593 E27.91196
G1 X101.155 Y112.071 E27.96602
G1 X100.954 Y109.371 E28.02005
G1 X101.552 Y106.745 E28.0738
G1 X102.906 Y104.399 E28.12785
G0 F6000 X103.538 Y104.903
G1 F1200 X105.345 Y103.226 E28.17705
G1 X107.565 Y102.159 E28.2262
G1 X110 Y101.79 E28.27535
G1 X112.435 Y102.159 E28.3245
G1 X114.655 Y103.226 E28.37365
G1 X116.462 Y104.903 E28.42285
G1 X117.694 Y107.037 E28.47202
G1 X118.24 Y109.431 E28.52103
G1 X118.055 Y111.895 E28.57034
G1 X117.156 Y114.187 E28.61947
G1 X115.621 Y116.112 E28.6686
G1 X113.585 Y117.499 E28.71776
G1 X111.232 Y118.225 E28.7669
G1 X108.768 Y118.225 E28.81608
G1 X106.415 Y117.499 E28.86522
G1 X104.379 Y116.112 E28.91438
G1 X102.844 Y114.187 E28.96351
G1 X101.945 Y111.895 E29.01265
G1 X101.76 Y109.431 E29.06196
G1 X102.306 Y107.037 E29.11096
G1 X103.538 Y104.903 E29.16013
G0 F6000 X103.222 Y104.651
G1 F1200 X105.119 Y102.891 E29.21177
G1 X107.443 Y101.773 E29.26324
G1 X110 Y101.386 E29.31485
G1 X112.557 Y101.773 E29.36645
G1 X114.881 Y102.891 E29.41792
G1 X116.778 Y104.651 E29.46956
G1 X118.071 Y106.89 E29.52116
G1 X118.643 Y109.401 E29.57255
G1 X118.45 Y111.983 E29.62422
G1 X117.506 Y114.39 E29.67582
G1 X115.895 Y116.409 E29.72736
G1 X113.762 Y117.863 E29.77888
G1 X111.292 Y118.625 E29.83046
G1 X108.708 Y118.625 E29.88203
G1 X106.238 Y117.863 E29.93361
G1 X104.104 Y116.409 E29.98514
G1 X102.494 Y114.39 E30.03668
G1 X101.55 Y111.983 E30.08827
G1 X101.357 Y109.401 E30.13994
G1 X101.929 Y106.891 E30.19132
G1 X103.222 Y104.651 E30.24293
G1 F1500 E23.74293
;MESH:forIKv2.stl
G0 F6000 X104.028 Y105.292
G0 X110 Y109.594
;TYPE:WALL-INNER
G1 F1500 E30.24293
G1 F1106 X110.295 Y108.687 E30.26358
G1 X110.381 Y108.57 E30.26673
G1 X110 Y108.677 E30.2753
G1 X109.617 Y108.569 E30.28391
G1 X109.704 Y108.687 E30.28709
G1 X110 Y109.594 E30.30775
G0 F6000 X109.974 Y108.966
G0 X109.87 Y111.629
G0 X108.957 Y112.009
G0 X108.527 Y113.055
G0 X108.58 Y114.13
G0 X109.743 Y114.921
G0 X109.858 Y114.646
G1 F1200 X109.062 Y114.315 E30.32495
G1 X108.787 Y114.11 E30.33179
G1 X108.446 Y113.282 E30.34966
G1 X108.412 Y112.906 E30.3572
G1 X108.657 Y112.306 E30.37013
G1 X108.472 Y112.442 E30.37471
G1 X108.203 Y112.556 E30.38054
G1 X106.836 Y112.555 E30.40782
G1 X106.614 Y112.505 E30.41237
G1 X105.922 Y112.001 E30.42945
G1 X106.057 Y112.326 E30.43647
G1 X106.1 Y112.67 E30.44339
G1 X105.877 Y113.213 E30.45511
G1 X105.713 Y113.404 E30.46013
G1 X105.234 Y113.607 E30.47051
G1 X104.772 Y113.61 E30.47973
G1 X104.292 Y113.414 E30.49008
G1 X104.107 Y113.163 E30.4963
G1 F991.7 X103.862 Y112.804 E30.5068
G1 X103.944 Y112.325 E30.51853
G1 F1200 X104.119 Y111.91 E30.52752
G1 X104.366 Y111.671 E30.53438
G1 X104.762 Y111.499 E30.54299
G1 F1188.1 X105.244 Y111.486 E30.55271
G1 F1176.5 X105.391 Y111.55 E30.55597
G1 F1182.3 X105.315 Y111.447 E30.55857
G1 F1191.1 X104.897 Y110.138 E30.5862
G1 F1197 X104.92 Y109.897 E30.59104
G1 F1200 X105.348 Y108.582 E30.61864
G1 X105.529 Y108.393 E30.62386
G1 X106.63 Y107.592 E30.65103
G1 X106.871 Y107.551 E30.65591
G1 X108.203 Y107.552 E30.68249
G1 X108.473 Y107.666 E30.68834
G1 X108.657 Y107.801 E30.69289
G1 X108.412 Y107.202 E30.70581
G1 X108.446 Y106.826 E30.71334
G1 X108.738 Y106.118 E30.72862
