;FLAVOR:Marlin
;TIME:5053
;Filament used: 1.4195m
;Layer height: 0.12
;MINX:122.772
;MINY:35.828
;MINZ:0.12
;MAXX:174.563
;MAXY:87.537
;MAXZ:6
;TARGET_MACHINE.NAME:Creality Ender-3 Pro
;Generated with Cura_SteamEngine 5.6.0
M82 ;absolute extrusion mode
; Ender 3 Custom Start G-code
G92 E0 ; Reset Extruder
G28 ; Home all axes
G1 Z5.0 F3000 ; Move Z Axis up a bit during heating to not damage bed
M104 S175 ; Start heating up the nozzle most of the way
M190 S65 ; Start heating the bed, wait until target temperature reached
M109 S230.0 ; Finish heating the nozzle
G1 Z2.0 F3000 ; Move Z Axis up little to prevent scratching of Heat Bed
G1 X0.1 Y20 Z0.3 F5000.0 ; Move to start position
G1 X0.1 Y200.0 Z0.3 F1500.0 E15 ; Draw the first line
G1 X0.4 Y200.0 Z0.3 F5000.0 ; Move to side a little
G1 X0.4 Y20 Z0.3 F1500.0 E30 ; Draw the second line
G92 E0 ; Reset Extruder
G1 Z2.0 F3000 ; Move Z Axis up little to prevent scratching of Heat Bed
G1 X5 Y20 Z0.3 F5000.0 ; Move over to prevent blob squish
G92 E0
G92 E0
G1 F1500 E-6.5
;LAYER_COUNT:50
;LAYER:0
M107
G0 F6000 X123.108 Y48.086 Z0.12
;TYPE:SKIRT
G1 F1500 E0
G1 F1200 X124.879 Y43.575 E0.09671
G1 X127.773 Y39.949 E0.18929
G1 X131.771 Y37.221 E0.28588
G1 X136.296 Y35.828 E0.38036
G1 X141.039 Y35.828 E0.47502
G1 X145.593 Y37.232 E0.57012
G1 X148.67 Y39.337 E0.64452
G1 X151.765 Y37.224 E0.7193
G1 X156.296 Y35.828 E0.81392
G1 X161.039 Y35.828 E0.90857
G1 X165.587 Y37.229 E1.00354
G1 X169.53 Y39.92 E1.0988
G1 X172.468 Y43.601 E1.19279
G1 X174.227 Y48.086 E1.28893
G1 X174.563 Y52.789 E1.38302
G1 X173.522 Y57.401 E1.47738
G1 X171.164 Y61.482 E1.57144
G1 X170.952 Y61.703 E1.57755
G1 X172.472 Y63.609 E1.6262
G1 X174.227 Y68.086 E1.72216
G1 X174.563 Y72.789 E1.81625
G1 X173.522 Y77.401 E1.91061
G1 X171.134 Y81.534 E2.00586
G1 X167.668 Y84.755 E2.10029
G1 X163.366 Y86.826 E2.19557
G1 X158.667 Y87.537 E2.29041
G1 X153.972 Y86.826 E2.38517
G1 X149.663 Y84.752 E2.4806
G1 X148.667 Y83.827 E2.50773
G1 X147.668 Y84.755 E2.53494
G1 X143.366 Y86.826 E2.63022
G1 X138.667 Y87.537 E2.72506
G1 X133.972 Y86.826 E2.81982
G1 X129.663 Y84.752 E2.91526
G1 X126.203 Y81.536 E3.00952
G1 X123.814 Y77.403 E3.10479
G1 X122.772 Y72.783 E3.1993
G1 X123.108 Y68.086 E3.29328
G1 X124.877 Y63.579 E3.3899
G1 X126.379 Y61.701 E3.43789
G1 X126.173 Y61.484 E3.44386
G1 X123.814 Y57.403 E3.53793
G1 X122.772 Y52.783 E3.63244
G1 X123.108 Y48.086 E3.72641
G0 F6000 X123.503 Y48.174
G1 F1200 X125.228 Y43.78 E3.82062
G1 X128.051 Y40.243 E3.91093
G1 X131.945 Y37.586 E4.005
G1 X136.356 Y36.228 E4.0971
G1 X140.979 Y36.228 E4.18936
G1 X145.417 Y37.596 E4.28204
G1 X148.67 Y39.821 E4.36069
G1 X151.941 Y37.588 E4.43973
G1 X156.356 Y36.228 E4.53192
G1 X160.979 Y36.228 E4.62417
G1 X165.413 Y37.594 E4.71676
G1 X169.252 Y40.214 E4.80952
G1 X172.119 Y43.806 E4.90123
G1 X173.832 Y48.174 E4.99486
G1 X174.16 Y52.759 E5.0866
G1 X173.145 Y57.254 E5.17856
G1 X170.818 Y61.282 E5.27139
G1 X170.408 Y61.663 E5.28256
G1 X172.122 Y63.812 E5.33741
G1 X173.832 Y68.174 E5.43091
G1 X174.16 Y72.759 E5.52264
G1 X173.145 Y77.254 E5.61461
G1 X170.818 Y81.282 E5.70744
G1 X167.44 Y84.421 E5.79946
G1 X163.246 Y86.44 E5.89235
G1 X158.667 Y87.133 E5.98477
G1 X154.091 Y86.44 E6.07713
G1 X149.892 Y84.419 E6.17013
G1 X148.667 Y83.282 E6.20348
G1 X147.44 Y84.421 E6.23689
G1 X143.246 Y86.44 E6.32978
G1 X138.667 Y87.133 E6.4222
G1 X134.091 Y86.44 E6.51456
G1 X129.892 Y84.419 E6.60756
G1 X126.519 Y81.284 E6.69945
G1 X124.191 Y77.256 E6.7923
G1 X123.175 Y72.753 E6.88442
G1 X123.503 Y68.174 E6.97603
G1 X125.227 Y63.782 E7.07019
G1 X126.923 Y61.66 E7.1244
G1 X126.519 Y61.284 E7.13541
G1 X124.191 Y57.256 E7.22825
G1 X123.175 Y52.753 E7.32037
G1 X123.503 Y48.174 E7.41199
G0 F6000 X123.898 Y48.262
G1 F1200 X125.577 Y43.985 E7.50368
G1 X128.329 Y40.537 E7.59172
G1 X132.119 Y37.951 E7.68328
G1 X136.416 Y36.628 E7.77301
G1 X140.919 Y36.628 E7.86287
G1 X145.241 Y37.96 E7.95312
G1 X148.67 Y40.305 E8.03602
G1 X152.117 Y37.952 E8.11931
G1 X156.416 Y36.628 E8.20908
G1 X160.919 Y36.628 E8.29894
G1 X165.239 Y37.959 E8.38915
G1 X168.974 Y40.508 E8.47939
G1 X171.77 Y44.011 E8.56883
G1 X173.437 Y48.262 E8.65995
G1 X173.757 Y52.729 E8.74933
G1 X172.768 Y57.107 E8.8389
G1 X170.502 Y61.03 E8.92931
G1 X169.864 Y61.623 E8.94669
G1 X171.772 Y64.015 E9.00775
G1 X173.437 Y68.262 E9.09878
G1 X173.757 Y72.729 E9.18816
G1 X172.768 Y77.107 E9.27772
G1 X170.502 Y81.03 E9.36813
G1 X167.211 Y84.088 E9.45779
G1 X163.127 Y86.054 E9.54824
G1 X158.667 Y86.729 E9.63826
G1 X154.21 Y86.054 E9.72821
G1 X150.121 Y84.086 E9.81877
G1 X148.667 Y82.736 E9.85837
G1 X147.211 Y84.088 E9.89802
G1 X143.127 Y86.054 E9.98847
G1 X138.667 Y86.729 E10.07849
G1 X134.21 Y86.054 E10.16845
G1 X130.121 Y84.086 E10.25901
G1 X126.835 Y81.032 E10.34853
G1 X124.568 Y77.109 E10.43895
G1 X123.578 Y72.723 E10.52868
G1 X123.898 Y68.262 E10.61793
G1 X125.577 Y63.985 E10.70963
G1 X127.467 Y61.62 E10.77004
G1 X126.835 Y61.032 E10.78727
G1 X124.568 Y57.109 E10.87769
G1 X123.578 Y52.723 E10.96742
G1 X123.898 Y48.262 E11.05667
G0 F6000 X124.293 Y48.35
G1 F1200 X125.926 Y44.19 E11.14585
G1 X128.607 Y40.831 E11.23162
G1 X132.293 Y38.316 E11.32067
G1 X136.476 Y37.028 E11.40801
G1 X140.859 Y37.028 E11.49548
G1 X145.065 Y38.324 E11.58331
G1 X148.67 Y40.789 E11.67046
G1 X152.293 Y38.316 E11.758
G1 X156.476 Y37.028 E11.84535
G1 X160.859 Y37.028 E11.93281
G1 X165.065 Y38.324 E12.02064
G1 X168.696 Y40.802 E12.10837
G1 X171.421 Y44.216 E12.19554
G1 X173.042 Y48.35 E12.28415
G1 X173.354 Y52.699 E12.37117
G1 X172.391 Y56.96 E12.45834
G1 X170.186 Y60.778 E12.54633
G1 X169.32 Y61.583 E12.56993
G1 X171.422 Y64.218 E12.63719
G1 X173.042 Y68.35 E12.72576
G1 X173.354 Y72.699 E12.81277
G1 X172.391 Y76.96 E12.89995
G1 X170.186 Y80.778 E12.98794
G1 X166.982 Y83.755 E13.07522
G1 X163.008 Y85.668 E13.16323
G1 X158.667 Y86.325 E13.25085
G1 X154.329 Y85.668 E13.3384
G1 X150.35 Y83.753 E13.42653
G1 X148.667 Y82.191 E13.47235
G1 X146.982 Y83.755 E13.51823
G1 X143.008 Y85.668 E13.60624
G1 X138.667 Y86.325 E13.69386
G1 X134.329 Y85.668 E13.78142
G1 X130.35 Y83.753 E13.86954
G1 X127.151 Y80.78 E13.95669
G1 X124.945 Y76.962 E14.04469
G1 X123.981 Y72.693 E14.13203
G1 X124.293 Y68.35 E14.21892
G1 X125.926 Y64.19 E14.3081
G1 X128.011 Y61.58 E14.37477
G1 X127.151 Y60.78 E14.39821
G1 X124.945 Y56.962 E14.4862
G1 X123.981 Y52.693 E14.57354
G1 X124.293 Y48.35 E14.66043
G0 F6000 X124.688 Y48.438
G1 F1200 X126.275 Y44.395 E14.74711
G1 X128.885 Y41.125 E14.8306
G1 X132.467 Y38.681 E14.91714
G1 X136.536 Y37.428 E15.0021
G1 X140.799 Y37.428 E15.08718
G1 X144.891 Y38.689 E15.17263
G1 X148.42 Y41.097 E15.25788
G1 X148.665 Y41.404 E15.26572
G1 X148.892 Y41.121 E15.27296
G1 X152.467 Y38.681 E15.35934
G1 X156.536 Y37.428 E15.4443
G1 X160.799 Y37.428 E15.52937
G1 X164.891 Y38.689 E15.61482
G1 X168.42 Y41.097 E15.70008
G1 X171.071 Y44.419 E15.7849
G1 X172.647 Y48.438 E15.87105
G1 X172.951 Y52.669 E15.9557
G1 X172.014 Y56.813 E16.04048
G1 X169.87 Y60.526 E16.12605
G1 X168.776 Y61.542 E16.15584
G1 X171.072 Y64.421 E16.22933
G1 X172.647 Y68.438 E16.31543
G1 X172.951 Y72.669 E16.40009
G1 X172.014 Y76.813 E16.48487
G1 X169.87 Y80.526 E16.57043
G1 X166.753 Y83.422 E16.65534
G1 X162.889 Y85.282 E16.74092
G1 X158.667 Y85.921 E16.82613
G1 X154.448 Y85.282 E16.91129
G1 X150.579 Y83.42 E16.99698
G1 X148.667 Y81.645 E17.04904
G1 X146.753 Y83.422 E17.10116
G1 X142.889 Y85.282 E17.18674
G1 X138.667 Y85.921 E17.27195
G1 X134.448 Y85.282 E17.35711
G1 X130.579 Y83.42 E17.44279
G1 X127.467 Y80.528 E17.52757
G1 X125.322 Y76.815 E17.61315
G1 X124.384 Y72.663 E17.69809
G1 X124.688 Y68.438 E17.78262
G1 X126.275 Y64.395 E17.8693
G1 X128.556 Y61.54 E17.94223
G1 X127.467 Y60.528 E17.97189
G1 X125.322 Y56.815 E18.05747
G1 X124.384 Y52.663 E18.14241
G1 X124.688 Y48.438 E18.22694
G0 F6000 X125.083 Y48.526
G1 F1200 X126.624 Y44.6 E18.31111
G1 X129.163 Y41.419 E18.39233
G1 X132.641 Y39.046 E18.47636
G1 X136.596 Y37.828 E18.55894
G1 X140.739 Y37.828 E18.64162
G1 X144.717 Y39.054 E18.72469
G1 X148.144 Y41.392 E18.80748
G1 X148.665 Y42.045 E18.82415
G1 X149.167 Y41.417 E18.84019
G1 X152.641 Y39.046 E18.92413
G1 X156.596 Y37.828 E19.00671
G1 X160.739 Y37.828 E19.08939
G1 X164.717 Y39.054 E19.17246
G1 X168.142 Y41.391 E19.2552
G1 X170.722 Y44.624 E19.33775
G1 X172.252 Y48.526 E19.42139
G1 X172.548 Y52.639 E19.50368
G1 X171.637 Y56.666 E19.58607
G1 X169.554 Y60.274 E19.66921
G1 X168.232 Y61.502 E19.70522
G1 X170.722 Y64.624 E19.78491
G1 X172.252 Y68.526 E19.86855
G1 X172.548 Y72.639 E19.95085
G1 X171.637 Y76.666 E20.03324
G1 X169.554 Y80.274 E20.11638
G1 X166.524 Y83.089 E20.19891
G1 X162.77 Y84.896 E20.28206
G1 X158.667 Y85.517 E20.36487
G1 X154.567 Y84.896 E20.44762
G1 X150.808 Y83.087 E20.53087
G1 X148.667 Y81.099 E20.58918
G1 X146.524 Y83.089 E20.64754
G1 X142.77 Y84.896 E20.73068
G1 X138.667 Y85.517 E20.81349
G1 X134.567 Y84.896 E20.89624
G1 X130.808 Y83.087 E20.97949
G1 X127.783 Y80.276 E21.0619
G1 X125.699 Y76.668 E21.14505
G1 X124.787 Y72.633 E21.22761
G1 X125.083 Y68.526 E21.30978
G1 X126.624 Y64.6 E21.39394
G1 X129.1 Y61.5 E21.47312
G1 X127.783 Y60.276 E21.509
G1 X125.699 Y56.668 E21.59215
G1 X124.787 Y52.633 E21.6747
G1 X125.083 Y48.526 E21.75687
G0 F6000 X125.478 Y48.614
G1 F1200 X126.973 Y44.805 E21.83853
G1 X129.441 Y41.713 E21.91748
G1 X132.815 Y39.411 E21.99899
G1 X136.656 Y38.228 E22.0792
G1 X140.679 Y38.228 E22.15948
G1 X144.543 Y39.419 E22.24017
G1 X147.866 Y41.686 E22.32045
G1 X148.665 Y42.687 E22.34601
G1 X149.443 Y41.712 E22.3709
G1 X152.815 Y39.411 E22.45237
G1 X156.656 Y38.228 E22.53257
G1 X160.679 Y38.228 E22.61285
G1 X164.543 Y39.419 E22.69354
G1 X167.866 Y41.686 E22.77382
G1 X170.372 Y44.827 E22.85401
G1 X171.857 Y48.614 E22.93518
G1 X172.145 Y52.609 E23.01511
G1 X171.26 Y56.519 E23.09512
G1 X169.238 Y60.022 E23.17583
G1 X167.626 Y61.52 E23.21975
G1 X167.902 Y61.73 E23.22667
G1 X170.372 Y64.827 E23.30572
G1 X171.857 Y68.614 E23.3869
G1 X172.145 Y72.609 E23.46683
G1 X171.26 Y76.519 E23.54683
G1 X169.238 Y80.022 E23.62755
G1 X166.295 Y82.756 E23.70771
G1 X162.651 Y84.51 E23.78842
G1 X158.667 Y85.113 E23.86883
G1 X154.686 Y84.51 E23.94918
G1 X151.037 Y82.754 E24.02999
G1 X148.667 Y80.553 E24.09454
G1 X146.295 Y82.756 E24.15914
G1 X142.651 Y84.51 E24.23984
G1 X138.667 Y85.113 E24.32026
G1 X134.686 Y84.51 E24.40061
G1 X131.037 Y82.754 E24.48142
G1 X128.099 Y80.024 E24.56145
G1 X126.076 Y76.521 E24.64218
G1 X125.19 Y72.603 E24.72234
G1 X125.478 Y68.614 E24.80216
G1 X126.973 Y64.805 E24.88381
G1 X129.445 Y61.709 E24.96288
G1 X129.714 Y61.525 E24.96938
G1 X128.099 Y60.024 E25.01338
G1 X126.076 Y56.521 E25.09411
G1 X125.19 Y52.603 E25.17427
G1 X125.478 Y48.614 E25.25408
G0 F6000 X125.873 Y48.702
G1 F1200 X127.322 Y45.01 E25.33323
G1 X129.719 Y42.007 E25.40991
G1 X132.989 Y39.776 E25.4889
G1 X136.716 Y38.628 E25.56673
G1 X140.619 Y38.628 E25.64462
G1 X144.369 Y39.784 E25.72293
G1 X147.59 Y41.981 E25.80073
G1 X148.665 Y43.329 E25.83514
G1 X149.721 Y42.006 E25.86892
G1 X152.989 Y39.776 E25.94788
G1 X156.716 Y38.628 E26.0257
G1 X160.619 Y38.628 E26.10359
G1 X164.369 Y39.784 E26.1819
G1 X167.59 Y41.981 E26.25971
G1 X170.022 Y45.03 E26.33754
G1 X171.462 Y48.702 E26.41625
G1 X171.742 Y52.579 E26.49382
G1 X170.883 Y56.372 E26.57143
G1 X168.922 Y59.77 E26.64973
G1 X166.987 Y61.568 E26.70244
G1 X167.589 Y61.979 E26.71698
G1 X170.022 Y65.03 E26.79486
G1 X171.462 Y68.702 E26.87357
G1 X171.742 Y72.579 E26.95114
G1 X170.883 Y76.372 E27.02875
G1 X168.922 Y79.77 E27.10705
G1 X166.066 Y82.423 E27.18484
G1 X162.532 Y84.124 E27.2631
G1 X158.667 Y84.709 E27.34111
G1 X154.805 Y84.124 E27.41906
G1 X151.266 Y82.421 E27.49744
G1 X148.667 Y80.007 E27.56823
G1 X146.066 Y82.423 E27.63907
G1 X142.532 Y84.124 E27.71734
G1 X138.667 Y84.709 E27.79535
G1 X134.805 Y84.124 E27.8733
G1 X131.266 Y82.421 E27.95167
G1 X128.415 Y79.772 E28.02934
G1 X126.453 Y76.374 E28.10764
G1 X125.593 Y72.573 E28.18541
G1 X125.873 Y68.702 E28.26286
G1 X127.322 Y65.01 E28.34201
G1 X129.723 Y62.003 E28.4188
G1 X130.353 Y61.573 E28.43402
G1 X128.415 Y59.772 E28.48682
G1 X126.453 Y56.374 E28.56512
G1 X125.593 Y52.573 E28.64289
G1 X125.873 Y48.702 E28.72034
G0 F6000 X126.268 Y48.79
G1 F1200 X127.671 Y45.215 E28.79698
G1 X129.997 Y42.301 E28.87139
G1 X133.163 Y40.141 E28.94788
G1 X136.776 Y39.028 E29.02332
G1 X140.559 Y39.028 E29.09881
G1 X144.195 Y40.149 E29.17474
G1 X147.314 Y42.276 E29.25008
G1 X148.665 Y43.971 E29.29334
G1 X149.999 Y42.3 E29.33601
G1 X153.163 Y40.141 E29.41245
G1 X156.776 Y39.028 E29.48789
G1 X160.559 Y39.028 E29.56339
G1 X164.195 Y40.149 E29.63932
G1 X167.314 Y42.276 E29.71466
G1 X169.672 Y45.233 E29.79013
G1 X171.067 Y48.79 E29.86638
G1 X171.339 Y52.549 E29.94159
G1 X170.506 Y56.225 E30.01681
G1 X168.606 Y59.518 E30.09268
G1 X166.348 Y61.616 E30.15419
G1 X167.313 Y62.274 E30.1775
G1 X169.672 Y65.233 E30.25301
G1 X171.067 Y68.79 E30.32926
G1 X171.339 Y72.549 E30.40447
G1 X170.506 Y76.225 E30.47969
G1 X168.606 Y79.518 E30.55556
G1 X165.837 Y82.09 E30.63098
G1 X162.413 Y83.738 E30.70681
G1 X158.667 Y84.305 E30.78242
G1 X154.924 Y83.738 E30.85797
G1 X151.495 Y82.088 E30.93391
G1 X148.775 Y79.561 E31.008
G1 X148.668 Y79.411 E31.01167
G1 X148.562 Y79.559 E31.01531
G1 X145.837 Y82.09 E31.08953
G1 X142.413 Y83.738 E31.16536
G1 X138.667 Y84.305 E31.24096
G1 X134.924 Y83.738 E31.31651
G1 X131.495 Y82.088 E31.39245
G1 X128.731 Y79.52 E31.46774
G1 X126.83 Y76.227 E31.54362
G1 X125.996 Y72.543 E31.619
G1 X126.268 Y68.79 E31.69409
G1 X127.671 Y65.215 E31.77073
G1 X129.999 Y62.299 E31.8452
G1 X130.993 Y61.622 E31.8692
G1 X128.731 Y59.52 E31.93082
G1 X126.83 Y56.227 E32.0067
G1 X125.996 Y52.543 E32.08208
G1 X126.268 Y48.79 E32.15717
G0 F6000 X126.663 Y48.878
G1 F1200 X128.02 Y45.42 E32.2313
G1 X130.275 Y42.595 E32.30343
G1 X133.337 Y40.506 E32.3774
G1 X136.836 Y39.428 E32.45047
G1 X140.499 Y39.428 E32.52357
G1 X144.021 Y40.514 E32.59712
G1 X147.038 Y42.571 E32.66999
G1 X148.665 Y44.613 E32.72209
G1 X150.277 Y42.594 E32.77365
G1 X153.337 Y40.506 E32.84758
G1 X156.836 Y39.428 E32.92064
G1 X160.499 Y39.428 E32.99374
G1 X164.021 Y40.514 E33.06729
G1 X167.038 Y42.571 E33.14016
G1 X169.322 Y45.436 E33.21328
G1 X170.672 Y48.878 E33.28707
G1 X170.936 Y52.519 E33.35992
G1 X170.129 Y56.078 E33.43274
G1 X168.29 Y59.266 E33.50619
G1 X165.708 Y61.665 E33.57652
G1 X167.038 Y62.571 E33.60864
G1 X169.322 Y65.436 E33.68176
G1 X170.672 Y68.878 E33.75554
G1 X170.936 Y72.519 E33.82839
G1 X170.129 Y76.078 E33.90122
G1 X168.29 Y79.266 E33.97466
G1 X165.608 Y81.757 E34.04771
G1 X162.294 Y83.352 E34.12111
G1 X158.667 Y83.901 E34.19431
G1 X155.043 Y83.352 E34.26746
G1 X151.724 Y81.755 E34.34096
G1 X149.047 Y79.268 E34.41388
G1 X148.668 Y78.611 E34.42902
G1 X148.29 Y79.266 E34.44411
G1 X145.608 Y81.757 E34.51715
G1 X142.294 Y83.352 E34.59055
G1 X138.667 Y83.901 E34.66375
G1 X135.043 Y83.352 E34.7369
G1 X131.724 Y81.755 E34.8104
G1 X129.047 Y79.268 E34.88332
G1 X127.207 Y76.08 E34.95678
G1 X126.399 Y72.513 E35.02976
G1 X126.663 Y68.878 E35.1025
G1 X128.02 Y65.42 E35.17663
G1 X130.275 Y62.595 E35.24876
G1 X131.632 Y61.67 E35.28154
G1 X129.047 Y59.268 E35.35195
G1 X127.207 Y56.08 E35.42541
G1 X126.399 Y52.513 E35.4984
G1 X126.663 Y48.878 E35.57113
G0 F6000 X127.058 Y48.966
G1 F1200 X128.369 Y45.625 E35.64275
G1 X130.553 Y42.889 E35.71261
G1 X133.511 Y40.871 E35.78407
G1 X136.896 Y39.828 E35.85476
G1 X140.439 Y39.828 E35.92546
G1 X143.844 Y40.878 E35.99657
G1 X146.763 Y42.868 E36.06707
G1 X148.665 Y45.255 E36.12798
G1 X150.553 Y42.889 E36.18838
G1 X153.511 Y40.871 E36.25984
G1 X156.896 Y39.828 E36.33053
G1 X160.439 Y39.828 E36.40123
G1 X163.844 Y40.878 E36.47234
G1 X166.763 Y42.868 E36.54284
G1 X168.972 Y45.639 E36.61356
G1 X170.277 Y48.966 E36.68488
G1 X170.533 Y52.489 E36.75537
G1 X169.753 Y55.928 E36.82574
G1 X167.972 Y59.016 E36.89688
G1 X165.378 Y61.425 E36.96753
G1 X164.949 Y61.632 E36.97703
G1 X166.763 Y62.868 E37.02084
G1 X168.972 Y65.639 E37.09156
G1 X170.277 Y68.966 E37.16288
G1 X170.533 Y72.489 E37.23337
G1 X169.753 Y75.928 E37.30374
G1 X167.972 Y79.016 E37.37488
G1 X165.379 Y81.424 E37.4455
G1 X162.175 Y82.966 E37.51645
G1 X158.667 Y83.497 E37.58726
