;FLAVOR:Marlin
;TIME:7627
;Filament used: 2.11908m
;Layer height: 0.12
;MINX:28.659
;MINY:18.486
;MINZ:0.12
;MAXX:80.45
;MAXY:90.214
;MAXZ:6
;TARGET_MACHINE.NAME:Creality Ender-3 Pro
;Generated with Cura_SteamEngine 5.6.0
M82 ;absolute extrusion mode
; Ender 3 Custom Start G-code
G92 E0 ; Reset Extruder
G28 ; Home all axes
G1 Z5.0 F3000 ; Move Z Axis up a bit during heating to not damage bed
M104 S175 ; Start heating up the nozzle most of the way
M190 S65 ; Start heating the bed, wait until target temperature reached
M109 S230.0 ; Finish heating the nozzle
G1 Z2.0 F3000 ; Move Z Axis up little to prevent scratching of Heat Bed
G1 X0.1 Y20 Z0.3 F5000.0 ; Move to start position
G1 X0.1 Y200.0 Z0.3 F1500.0 E15 ; Draw the first line
G1 X0.4 Y200.0 Z0.3 F5000.0 ; Move to side a little
G1 X0.4 Y20 Z0.3 F1500.0 E30 ; Draw the second line
G92 E0 ; Reset Extruder
G1 Z2.0 F3000 ; Move Z Axis up little to prevent scratching of Heat Bed
G1 X5 Y20 Z0.3 F5000.0 ; Move over to prevent blob squish
G92 E0
G92 E0
G1 F1500 E-6.5
;LAYER_COUNT:50
;LAYER:0
M107
G0 F6000 X30.762 Y26.243 Z0.12
;TYPE:SKIRT
G1 F1500 E0
G1 F1200 X33.67 Y22.599 E0.09304
G1 X37.653 Y19.881 E0.18927
G1 X42.184 Y18.486 E0.28388
G1 X46.926 Y18.486 E0.37851
G1 X51.452 Y19.88 E0.47302
G1 X54.553 Y21.997 E0.54794
G1 X57.647 Y19.884 E0.62271
G1 X62.184 Y18.486 E0.71746
G1 X66.926 Y18.486 E0.81209
G1 X71.448 Y19.878 E0.90651
G1 X75.45 Y22.609 E1.0032
G1 X78.344 Y26.235 E1.09578
G1 X80.114 Y30.746 E1.19248
G1 X80.45 Y35.431 E1.28622
G1 X79.408 Y40.062 E1.38094
G1 X77.05 Y44.142 E1.47498
G1 X76.845 Y44.358 E1.48093
G1 X78.344 Y46.235 E1.52886
G1 X80.114 Y50.746 E1.62557
G1 X80.45 Y55.431 E1.7193
G1 X79.408 Y60.062 E1.81403
G1 X77.05 Y64.142 E1.90807
G1 X76.845 Y64.358 E1.91401
G1 X78.344 Y66.235 E1.96195
G1 X80.114 Y70.746 E2.05865
G1 X80.45 Y75.431 E2.15239
G1 X79.408 Y80.062 E2.24711
G1 X77.02 Y84.194 E2.34235
G1 X73.548 Y87.421 E2.43695
G1 X69.204 Y89.512 E2.53315
G1 X64.555 Y90.214 E2.62698
G1 X59.907 Y89.513 E2.72079
G1 X55.56 Y87.42 E2.81707
G1 X54.623 Y86.55 E2.84258
G1 X53.688 Y87.418 E2.86804
G1 X49.39 Y89.487 E2.96324
G1 X44.694 Y90.198 E3.05802
G1 X39.992 Y89.486 E3.15292
G1 X35.69 Y87.415 E3.2482
G1 X32.226 Y84.195 E3.34258
G1 X29.835 Y80.062 E3.43787
G1 X28.795 Y75.449 E3.53224
G1 X29.131 Y70.746 E3.62633
G1 X30.903 Y66.235 E3.72305
G1 X32.345 Y64.431 E3.76914
G1 X32.09 Y64.194 E3.77608
G1 X29.699 Y60.061 E3.87137
G1 X28.659 Y55.448 E3.96574
G1 X28.995 Y50.745 E4.05983
G1 X30.757 Y46.253 E4.15612
G1 X32.268 Y44.359 E4.20447
G1 X32.06 Y44.142 E4.21047
G1 X29.699 Y40.061 E4.30456
G1 X28.659 Y35.448 E4.39893
G1 X28.995 Y30.745 E4.49302
G1 X30.762 Y26.243 E4.58954
G0 F6000 X31.111 Y26.448
G1 F1200 X33.948 Y22.893 E4.6803
G1 X37.827 Y20.246 E4.77402
G1 X42.244 Y18.886 E4.86625
G1 X46.866 Y18.886 E4.95848
G1 X51.276 Y20.244 E5.05057
G1 X54.553 Y22.481 E5.12975
G1 X57.823 Y20.248 E5.20877
G1 X62.244 Y18.886 E5.30109
G1 X66.866 Y18.886 E5.39332
G1 X71.274 Y20.243 E5.48536
G1 X75.172 Y22.903 E5.57954
G1 X77.995 Y26.44 E5.66985
G1 X79.719 Y30.834 E5.76404
G1 X80.047 Y35.402 E5.85544
G1 X79.031 Y39.915 E5.94775
G1 X76.704 Y43.942 E6.04057
G1 X76.3 Y44.318 E6.05158
G1 X77.995 Y46.44 E6.10578
G1 X79.719 Y50.834 E6.19998
G1 X80.047 Y55.402 E6.29137
G1 X79.031 Y59.915 E6.38369
G1 X76.704 Y63.942 E6.4765
G1 X76.3 Y64.318 E6.48751
G1 X77.995 Y66.44 E6.54171
G1 X79.719 Y70.834 E6.63591
G1 X80.047 Y75.402 E6.7273
G1 X79.031 Y79.915 E6.81962
G1 X76.704 Y83.942 E6.91243
G1 X73.32 Y87.087 E7.00463
G1 X69.087 Y89.125 E7.09838
G1 X64.555 Y89.809 E7.18985
G1 X60.023 Y89.125 E7.28131
G1 X55.789 Y87.087 E7.37508
G1 X54.623 Y86.004 E7.40684
G1 X53.459 Y87.085 E7.43854
G1 X49.271 Y89.101 E7.5313
G1 X44.694 Y89.794 E7.62368
G1 X40.112 Y89.1 E7.71616
G1 X35.918 Y87.081 E7.80905
G1 X32.542 Y83.943 E7.90103
G1 X30.212 Y79.915 E7.99389
G1 X29.198 Y75.419 E8.08587
G1 X29.526 Y70.834 E8.1776
G1 X31.252 Y66.44 E8.27181
G1 X32.889 Y64.391 E8.32415
G1 X32.406 Y63.942 E8.33731
G1 X30.076 Y59.914 E8.43017
G1 X29.062 Y55.418 E8.52215
G1 X29.39 Y50.833 E8.61388
G1 X31.107 Y46.456 E8.70771
G1 X32.812 Y44.319 E8.76226
G1 X32.406 Y43.942 E8.77332
G1 X30.076 Y39.914 E8.86618
G1 X29.062 Y35.418 E8.95816
G1 X29.39 Y30.833 E9.04989
G1 X31.111 Y26.448 E9.1439
G0 F6000 X31.46 Y26.653
G1 F1200 X34.226 Y23.187 E9.23239
G1 X38.001 Y20.611 E9.32359
G1 X42.304 Y19.286 E9.41344
G1 X46.806 Y19.286 E9.50328
G1 X51.1 Y20.608 E9.59295
G1 X54.553 Y22.965 E9.67638
G1 X57.999 Y20.612 E9.75965
G1 X62.304 Y19.286 E9.84954
G1 X66.806 Y19.286 E9.93938
G1 X71.1 Y20.608 E10.02904
G1 X74.894 Y23.197 E10.12071
G1 X77.646 Y26.645 E10.20874
G1 X79.324 Y30.922 E10.30043
G1 X79.644 Y35.373 E10.38948
G1 X78.654 Y39.768 E10.47939
G1 X76.388 Y43.69 E10.56978
G1 X75.755 Y44.278 E10.58702
G1 X77.646 Y46.645 E10.64748
G1 X79.324 Y50.922 E10.73917
G1 X79.644 Y55.373 E10.82822
G1 X78.654 Y59.768 E10.91813
G1 X76.388 Y63.69 E11.00852
G1 X75.755 Y64.278 E11.02576
G1 X77.646 Y66.645 E11.08622
G1 X79.324 Y70.922 E11.1779
G1 X79.644 Y75.373 E11.26696
G1 X78.654 Y79.768 E11.35686
G1 X76.388 Y83.69 E11.44725
G1 X73.091 Y86.754 E11.53708
G1 X68.971 Y88.737 E11.62832
G1 X64.555 Y89.404 E11.71745
G1 X60.14 Y88.738 E11.80655
G1 X56.017 Y86.753 E11.89787
G1 X54.623 Y85.458 E11.93584
G1 X53.23 Y86.752 E11.97378
G1 X49.152 Y88.715 E12.0641
G1 X44.694 Y89.39 E12.15408
G1 X40.232 Y88.714 E12.24414
G1 X36.146 Y86.747 E12.33464
G1 X32.858 Y83.691 E12.42422
G1 X30.589 Y79.768 E12.51466
G1 X29.601 Y75.389 E12.60424
G1 X29.921 Y70.922 E12.69361
G1 X31.601 Y66.645 E12.78531
G1 X33.433 Y64.351 E12.8439
G1 X32.722 Y63.69 E12.86327
G1 X30.453 Y59.767 E12.95371
G1 X29.465 Y55.388 E13.0433
G1 X29.785 Y50.921 E13.13267
G1 X31.457 Y46.659 E13.22403
G1 X33.356 Y44.279 E13.28479
G1 X32.722 Y43.69 E13.30206
G1 X30.453 Y39.767 E13.3925
G1 X29.465 Y35.388 E13.48209
G1 X29.785 Y30.921 E13.57146
G1 X31.46 Y26.653 E13.66296
G0 F6000 X31.809 Y26.858
G1 F1200 X34.504 Y23.481 E13.74918
G1 X38.175 Y20.976 E13.83787
G1 X42.364 Y19.686 E13.92534
G1 X46.746 Y19.686 E14.01278
G1 X50.926 Y20.973 E14.10006
G1 X54.554 Y23.449 E14.18772
G1 X58.175 Y20.976 E14.27523
G1 X62.364 Y19.686 E14.3627
G1 X66.746 Y19.686 E14.45014
G1 X70.926 Y20.973 E14.53742
G1 X74.616 Y23.491 E14.62657
G1 X77.297 Y26.85 E14.71234
G1 X78.929 Y31.01 E14.80152
G1 X79.241 Y35.344 E14.88823
G1 X78.277 Y39.621 E14.97572
G1 X76.072 Y43.438 E15.06369
G1 X75.211 Y44.238 E15.08715
G1 X77.297 Y46.85 E15.15385
G1 X78.929 Y51.01 E15.24303
G1 X79.241 Y55.344 E15.32974
G1 X78.277 Y59.621 E15.41724
G1 X76.072 Y63.438 E15.50521
G1 X75.211 Y64.238 E15.52866
G1 X77.297 Y66.85 E15.59537
G1 X78.929 Y71.01 E15.68455
G1 X79.241 Y75.344 E15.77126
G1 X78.277 Y79.621 E15.85875
G1 X76.072 Y83.438 E15.94672
G1 X72.863 Y86.42 E16.03414
G1 X68.854 Y88.35 E16.12293
G1 X64.555 Y88.999 E16.2097
G1 X60.256 Y88.35 E16.29646
G1 X56.246 Y86.42 E16.38527
G1 X54.623 Y84.912 E16.42948
G1 X53.001 Y86.419 E16.47367
G1 X49.033 Y88.329 E16.56155
G1 X44.694 Y88.986 E16.64912
G1 X40.352 Y88.328 E16.73676
G1 X36.374 Y86.413 E16.82487
G1 X33.174 Y83.439 E16.91205
G1 X30.966 Y79.621 E17.00006
G1 X30.004 Y75.359 E17.08726
G1 X30.316 Y71.01 E17.17427
G1 X31.95 Y66.85 E17.26346
G1 X33.978 Y64.311 E17.32831
G1 X33.038 Y63.438 E17.35391
G1 X30.83 Y59.62 E17.44192
G1 X29.868 Y55.358 E17.52912
G1 X30.18 Y51.009 E17.61613
G1 X31.807 Y46.862 E17.70503
G1 X33.9 Y44.239 E17.772
G1 X33.038 Y43.438 E17.79548
G1 X30.83 Y39.62 E17.88349
G1 X29.868 Y35.358 E17.97069
G1 X30.18 Y31.009 E18.0577
G1 X31.809 Y26.858 E18.14669
G0 F6000 X32.158 Y27.063
G1 F1200 X34.782 Y23.775 E18.23064
G1 X38.349 Y21.341 E18.31681
G1 X42.424 Y20.086 E18.4019
G1 X46.686 Y20.086 E18.48696
G1 X50.752 Y21.338 E18.57186
G1 X54.336 Y23.784 E18.65845
G1 X54.556 Y24.06 E18.66549
G1 X54.784 Y23.774 E18.67279
G1 X58.349 Y21.341 E18.75892
G1 X62.424 Y20.086 E18.84401
G1 X66.686 Y20.086 E18.92907
G1 X70.752 Y21.338 E19.01397
G1 X74.338 Y23.785 E19.1006
G1 X76.948 Y27.055 E19.1841
G1 X78.534 Y31.098 E19.27077
G1 X78.838 Y35.315 E19.35514
G1 X77.9 Y39.474 E19.44022
G1 X75.756 Y43.186 E19.52577
G1 X74.667 Y44.198 E19.55543
G1 X76.948 Y47.055 E19.62839
G1 X78.534 Y51.098 E19.71506
G1 X78.838 Y55.315 E19.79943
G1 X77.9 Y59.474 E19.88451
G1 X75.756 Y63.186 E19.97006
G1 X74.667 Y64.198 E19.99973
G1 X76.948 Y67.055 E20.07268
G1 X78.534 Y71.098 E20.15935
G1 X78.838 Y75.315 E20.24373
G1 X77.9 Y79.474 E20.32881
G1 X75.756 Y83.186 E20.41435
G1 X72.635 Y86.086 E20.49937
G1 X68.737 Y87.963 E20.58571
G1 X64.555 Y88.594 E20.67011
G1 X60.373 Y87.963 E20.75451
G1 X56.474 Y86.086 E20.84087
G1 X54.623 Y84.366 E20.89129
G1 X52.772 Y86.086 E20.94172
G1 X48.914 Y87.943 E21.02716
G1 X44.694 Y88.582 E21.11234
G1 X40.472 Y87.942 E21.19755
G1 X36.602 Y86.079 E21.28327
G1 X33.49 Y83.187 E21.36805
G1 X31.343 Y79.474 E21.45364
G1 X30.407 Y75.329 E21.53844
G1 X30.711 Y71.098 E21.62309
G1 X32.299 Y67.055 E21.70978
G1 X34.522 Y64.271 E21.78087
G1 X33.354 Y63.186 E21.81269
G1 X31.207 Y59.473 E21.89828
G1 X30.271 Y55.328 E21.98308
G1 X30.575 Y51.097 E22.06773
G1 X32.157 Y47.065 E22.15417
G1 X34.444 Y44.199 E22.22734
G1 X33.354 Y43.186 E22.25703
G1 X31.207 Y39.473 E22.34263
G1 X30.271 Y35.328 E22.42743
G1 X30.575 Y31.097 E22.51208
G1 X32.158 Y27.063 E22.59856
G0 F6000 X32.507 Y27.268
G1 F1200 X35.06 Y24.069 E22.68023
G1 X38.523 Y21.706 E22.7639
G1 X42.484 Y20.486 E22.84661
G1 X46.626 Y20.486 E22.92927
G1 X50.578 Y21.703 E23.01179
G1 X54.058 Y24.078 E23.09587
G1 X54.556 Y24.702 E23.1118
G1 X55.062 Y24.068 E23.12799
G1 X58.523 Y21.706 E23.21161
G1 X62.484 Y20.486 E23.29432
G1 X66.626 Y20.486 E23.37697
G1 X70.578 Y21.703 E23.4595
G1 X74.06 Y24.079 E23.54362
G1 X76.599 Y27.26 E23.62484
G1 X78.139 Y31.186 E23.709
G1 X78.435 Y35.286 E23.79103
G1 X77.523 Y39.327 E23.8737
G1 X75.44 Y42.934 E23.95683
G1 X74.122 Y44.158 E23.99272
G1 X76.599 Y47.26 E24.07194
G1 X78.139 Y51.186 E24.1561
G1 X78.435 Y55.286 E24.23813
G1 X77.523 Y59.327 E24.3208
G1 X75.44 Y62.934 E24.40392
G1 X74.122 Y64.158 E24.43982
G1 X76.599 Y67.26 E24.51904
G1 X78.139 Y71.186 E24.6032
G1 X78.435 Y75.286 E24.68523
G1 X77.523 Y79.327 E24.7679
G1 X75.44 Y82.934 E24.85102
G1 X72.406 Y85.753 E24.93367
G1 X68.621 Y87.575 E25.0175
G1 X64.555 Y88.189 E25.09956
G1 X60.49 Y87.576 E25.1816
G1 X56.702 Y85.752 E25.2655
G1 X54.623 Y83.82 E25.32214
G1 X52.543 Y85.753 E25.3788
G1 X48.795 Y87.557 E25.46181
G1 X44.694 Y88.178 E25.54459
G1 X40.591 Y87.556 E25.6274
G1 X36.831 Y85.746 E25.71068
G1 X33.806 Y82.935 E25.79309
G1 X31.72 Y79.327 E25.87625
G1 X30.81 Y75.299 E25.95866
G1 X31.106 Y71.186 E26.04096
G1 X32.648 Y67.26 E26.12513
G1 X35.067 Y64.231 E26.20249
G1 X33.67 Y62.934 E26.24053
G1 X31.584 Y59.326 E26.3237
G1 X30.674 Y55.298 E26.40611
G1 X30.97 Y51.185 E26.4884
G1 X32.507 Y47.268 E26.57237
G1 X34.988 Y44.159 E26.65175
G1 X33.67 Y42.934 E26.68765
G1 X31.584 Y39.326 E26.77082
G1 X30.674 Y35.298 E26.85323
G1 X30.97 Y31.185 E26.93552
G1 X32.507 Y27.268 E27.01949
G0 F6000 X32.856 Y27.473
G1 F1200 X35.338 Y24.363 E27.0989
G1 X38.697 Y22.071 E27.18005
G1 X42.544 Y20.886 E27.26038
G1 X46.566 Y20.886 E27.34064
G1 X50.404 Y22.068 E27.42079
G1 X53.78 Y24.372 E27.50235
G1 X54.556 Y25.344 E27.52717
G1 X55.34 Y24.362 E27.55225
G1 X58.697 Y22.071 E27.63336
G1 X62.544 Y20.886 E27.71369
G1 X66.566 Y20.886 E27.79395
G1 X70.404 Y22.068 E27.87409
G1 X73.782 Y24.373 E27.9557
G1 X76.25 Y27.465 E28.03465
G1 X77.744 Y31.274 E28.1163
G1 X78.032 Y35.257 E28.19599
G1 X77.146 Y39.18 E28.27625
G1 X75.124 Y42.682 E28.35695
G1 X73.507 Y44.184 E28.401
G1 X73.78 Y44.371 E28.4076
G1 X76.25 Y47.465 E28.4866
G1 X77.744 Y51.274 E28.56826
G1 X78.032 Y55.257 E28.64795
G1 X77.146 Y59.18 E28.72821
G1 X75.124 Y62.682 E28.80891
G1 X73.507 Y64.184 E28.85295
G1 X73.78 Y64.371 E28.85955
G1 X76.25 Y67.465 E28.93856
G1 X77.744 Y71.274 E29.02021
G1 X78.032 Y75.257 E29.0999
G1 X77.146 Y79.18 E29.18016
G1 X75.124 Y82.682 E29.26086
G1 X72.178 Y85.419 E29.34111
G1 X68.504 Y87.188 E29.42248
G1 X64.555 Y87.784 E29.50218
G1 X60.606 Y87.188 E29.58188
G1 X56.931 Y85.419 E29.66327
G1 X54.623 Y83.274 E29.72615
G1 X52.314 Y85.42 E29.78906
G1 X48.676 Y87.171 E29.86963
G1 X44.694 Y87.774 E29.95
G1 X40.71 Y87.17 E30.03042
G1 X37.06 Y85.413 E30.11126
G1 X34.122 Y82.683 E30.19129
G1 X32.097 Y79.18 E30.27204
G1 X31.213 Y75.269 E30.35205
G1 X31.501 Y71.274 E30.43199
G1 X32.997 Y67.465 E30.51365
G1 X35.435 Y64.412 E30.59162
G1 X35.661 Y64.237 E30.59732
G1 X33.986 Y62.682 E30.64293
G1 X31.961 Y59.179 E30.72368
G1 X31.077 Y55.268 E30.8037
G1 X31.365 Y51.273 E30.88363
G1 X32.856 Y47.473 E30.96509
G1 X35.339 Y44.362 E31.04452
G1 X35.601 Y44.183 E31.05085
G1 X33.986 Y42.682 E31.09485
G1 X31.961 Y39.179 E31.1756
G1 X31.077 Y35.268 E31.25562
G1 X31.365 Y31.273 E31.33555
G1 X32.856 Y27.473 E31.41701
G0 F6000 X33.205 Y27.678
G1 F1200 X35.616 Y24.657 E31.49414
G1 X38.871 Y22.436 E31.57278
G1 X42.604 Y21.286 E31.65073
G1 X46.506 Y21.286 E31.7286
G1 X50.23 Y22.433 E31.80636
G1 X53.502 Y24.666 E31.88542
G1 X54.556 Y25.986 E31.91912
G1 X55.618 Y24.656 E31.95309
G1 X58.871 Y22.436 E32.03168
G1 X62.604 Y21.286 E32.10963
G1 X66.506 Y21.286 E32.1875
G1 X70.23 Y22.433 E32.26526
G1 X73.504 Y24.667 E32.34436
G1 X75.901 Y27.67 E32.42104
G1 X77.349 Y31.362 E32.50018
G1 X77.629 Y35.228 E32.57753
G1 X76.769 Y39.033 E32.65538
G1 X74.808 Y42.43 E32.73366
G1 X72.868 Y44.232 E32.7865
G1 X73.503 Y44.666 E32.80185
G1 X75.901 Y47.67 E32.87855
G1 X77.349 Y51.362 E32.95769
G1 X77.629 Y55.228 E33.03505
G1 X76.769 Y59.033 E33.11289
G1 X74.808 Y62.43 E33.19117
G1 X72.868 Y64.232 E33.24401
G1 X73.503 Y64.666 E33.25936
G1 X75.901 Y67.67 E33.33607
G1 X77.349 Y71.362 E33.41521
G1 X77.629 Y75.228 E33.49256
G1 X76.769 Y79.033 E33.57041
G1 X74.808 Y82.43 E33.64868
G1 X71.949 Y85.086 E33.72656
G1 X68.388 Y86.8 E33.80543
G1 X64.555 Y87.379 E33.88278
G1 X60.723 Y86.801 E33.96012
G1 X57.159 Y85.085 E34.03906
G1 X54.623 Y82.728 E34.10815
G1 X52.085 Y85.087 E34.1773
G1 X48.557 Y86.785 E34.25543
G1 X44.694 Y87.37 E34.3334
G1 X40.829 Y86.784 E34.41142
G1 X37.289 Y85.08 E34.48982
G1 X34.438 Y82.431 E34.56748
G1 X32.474 Y79.033 E34.6458
G1 X31.616 Y75.239 E34.72343
G1 X31.896 Y71.362 E34.801
G1 X33.346 Y67.67 E34.88016
G1 X35.748 Y64.662 E34.95698
G1 X36.3 Y64.285 E34.97032
G1 X34.302 Y62.43 E35.02472
G1 X32.338 Y59.032 E35.10305
G1 X31.48 Y55.238 E35.18067
G1 X31.76 Y51.361 E35.25824
G1 X33.205 Y47.678 E35.3372
G1 X35.616 Y44.657 E35.41433
G1 X36.24 Y44.231 E35.42941
G1 X34.302 Y42.43 E35.4822
G1 X32.338 Y39.032 E35.56053
G1 X31.48 Y35.238 E35.63815
G1 X31.76 Y31.361 E35.71572
G1 X33.205 Y27.678 E35.79467
G0 F6000 X33.554 Y27.883
G1 F1200 X35.894 Y24.951 E35.86954
G1 X39.045 Y22.801 E35.94566
G1 X42.664 Y21.686 E36.02123
G1 X46.446 Y21.686 E36.09671
G1 X50.056 Y22.798 E36.17209
G1 X53.224 Y24.96 E36.24863
G1 X54.556 Y26.628 E36.29123
G1 X55.894 Y24.951 E36.33404
G1 X59.045 Y22.801 E36.41016
G1 X62.664 Y21.686 E36.48573
G1 X66.446 Y21.686 E36.56121
G1 X70.056 Y22.798 E36.63659
G1 X73.226 Y24.961 E36.71317
G1 X75.552 Y27.875 E36.78758
G1 X76.954 Y31.45 E36.86421
G1 X77.226 Y35.199 E36.93923
G1 X76.392 Y38.886 E37.01466
G1 X74.492 Y42.178 E37.09051
G1 X72.229 Y44.28 E37.15215
G1 X73.226 Y44.961 E37.17625
G1 X75.552 Y47.875 E37.25065
G1 X76.954 Y51.45 E37.32729
G1 X77.226 Y55.199 E37.4023
G1 X76.392 Y58.886 E37.47773
G1 X74.492 Y62.178 E37.55359
G1 X72.229 Y64.28 E37.61522
G1 X73.226 Y64.961 E37.63932
G1 X75.552 Y67.875 E37.71372
G1 X76.954 Y71.45 E37.79036
G1 X77.226 Y75.199 E37.86537
G1 X76.392 Y78.886 E37.94081
G1 X74.492 Y82.178 E38.01666
G1 X71.721 Y84.752 E38.09213
G1 X68.271 Y86.413 E38.16854
G1 X64.555 Y86.974 E38.24354
G1 X60.839 Y86.413 E38.31854
G1 X57.388 Y84.752 E38.39497
G1 X54.623 Y82.182 E38.4703
G1 X51.857 Y84.753 E38.54566
G1 X48.44 Y86.398 E38.62134
G1 X44.691 Y86.965 E38.69701
G1 X40.948 Y86.398 E38.77256
G1 X37.518 Y84.747 E38.84852
G1 X34.754 Y82.179 E38.92382
G1 X32.851 Y78.886 E38.99971
G1 X32.019 Y75.209 E39.07495
G1 X32.291 Y71.45 E39.15016
G1 X33.695 Y67.875 E39.22681
G1 X36.025 Y64.957 E39.30132
G1 X36.939 Y64.333 E39.32341
G1 X34.618 Y62.178 E39.38661
