;FLAVOR:Marlin
;TIME:4270
;Filament used: 1.59698m
;Layer height: 0.2
;MINX:73.95
;MINY:56.691
;MINZ:0.2
;MAXX:150.684
;MAXY:132.085
;MAXZ:6
;TARGET_MACHINE.NAME:Creality Ender-3 Pro
;Generated with Cura_SteamEngine 5.6.0
M82 ;absolute extrusion mode
; Ender 3 Custom Start G-code
G92 E0 ; Reset Extruder
G28 ; Home all axes
G1 Z5.0 F3000 ; Move Z Axis up a bit during heating to not damage bed
M104 S120 ; Start heating up the nozzle most of the way
M190 S65 ; Start heating the bed, wait until target temperature reached
M109 S230.0 ; Finish heating the nozzle
G1 Z2.0 F3000 ; Move Z Axis up little to prevent scratching of Heat Bed
G1 X0.1 Y20 Z0.3 F5000.0 ; Move to start position
G1 X0.1 Y200.0 Z0.3 F1500.0 E15 ; Draw the first line
G1 X0.4 Y200.0 Z0.3 F5000.0 ; Move to side a little
G1 X0.4 Y20 Z0.3 F1500.0 E30 ; Draw the second line
G92 E0 ; Reset Extruder
G1 Z2.0 F3000 ; Move Z Axis up little to prevent scratching of Heat Bed
G1 X5 Y20 Z0.3 F5000.0 ; Move over to prevent blob squish
G92 E0
G92 E0
G1 F1500 E-6.5
;LAYER_COUNT:30
;LAYER:0
M107
G0 F6000 X77.801 Y83.392 Z0.2
;TYPE:SKIRT
G1 F1500 E0
G1 F900 X81.677 Y79.79 E0.17599
G1 X86.463 Y77.486 E0.35266
G1 X91.712 Y76.692 E0.52923
G1 X95.476 Y77.262 E0.65584
G1 X95.16 Y73.152 E0.79295
G1 X96.344 Y68.003 E0.96867
G1 X99.011 Y63.392 E1.14584
G1 X102.887 Y59.79 E1.32183
G1 X107.673 Y57.486 E1.4985
G1 X112.925 Y56.691 E1.67517
G1 X118.163 Y57.484 E1.85137
G1 X122.92 Y59.774 E2.02697
G1 X127.673 Y57.486 E2.20242
G1 X132.925 Y56.691 E2.37909
G1 X138.163 Y57.484 E2.55529
G1 X142.96 Y59.793 E2.73236
G1 X146.835 Y63.394 E2.9083
G1 X149.5 Y68.003 E3.08538
G1 X150.684 Y73.15 E3.26104
G1 X150.286 Y78.407 E3.43639
G1 X148.329 Y83.398 E3.6147
G1 X147.465 Y84.481 E3.66078
G1 X149.5 Y88.003 E3.79607
G1 X150.684 Y93.15 E3.97173
G1 X150.286 Y98.407 E4.14708
G1 X148.329 Y103.398 E4.32538
G1 X147.465 Y104.481 E4.37146
G1 X149.5 Y108.003 E4.50675
G1 X150.684 Y113.15 E4.68241
G1 X150.286 Y118.407 E4.85776
G1 X148.321 Y123.414 E5.03666
G1 X145.05 Y127.511 E5.21103
G1 X140.646 Y130.518 E5.3884
G1 X135.571 Y132.085 E5.56505
G1 X130.274 Y132.085 E5.74123
G1 X125.204 Y130.519 E5.91772
G1 X122.924 Y128.961 E6.00957
G1 X120.644 Y130.519 E6.10142
G1 X115.571 Y132.085 E6.278
G1 X110.274 Y132.085 E6.45418
G1 X105.204 Y130.519 E6.63067
G1 X102.924 Y128.961 E6.72252
G1 X100.644 Y130.519 E6.81436
G1 X95.571 Y132.085 E6.99095
G1 X90.274 Y132.085 E7.16713
G1 X85.202 Y130.518 E7.34369
G1 X80.785 Y127.502 E7.52158
G1 X77.528 Y123.424 E7.69517
G1 X75.559 Y118.412 E7.87427
G1 X75.16 Y113.15 E8.04979
G1 X76.344 Y108.003 E8.22545
G1 X77.87 Y105.367 E8.32675
G1 X76.318 Y103.424 E8.40946
G1 X74.349 Y98.412 E8.58857
G1 X73.95 Y93.15 E8.76408
G1 X75.134 Y88.003 E8.93974
G1 X77.801 Y83.392 E9.11691
G0 F6000 X78.117 Y83.644
G1 F900 X81.905 Y80.124 E9.2889
G1 X86.583 Y77.872 E9.46158
G1 X91.712 Y77.096 E9.63411
G1 X95.914 Y77.732 E9.77546
G1 X95.564 Y73.182 E9.92725
G1 X96.721 Y68.149 E10.09901
G1 X99.327 Y63.644 E10.27211
G1 X103.115 Y60.124 E10.4441
G1 X107.793 Y57.872 E10.61678
G1 X112.925 Y57.095 E10.78942
G1 X118.044 Y57.87 E10.96162
G1 X122.675 Y60.099 E11.13256
G1 X122.922 Y60.303 E11.14321
G1 X123.169 Y60.098 E11.15389
G1 X127.793 Y57.872 E11.32458
G1 X132.925 Y57.095 E11.49721
G1 X138.044 Y57.87 E11.66941
G1 X142.731 Y60.126 E11.84242
G1 X146.519 Y63.646 E12.01441
G1 X149.123 Y68.149 E12.18742
G1 X150.28 Y73.181 E12.35915
G1 X149.891 Y78.319 E12.53053
G1 X147.979 Y83.195 E12.70473
G1 X146.982 Y84.445 E12.75791
G1 X149.123 Y88.149 E12.9002
G1 X150.28 Y93.181 E13.07194
G1 X149.891 Y98.319 E13.24332
G1 X147.979 Y103.195 E13.41751
G1 X146.982 Y104.445 E13.47069
G1 X149.123 Y108.149 E13.61299
G1 X150.28 Y113.181 E13.78472
G1 X149.891 Y118.319 E13.9561
G1 X147.972 Y123.209 E14.13082
G1 X144.773 Y127.216 E14.30136
G1 X140.47 Y130.154 E14.47465
G1 X135.511 Y131.685 E14.64727
G1 X130.334 Y131.685 E14.81946
G1 X125.38 Y130.155 E14.99191
G1 X122.924 Y128.477 E15.09084
G1 X120.468 Y130.155 E15.18977
G1 X115.511 Y131.685 E15.36232
G1 X110.334 Y131.685 E15.53451
G1 X105.38 Y130.155 E15.70696
G1 X102.924 Y128.477 E15.80589
G1 X100.468 Y130.155 E15.90482
G1 X95.511 Y131.685 E16.07736
G1 X90.334 Y131.685 E16.24955
G1 X85.378 Y130.154 E16.42208
G1 X81.062 Y127.207 E16.5959
G1 X77.877 Y123.219 E16.76565
G1 X75.954 Y118.323 E16.9406
G1 X75.564 Y113.181 E17.11212
G1 X76.721 Y108.149 E17.28385
G1 X78.353 Y105.33 E17.39219
G1 X76.667 Y103.219 E17.48205
G1 X74.744 Y98.323 E17.657
G1 X74.354 Y93.181 E17.82851
G1 X75.511 Y88.149 E18.00024
G1 X78.117 Y83.644 E18.17334
G0 F6000 X78.433 Y83.896
G1 F900 X82.133 Y80.458 E18.34133
G1 X86.703 Y78.258 E18.51003
G1 X91.712 Y77.5 E18.67852
G1 X96.351 Y78.202 E18.83457
G1 X95.968 Y73.212 E19.00103
G1 X97.098 Y68.295 E19.16883
G1 X99.643 Y63.896 E19.33787
G1 X103.343 Y60.458 E19.50585
G1 X107.913 Y58.258 E19.67455
G1 X112.925 Y57.499 E19.84315
G1 X117.925 Y58.256 E20.01135
G1 X122.502 Y60.459 E20.18029
G1 X122.922 Y60.849 E20.19936
G1 X123.343 Y60.458 E20.21847
G1 X127.913 Y58.258 E20.38716
G1 X132.925 Y57.499 E20.55576
G1 X137.925 Y58.256 E20.72396
G1 X142.502 Y60.459 E20.8929
G1 X146.203 Y63.898 E21.06094
G1 X148.746 Y68.295 E21.22988
G1 X149.876 Y73.212 E21.39768
G1 X149.496 Y78.231 E21.56509
G1 X147.629 Y82.992 E21.73519
G1 X146.499 Y84.409 E21.79547
G1 X148.746 Y88.295 E21.94477
G1 X149.876 Y93.212 E22.11257
G1 X149.496 Y98.231 E22.27998
G1 X147.629 Y102.992 E22.45007
G1 X146.499 Y104.409 E22.51035
G1 X148.746 Y108.295 E22.65965
G1 X149.876 Y113.212 E22.82746
G1 X149.496 Y118.231 E22.99487
G1 X147.623 Y123.004 E23.1654
G1 X144.496 Y126.921 E23.33211
G1 X140.294 Y129.79 E23.50133
G1 X135.451 Y131.285 E23.66991
G1 X130.394 Y131.285 E23.83811
G1 X125.556 Y129.791 E24.00652
G1 X122.924 Y127.993 E24.11254
G1 X120.292 Y129.791 E24.21855
G1 X115.451 Y131.285 E24.38706
G1 X110.394 Y131.285 E24.55526
G1 X105.556 Y129.791 E24.72367
G1 X102.924 Y127.993 E24.82968
G1 X100.292 Y129.791 E24.9357
G1 X95.451 Y131.285 E25.10421
G1 X90.394 Y131.285 E25.2724
G1 X85.554 Y129.79 E25.44089
G1 X81.339 Y126.912 E25.61064
G1 X78.226 Y123.014 E25.77656
G1 X76.349 Y118.234 E25.94736
G1 X75.968 Y113.212 E26.11487
G1 X77.098 Y108.295 E26.28268
G1 X78.836 Y105.293 E26.39805
G1 X77.016 Y103.014 E26.49505
G1 X75.139 Y98.234 E26.66586
G1 X74.758 Y93.212 E26.83337
G1 X75.888 Y88.295 E27.00117
G1 X78.433 Y83.896 E27.1702
G0 F6000 X78.749 Y84.148
G1 F900 X82.361 Y80.792 E27.33419
G1 X86.823 Y78.644 E27.4989
G1 X91.712 Y77.904 E27.66336
G1 X96.596 Y78.643 E27.82765
G1 X97.02 Y78.847 E27.8433
G1 X96.744 Y78.147 E27.86833
G1 X96.372 Y73.243 E28.0319
G1 X97.475 Y68.441 E28.19578
G1 X99.959 Y64.148 E28.36074
G1 X103.571 Y60.792 E28.52473
G1 X108.033 Y58.644 E28.68944
G1 X112.925 Y57.903 E28.854
G1 X117.806 Y58.642 E29.0182
G1 X122.273 Y60.792 E29.18308
G1 X122.922 Y61.395 E29.21255
G1 X123.571 Y60.792 E29.24201
G1 X128.033 Y58.644 E29.40672
G1 X132.925 Y57.903 E29.57128
G1 X137.806 Y58.642 E29.73548
G1 X142.273 Y60.792 E29.90036
G1 X145.887 Y64.15 E30.06444
G1 X148.369 Y68.441 E30.22932
G1 X149.472 Y73.243 E30.39319
G1 X149.101 Y78.143 E30.55663
G1 X147.279 Y82.789 E30.72262
G1 X146.016 Y84.373 E30.79
G1 X148.369 Y88.441 E30.94631
G1 X149.472 Y93.243 E31.11018
G1 X149.101 Y98.143 E31.27362
G1 X147.279 Y102.789 E31.43961
G1 X146.016 Y104.373 E31.50699
G1 X148.369 Y108.441 E31.66329
G1 X149.472 Y113.243 E31.82717
G1 X149.101 Y118.143 E31.99061
G1 X147.274 Y122.799 E32.15696
G1 X144.219 Y126.626 E32.31983
G1 X140.118 Y129.426 E32.48499
G1 X135.391 Y130.885 E32.64953
G1 X130.454 Y130.885 E32.81374
G1 X125.732 Y129.427 E32.97811
G1 X122.924 Y127.509 E33.09121
G1 X120.116 Y129.427 E33.20431
G1 X115.391 Y130.885 E33.36878
G1 X110.454 Y130.885 E33.53298
G1 X105.732 Y129.427 E33.69735
G1 X102.924 Y127.509 E33.81046
G1 X100.116 Y129.427 E33.92356
G1 X95.391 Y130.885 E34.08802
G1 X90.454 Y130.885 E34.25223
G1 X85.73 Y129.426 E34.41667
G1 X81.616 Y126.617 E34.58236
G1 X78.575 Y122.809 E34.74444
G1 X76.744 Y118.145 E34.91109
G1 X76.372 Y113.243 E35.0746
G1 X77.475 Y108.441 E35.23848
G1 X79.319 Y105.256 E35.36089
G1 X77.365 Y102.809 E35.46504
G1 X75.534 Y98.145 E35.63169
G1 X75.162 Y93.243 E35.7952
G1 X76.265 Y88.441 E35.95907
G1 X78.749 Y84.148 E36.12404
G0 F6000 X79.065 Y84.4
G1 F900 X82.589 Y81.126 E36.28402
G1 X86.943 Y79.03 E36.44475
G1 X91.712 Y78.308 E36.60517
G1 X96.477 Y79.029 E36.76546
G1 X97.765 Y79.649 E36.813
G1 X97.139 Y78.058 E36.86987
G1 X96.776 Y73.274 E37.02944
G1 X97.852 Y68.587 E37.18939
G1 X100.275 Y64.4 E37.35029
G1 X103.799 Y61.126 E37.51027
G1 X108.153 Y59.03 E37.67099
G1 X112.922 Y58.308 E37.83142
G1 X117.689 Y59.029 E37.99177
G1 X122.045 Y61.126 E38.15257
G1 X122.922 Y61.94 E38.19237
G1 X123.799 Y61.126 E38.23216
G1 X128.153 Y59.03 E38.39288
G1 X132.922 Y58.308 E38.55331
G1 X137.689 Y59.029 E38.71366
G1 X142.045 Y61.126 E38.87446
G1 X145.571 Y64.402 E39.03454
G1 X147.992 Y68.587 E39.19535
G1 X149.068 Y73.274 E39.35529
G1 X148.706 Y78.055 E39.51476
G1 X146.929 Y82.586 E39.67664
G1 X145.533 Y84.337 E39.75112
G1 X147.992 Y88.587 E39.91443
G1 X149.068 Y93.274 E40.07438
G1 X148.706 Y98.055 E40.23385
G1 X146.929 Y102.586 E40.39573
G1 X145.533 Y104.337 E40.47021
G1 X147.992 Y108.587 E40.63352
G1 X149.068 Y113.274 E40.79347
G1 X148.706 Y118.055 E40.95294
G1 X146.925 Y122.594 E41.11511
G1 X143.942 Y126.331 E41.27415
G1 X139.942 Y129.062 E41.43524
G1 X135.331 Y130.485 E41.59574
G1 X130.514 Y130.485 E41.75595
G1 X125.908 Y129.063 E41.91628
G1 X122.924 Y127.025 E42.03647
G1 X119.94 Y129.063 E42.15666
G1 X115.331 Y130.485 E42.31708
G1 X110.514 Y130.485 E42.4773
G1 X105.908 Y129.063 E42.63763
G1 X102.924 Y127.025 E42.75781
G1 X99.94 Y129.063 E42.878
G1 X95.331 Y130.485 E43.03843
G1 X90.514 Y130.485 E43.19864
G1 X85.906 Y129.062 E43.35905
G1 X81.893 Y126.322 E43.52066
G1 X78.924 Y122.604 E43.67892
G1 X77.139 Y118.056 E43.84142
G1 X76.776 Y113.274 E44.00092
G1 X77.852 Y108.587 E44.16087
G1 X79.802 Y105.219 E44.29031
G1 X77.714 Y102.604 E44.40161
G1 X75.929 Y98.056 E44.56411
G1 X75.566 Y93.274 E44.72362
G1 X76.642 Y88.587 E44.88356
G1 X79.065 Y84.4 E45.04446
G0 F6000 X79.381 Y84.652
G1 F900 X82.817 Y81.46 E45.20045
G1 X87.063 Y79.416 E45.35718
G1 X91.712 Y78.712 E45.51357
G1 X96.357 Y79.415 E45.66982
G1 X98.509 Y80.451 E45.74926
G1 X97.534 Y77.969 E45.83795
G1 X97.18 Y73.304 E45.99356
G1 X98.229 Y68.734 E46.14951
G1 X100.591 Y64.652 E46.30637
G1 X104.027 Y61.46 E46.46235
G1 X108.273 Y59.416 E46.61909
G1 X112.922 Y58.712 E46.77548
G1 X117.569 Y59.415 E46.9318
G1 X121.817 Y61.46 E47.0886
G1 X122.922 Y62.486 E47.13876
G1 X124.027 Y61.46 E47.18891
G1 X128.273 Y59.416 E47.34564
G1 X132.922 Y58.712 E47.50203
G1 X137.569 Y59.415 E47.65835
G1 X141.817 Y61.46 E47.81516
G1 X145.255 Y64.654 E47.97124
G1 X147.615 Y68.734 E48.12801
G1 X148.664 Y73.304 E48.28396
G1 X148.311 Y77.967 E48.43949
G1 X146.579 Y82.383 E48.59726
G1 X144.976 Y84.394 E48.6828
G1 X145.255 Y84.654 E48.69548
G1 X147.615 Y88.734 E48.85225
G1 X148.664 Y93.304 E49.0082
G1 X148.311 Y97.967 E49.16374
G1 X146.579 Y102.383 E49.32151
G1 X144.976 Y104.394 E49.40705
G1 X145.255 Y104.654 E49.41973
G1 X147.615 Y108.734 E49.5765
G1 X148.664 Y113.304 E49.73245
G1 X148.311 Y117.967 E49.88799
G1 X146.576 Y122.389 E50.04598
G1 X143.665 Y126.036 E50.20118
G1 X139.766 Y128.698 E50.3582
G1 X135.271 Y130.085 E50.51466
G1 X130.574 Y130.085 E50.67089
G1 X126.084 Y128.699 E50.82718
G1 X122.924 Y126.541 E50.95445
G1 X119.764 Y128.699 E51.08172
G1 X115.271 Y130.085 E51.23811
G1 X110.574 Y130.085 E51.39433
G1 X106.084 Y128.699 E51.55062
G1 X102.924 Y126.541 E51.67789
G1 X99.764 Y128.699 E51.80516
G1 X95.271 Y130.085 E51.96155
G1 X90.574 Y130.085 E52.11777
G1 X86.082 Y128.698 E52.27414
G1 X82.17 Y126.027 E52.43169
G1 X79.273 Y122.399 E52.58611
G1 X77.534 Y117.967 E52.74446
G1 X77.18 Y113.304 E52.89999
G1 X78.229 Y108.734 E53.05595
G1 X80.285 Y105.182 E53.19245
G1 X78.063 Y102.399 E53.3109
G1 X76.324 Y97.967 E53.46925
G1 X75.97 Y93.304 E53.62479
G1 X77.019 Y88.734 E53.78074
G1 X79.381 Y84.652 E53.9376
G0 F6000 X79.697 Y84.904
G1 F900 X83.046 Y81.793 E54.08963
G1 X87.182 Y79.802 E54.2423
G1 X91.712 Y79.116 E54.39469
G1 X96.238 Y79.801 E54.54694
G1 X99.253 Y81.252 E54.65822
G1 X97.929 Y77.88 E54.77871
G1 X97.584 Y73.334 E54.93035
G1 X98.606 Y68.881 E55.08231
G1 X100.907 Y64.904 E55.23513
G1 X104.256 Y61.793 E55.38716
G1 X108.392 Y59.802 E55.53983
G1 X112.922 Y59.116 E55.69222
G1 X117.449 Y59.801 E55.8445
G1 X121.589 Y61.794 E55.99732
G1 X122.922 Y63.032 E56.05783
G1 X124.256 Y61.793 E56.11838
G1 X128.392 Y59.802 E56.27106
G1 X132.922 Y59.116 E56.42344
G1 X137.449 Y59.801 E56.57573
G1 X141.589 Y61.794 E56.72855
G1 X144.939 Y64.906 E56.88063
G1 X147.238 Y68.881 E57.03336
G1 X148.26 Y73.334 E57.18531
G1 X147.916 Y77.879 E57.33691
G1 X146.229 Y82.18 E57.49058
G1 X144.432 Y84.435 E57.58648
G1 X144.939 Y84.906 E57.6095
G1 X147.238 Y88.881 E57.76223
G1 X148.26 Y93.334 E57.91418
G1 X147.916 Y97.879 E58.06578
G1 X146.229 Y102.18 E58.21945
G1 X144.432 Y104.435 E58.31535
G1 X144.939 Y104.906 E58.33837
G1 X147.238 Y108.881 E58.49109
G1 X148.26 Y113.334 E58.64305
G1 X147.916 Y117.879 E58.79465
G1 X146.227 Y122.184 E58.94846
G1 X143.388 Y125.741 E59.09983
G1 X139.59 Y128.334 E59.25279
G1 X135.211 Y129.685 E59.40521
G1 X130.634 Y129.685 E59.55744
G1 X126.26 Y128.335 E59.70969
G1 X122.924 Y126.057 E59.84405
G1 X119.588 Y128.335 E59.9784
G1 X115.211 Y129.685 E60.13075
G1 X110.634 Y129.685 E60.28298
G1 X106.26 Y128.335 E60.43523
G1 X102.924 Y126.057 E60.56959
G1 X99.588 Y128.335 E60.70395
G1 X95.211 Y129.685 E60.85629
G1 X90.634 Y129.685 E61.00853
G1 X86.258 Y128.334 E61.16085
G1 X82.447 Y125.732 E61.31433
G1 X79.622 Y122.194 E61.46492
G1 X77.929 Y117.879 E61.61908
G1 X77.584 Y113.334 E61.77069
G1 X78.606 Y108.881 E61.92264
G1 X80.768 Y105.145 E62.06621
G1 X78.412 Y102.194 E62.19181
G1 X76.719 Y97.879 E62.34597
G1 X76.374 Y93.334 E62.49758
G1 X77.396 Y88.881 E62.64953
G1 X79.697 Y84.904 E62.80235
G0 F6000 X80.013 Y85.156
G1 F900 X83.275 Y82.126 E62.95043
G1 X87.301 Y80.188 E63.09905
G1 X91.712 Y79.52 E63.24743
G1 X96.119 Y80.187 E63.39568
G1 X100.039 Y82.074 E63.54037
G1 X99.948 Y81.93 E63.54604
G1 X98.324 Y77.791 E63.69392
G1 X97.988 Y73.364 E63.84159
G1 X98.983 Y69.028 E63.98955
G1 X101.223 Y65.156 E64.13833
G1 X104.485 Y62.126 E64.28641
G1 X108.511 Y60.188 E64.43502
G1 X112.922 Y59.52 E64.58341
G1 X117.329 Y60.187 E64.73165
G1 X121.361 Y62.128 E64.88049
G1 X122.922 Y63.577 E64.95133
G1 X124.485 Y62.126 E65.02226
G1 X128.511 Y60.188 E65.17087
G1 X132.922 Y59.52 E65.31926
G1 X137.329 Y60.187 E65.4675
G1 X141.361 Y62.128 E65.61634
G1 X144.623 Y65.158 E65.76442
G1 X146.861 Y69.028 E65.91311
G1 X147.856 Y73.364 E66.06107
G1 X147.521 Y77.791 E66.20874
G1 X145.879 Y81.977 E66.35829
G1 X143.888 Y84.475 E66.46454
G1 X144.623 Y85.158 E66.49791
G1 X146.861 Y89.028 E66.6466
G1 X147.856 Y93.364 E66.79456
G1 X147.521 Y97.791 E66.94223
G1 X145.879 Y101.977 E67.09178
G1 X143.888 Y104.475 E67.19803
G1 X144.623 Y105.158 E67.2314
G1 X146.861 Y109.028 E67.38009
G1 X147.856 Y113.364 E67.52805
G1 X147.521 Y117.791 E67.67572
G1 X145.878 Y121.979 E67.82535
G1 X143.111 Y125.446 E67.97288
G1 X139.414 Y127.97 E68.12177
G1 X135.151 Y129.285 E68.27015
G1 X130.694 Y129.285 E68.41839
G1 X126.436 Y127.971 E68.5666
G1 X122.924 Y125.573 E68.70804
G1 X119.412 Y127.971 E68.84948
G1 X115.151 Y129.285 E68.99779
G1 X110.694 Y129.285 E69.14603
G1 X106.436 Y127.971 E69.29424
G1 X102.924 Y125.573 E69.43568
G1 X99.412 Y127.971 E69.57713
G1 X95.151 Y129.285 E69.72543
G1 X90.694 Y129.285 E69.87367
G1 X86.434 Y127.97 E70.02196
G1 X82.724 Y125.437 E70.17137
G1 X79.971 Y121.989 E70.31812
G1 X78.324 Y117.791 E70.46811
G1 X77.988 Y113.364 E70.61578
G1 X78.983 Y109.028 E70.76374
G1 X81.251 Y105.108 E70.91437
G1 X78.761 Y101.989 E71.04711
G1 X77.114 Y97.791 E71.1971
G1 X76.778 Y93.364 E71.34476
G1 X77.773 Y89.028 E71.49273
G1 X80.013 Y85.156 E71.64151
G0 F6000 X80.329 Y85.408
G1 F900 X83.504 Y82.459 E71.78564
G1 X87.42 Y80.574 E71.93019
G1 X91.712 Y79.924 E72.07457
G1 X95.999 Y80.573 E72.21878
G1 X99.923 Y82.462 E72.36363
