(G-CODE GENERATED BY FLATCAM v8.994 - www.flatcam.org - Version Date: 2020/11/7)

(Name: Gerber_TopLayer.GTL_iso_combined_cnc)
(Type: G-code from Geometry)
(Units: MM)

(Created on Friday, 28 March 2025 at 14:35)

(This preprocessor is the default preprocessor used by FlatCAM.)
(It is made to work with MACH3 compatible motion controllers.)

(TOOL DIAMETER: 0.2 mm)
(Feedrate_XY: 300.0 mm/min)
(Feedrate_Z: 60.0 mm/min)
(Feedrate rapids 1500.0 mm/min)

(Z_Cut: 0.0 mm)
(Z_Move: 2.0 mm)
(Z Start: None mm)
(Z End: 15.0 mm)
(X,Y End: None mm)
(Steps per circle: 64)
(Preprocessor Geometry: default)

(X range:    1.7369 ...   55.4156  mm)
(Y range:    0.4649 ...   54.1451  mm)

(Spindle Speed: 24000.0 RPM)
G21
G90
G94

G01 F300.00

M5
G00 Z15.0000
G00 X0.0000 Y0.0000
T1
M6    
(MSG, Change to Tool Dia = 0.2000)
M0
G00 Z15.0000

M03 S24000.0
G01 F300.00
G00 X10.1534 Y9.8198
G01 F60.00
G01 Z0.0000
G01 F300.00
G01 X10.2820 Y9.8281
G01 X10.4082 Y9.8534
G01 X10.5301 Y9.8950
G01 X10.6459 Y9.9517
G01 X10.7528 Y10.0231
G01 X10.8496 Y10.1079
G01 X10.9344 Y10.2047
G01 X11.0058 Y10.3116
G01 X11.0626 Y10.4274
G01 X11.1041 Y10.5493
G01 X11.1295 Y10.6755
G01 X11.1378 Y10.8041
G01 X11.1295 Y10.9322
G01 X11.1041 Y11.0585
G01 X11.0626 Y11.1809
G01 X11.0059 Y11.2961
G01 X10.9344 Y11.4030
G01 X10.8594 Y11.4888
G01 X10.8536 Y11.4969
G01 X10.8322 Y11.5321
G01 X10.8288 Y11.5386
G01 X10.8259 Y11.5452
G01 X10.8235 Y11.5521
G01 X10.8216 Y11.5591
G01 X10.8135 Y11.6025
G01 X10.8125 Y11.6128
G01 X10.8118 Y19.7160
G01 X10.8045 Y19.7961
G01 X10.8016 Y19.8131
G01 X10.7821 Y19.8922
G01 X10.7768 Y19.9084
G01 X10.7458 Y19.9834
G01 X10.7381 Y19.9984
G01 X10.6971 Y20.0660
G01 X10.6340 Y20.1450
G01 X4.8506 Y25.9291
G01 X4.8431 Y25.9383
G01 X4.8188 Y25.9743
G01 X4.8153 Y25.9807
G01 X4.8122 Y25.9873
G01 X4.8096 Y25.9941
G01 X4.8075 Y26.0011
G01 X4.7978 Y26.0384
G01 X4.7957 Y26.0501
G01 X4.7881 Y26.1637
G01 X4.7632 Y26.2895
G01 X4.7217 Y26.4117
G01 X4.6651 Y26.5268
G01 X4.5932 Y26.6338
G01 X4.5082 Y26.7307
G01 X4.4113 Y26.8156
G01 X4.3044 Y26.8875
G01 X4.1893 Y26.9442
G01 X4.0671 Y26.9857
G01 X3.9411 Y27.0106
G01 X3.8125 Y27.0193
G01 X3.6840 Y27.0106
G01 X3.5580 Y26.9857
G01 X3.4358 Y26.9442
G01 X3.3207 Y26.8875
G01 X3.2137 Y26.8156
G01 X3.1168 Y26.7307
G01 X3.0319 Y26.6338
G01 X2.9600 Y26.5268
G01 X2.9034 Y26.4117
G01 X2.8619 Y26.2895
G01 X2.8369 Y26.1636
G01 X2.8282 Y26.0350
G01 X2.8369 Y25.9064
G01 X2.8619 Y25.7805
G01 X2.9034 Y25.6583
G01 X2.9600 Y25.5432
G01 X3.0319 Y25.4362
G01 X3.1168 Y25.3393
G01 X3.2137 Y25.2544
G01 X3.3207 Y25.1824
G01 X3.4358 Y25.1258
G01 X3.5580 Y25.0843
G01 X3.6839 Y25.0594
G01 X3.7927 Y25.0522
G01 X3.7998 Y25.0515
G01 X3.8091 Y25.0498
G01 X3.8488 Y25.0394
G01 X3.8557 Y25.0371
G01 X3.8647 Y25.0333
G01 X3.8753 Y25.0274
G01 X3.9073 Y25.0057
G01 X3.9148 Y25.0001
G01 X3.9202 Y24.9953
G01 X9.4352 Y19.4804
G01 X9.4416 Y19.4733
G01 X9.4459 Y19.4677
G01 X9.4696 Y19.4327
G01 X9.4748 Y19.4241
G01 X9.4801 Y19.4127
G01 X9.4826 Y19.4055
G01 X9.4845 Y19.3982
G01 X9.4926 Y19.3566
G01 X9.4940 Y19.3471
G01 X9.4944 Y19.3375
G01 X9.4944 Y11.6148
G01 X9.4932 Y11.6018
G01 X9.4852 Y11.5589
G01 X9.4832 Y11.5519
G01 X9.4799 Y11.5429
G01 X9.4769 Y11.5364
G01 X9.4733 Y11.5300
G01 X9.4533 Y11.4970
G01 X9.4476 Y11.4890
G01 X9.3729 Y11.4032
G01 X9.3013 Y11.2960
G01 X9.2442 Y11.1807
G01 X9.2027 Y11.0587
G01 X9.1778 Y10.9324
G01 X9.1695 Y10.8041
G01 X9.1778 Y10.6753
G01 X9.2027 Y10.5491
G01 X9.2442 Y10.4275
G01 X9.3014 Y10.3117
G01 X9.3729 Y10.2047
G01 X9.4577 Y10.1079
G01 X9.5545 Y10.0231
G01 X9.6614 Y9.9517
G01 X9.7767 Y9.8950
G01 X9.8990 Y9.8534
G01 X10.0253 Y9.8281
G01 X10.1534 Y9.8198
G00 Z2.0000
G00 X12.6532 Y8.4076
G01 F60.00
G01 Z0.0000
G01 F300.00
G01 X20.5911 Y8.4076
G01 X26.3855 Y2.6132
G01 X26.3820 Y2.5400
G01 X26.3861 Y2.4542
G01 X26.3871 Y2.4444
G01 X26.3990 Y2.3643
G01 X26.4009 Y2.3547
G01 X26.4219 Y2.2713
G01 X26.4525 Y2.1858
G01 X26.4913 Y2.1037
G01 X26.5354 Y2.0300
G01 X26.5408 Y2.0218
G01 X26.5921 Y1.9529
G01 X26.6497 Y1.8891
G01 X26.6567 Y1.8822
G01 X26.7204 Y1.8246
G01 X26.7933 Y1.7705
G01 X26.8670 Y1.7262
G01 X26.8756 Y1.7216
G01 X26.9489 Y1.6869
G01 X26.9579 Y1.6832
G01 X27.0389 Y1.6544
G01 X27.1222 Y1.6334
G01 X27.1318 Y1.6314
G01 X27.2168 Y1.6190
G01 X27.3075 Y1.6145
G01 X27.3982 Y1.6190
G01 X27.4833 Y1.6314
G01 X27.4929 Y1.6334
G01 X27.5762 Y1.6544
G01 X27.6571 Y1.6832
G01 X27.6662 Y1.6869
G01 X27.7394 Y1.7216
G01 X27.7481 Y1.7262
G01 X27.8217 Y1.7705
G01 X27.8947 Y1.8246
G01 X27.9584 Y1.8822
G01 X27.9653 Y1.8891
G01 X28.0230 Y1.9529
G01 X28.0742 Y2.0218
G01 X28.0797 Y2.0300
G01 X28.1237 Y2.1037
G01 X28.1626 Y2.1858
G01 X28.1932 Y2.2713
G01 X28.2142 Y2.3547
G01 X28.2161 Y2.3643
G01 X28.2286 Y2.4493
G01 X28.2330 Y2.5400
G01 X28.2289 Y2.6258
G01 X28.2280 Y2.6356
G01 X28.2152 Y2.7206
G01 X28.1932 Y2.8087
G01 X28.1643 Y2.8896
G01 X28.1606 Y2.8987
G01 X28.1237 Y2.9763
G01 X28.0797 Y3.0500
G01 X28.0742 Y3.0582
G01 X28.0230 Y3.1271
G01 X27.9637 Y3.1927
G01 X27.9584 Y3.1978
G01 X27.8947 Y3.2554
G01 X27.8217 Y3.3095
G01 X27.7438 Y3.3562
G01 X27.6662 Y3.3931
G01 X27.6571 Y3.3968
G01 X27.5762 Y3.4256
G01 X27.4929 Y3.4466
G01 X27.4833 Y3.4486
G01 X27.4031 Y3.4604
G01 X27.3933 Y3.4614
G01 X27.3075 Y3.4655
G01 X27.2344 Y3.4620
G01 X21.2641 Y9.4323
G01 X21.2205 Y9.4719
G01 X21.1732 Y9.5070
G01 X21.1227 Y9.5373
G01 X21.0694 Y9.5624
G01 X21.0139 Y9.5823
G01 X20.9568 Y9.5966
G01 X20.8985 Y9.6052
G01 X20.8397 Y9.6081
G01 X12.6533 Y9.6081
G01 X12.6040 Y9.6624
G01 X12.5404 Y9.7202
G01 X12.5328 Y9.7264
G01 X12.4677 Y9.7747
G01 X12.4596 Y9.7801
G01 X12.3858 Y9.8242
G01 X12.3082 Y9.8610
G01 X12.2991 Y9.8648
G01 X12.2182 Y9.8936
G01 X12.1301 Y9.9157
G01 X12.0403 Y9.9290
G01 X11.9496 Y9.9335
G01 X11.8588 Y9.9290
G01 X11.7690 Y9.9157
G01 X11.6809 Y9.8936
G01 X11.6000 Y9.8648
G01 X11.5909 Y9.8610
G01 X11.5133 Y9.8242
G01 X11.4395 Y9.7801
G01 X11.4314 Y9.7747
G01 X11.3663 Y9.7264
G01 X11.3587 Y9.7202
G01 X11.2951 Y9.6624
G01 X11.2341 Y9.5951
G01 X11.1800 Y9.5222
G01 X11.1333 Y9.4443
G01 X11.0945 Y9.3622
G01 X11.0639 Y9.2766
G01 X11.0418 Y9.1885
G01 X11.0285 Y9.0987
G01 X11.0241 Y9.0080
G01 X11.0285 Y8.9173
G01 X11.0418 Y8.8274
G01 X11.0639 Y8.7393
G01 X11.0945 Y8.6538
G01 X11.1333 Y8.5717
G01 X11.1800 Y8.4938
G01 X11.2341 Y8.4208
G01 X11.2951 Y8.3536
G01 X11.3624 Y8.2926
G01 X11.4354 Y8.2385
G01 X11.5133 Y8.1918
G01 X11.5954 Y8.1529
G01 X11.6809 Y8.1223
G01 X11.7690 Y8.1003
G01 X11.8588 Y8.0869
G01 X11.9495 Y8.0825
G01 X12.0403 Y8.0869
G01 X12.1301 Y8.1003
G01 X12.2182 Y8.1223
G01 X12.3037 Y8.1529
G01 X12.3858 Y8.1918
G01 X12.4637 Y8.2385
G01 X12.5367 Y8.2926
G01 X12.6040 Y8.3536
G01 X12.6532 Y8.4076
G00 Z2.0000
G00 X27.3075 Y1.5557
G01 F60.00
G01 Z0.0000
G01 F300.00
G01 X27.4361 Y1.5644
G01 X27.5621 Y1.5893
G01 X27.6843 Y1.6308
G01 X27.7994 Y1.6875
G01 X27.9063 Y1.7594
G01 X28.0032 Y1.8443
G01 X28.0882 Y1.9412
G01 X28.1601 Y2.0482
G01 X28.2167 Y2.1633
G01 X28.2582 Y2.2855
G01 X28.2831 Y2.4114
G01 X28.2919 Y2.5400
G01 X28.2831 Y2.6686
G01 X28.2582 Y2.7945
G01 X28.2167 Y2.9167
G01 X28.1601 Y3.0318
G01 X28.0882 Y3.1388
G01 X28.0032 Y3.2357
G01 X27.9063 Y3.3206
G01 X27.7994 Y3.3925
G01 X27.6843 Y3.4492
G01 X27.5621 Y3.4907
G01 X27.4362 Y3.5156
G01 X27.3274 Y3.5228
G01 X27.3203 Y3.5235
G01 X27.3110 Y3.5252
G01 X27.2713 Y3.5356
G01 X27.2621 Y3.5387
G01 X27.2554 Y3.5416
G01 X27.2490 Y3.5451
G01 X27.2428 Y3.5489
G01 X27.2109 Y3.5706
G01 X27.2017 Y3.5780
G01 X21.2906 Y9.4884
G01 X21.2116 Y9.5516
G01 X21.1440 Y9.5926
G01 X21.1290 Y9.6002
G01 X21.0539 Y9.6313
G01 X21.0377 Y9.6366
G01 X20.9586 Y9.6561
G01 X20.9417 Y9.6589
G01 X20.8615 Y9.6663
G01 X12.7583 Y9.6669
G01 X12.7480 Y9.6680
G01 X12.7047 Y9.6760
G01 X12.6976 Y9.6780
G01 X12.6908 Y9.6804
G01 X12.6841 Y9.6833
G01 X12.6777 Y9.6867
G01 X12.6425 Y9.7080
G01 X12.6343 Y9.7138
G01 X12.5486 Y9.7889
G01 X12.4416 Y9.8603
G01 X12.3264 Y9.9170
G01 X12.2041 Y9.9586
G01 X12.0778 Y9.9839
G01 X11.9497 Y9.9922
G01 X11.8211 Y9.9839
G01 X11.6948 Y9.9586
G01 X11.5729 Y9.9170
G01 X11.4571 Y9.8603
G01 X11.3503 Y9.7889
G01 X11.2535 Y9.7041
G01 X11.1686 Y9.6073
G01 X11.0972 Y9.5004
G01 X11.0405 Y9.3846
G01 X10.9989 Y9.2627
G01 X10.9736 Y9.1365
G01 X10.9653 Y9.0079
G01 X10.9736 Y8.8798
G01 X10.9989 Y8.7535
G01 X11.0405 Y8.6311
G01 X11.0972 Y8.5159
G01 X11.1687 Y8.4089
G01 X11.2535 Y8.3121
G01 X11.3503 Y8.2273
G01 X11.4573 Y8.1558
G01 X11.5731 Y8.0986
G01 X11.6947 Y8.0572
G01 X11.8209 Y8.0323
G01 X11.9497 Y8.0240
G01 X12.0779 Y8.0323
G01 X12.2042 Y8.0572
G01 X12.3262 Y8.0986
G01 X12.4415 Y8.1558
G01 X12.5487 Y8.2274
G01 X12.6345 Y8.3020
G01 X12.6425 Y8.3077
G01 X12.6756 Y8.3278
G01 X12.6819 Y8.3313
G01 X12.6884 Y8.3344
G01 X12.6975 Y8.3377
G01 X12.7045 Y8.3396
G01 X12.7473 Y8.3477
G01 X12.7604 Y8.3489
G01 X20.4831 Y8.3489
G01 X20.4927 Y8.3484
G01 X20.4998 Y8.3475
G01 X20.5438 Y8.3389
G01 X20.5535 Y8.3363
G01 X20.5651 Y8.3316
G01 X20.5761 Y8.3255
G01 X20.6113 Y8.3017
G01 X20.6189 Y8.2960
G01 X20.6259 Y8.2896
G01 X26.2679 Y2.6476
G01 X26.2726 Y2.6423
G01 X26.2769 Y2.6367
G01 X26.3012 Y2.6007
G01 X26.3048 Y2.5943
G01 X26.3079 Y2.5877
G01 X26.3105 Y2.5809
G01 X26.3126 Y2.5739
G01 X26.3223 Y2.5365
G01 X26.3243 Y2.5249
G01 X26.3320 Y2.4113
G01 X26.3569 Y2.2855
G01 X26.3984 Y2.1633
G01 X26.4550 Y2.0482
G01 X26.5269 Y1.9412
G01 X26.6118 Y1.8443
G01 X26.7087 Y1.7594
G01 X26.8157 Y1.6874
G01 X26.9308 Y1.6308
G01 X27.0530 Y1.5893
G01 X27.1790 Y1.5644
G01 X27.3075 Y1.5557
G00 Z2.0000
G00 X28.3937 Y0.4649
G01 F60.00
G01 Z0.0000
G01 F300.00
G01 X29.1299 Y0.4700
G01 X29.8657 Y0.4949
G01 X30.6010 Y0.5408
G01 X31.3342 Y0.6060
G01 X32.0687 Y0.6920
G01 X32.7973 Y0.7981
G01 X33.5201 Y0.9230
G01 X34.2422 Y1.0688
G01 X34.9596 Y1.2340
G01 X35.6725 Y1.4191
G01 X36.3802 Y1.6235
G01 X37.0845 Y1.8477
G01 X37.7794 Y2.0909
G01 X38.4678 Y2.3526
G01 X39.1485 Y2.6335
G01 X39.8216 Y2.9329
G01 X40.4859 Y3.2506
G01 X41.1411 Y3.5861
G01 X41.7848 Y3.9382
G01 X42.4207 Y4.3094
G01 X43.0463 Y4.6979
G01 X43.6612 Y5.1032
G01 X44.2667 Y5.5270
G01 X44.8587 Y5.9660
G01 X45.4380 Y6.4204
G01 X46.0044 Y6.8910
G01 X46.5576 Y7.3765
G01 X47.0976 Y7.8772
G01 X47.6238 Y8.3928
G01 X48.1338 Y8.9206
G01 X48.6305 Y9.4641
G01 X49.1123 Y10.0209
G01 X49.5789 Y10.5904
G01 X50.0314 Y11.1754
G01 X50.4658 Y11.7700
G01 X50.8823 Y12.3740
G01 X51.2832 Y12.9915
G01 X51.6676 Y13.6196
G01 X52.0356 Y14.2609
G01 X52.3843 Y14.9090
G01 X52.7158 Y15.5668
G01 X53.0288 Y16.2338
G01 X53.3230 Y16.9084
G01 X53.5988 Y17.5911
G01 X53.8563 Y18.2816
G01 X54.0944 Y18.9781
G01 X54.3123 Y19.6787
G01 X54.5117 Y20.3879
G01 X54.6917 Y21.1017
G01 X54.8519 Y21.8207
G01 X54.9926 Y22.5432
G01 X55.1135 Y23.2698
G01 X55.2140 Y23.9995
G01 X55.2946 Y24.7312
G01 X55.3553 Y25.4654
G01 X55.3958 Y26.2035
G01 X55.4156 Y26.9370
G01 X55.4156 Y27.6733
G01 X55.3956 Y28.4124
G01 X55.3548 Y29.1476
G01 X55.2946 Y29.8814
G01 X55.2135 Y30.6135
G01 X55.1130 Y31.3427
G01 X54.9921 Y32.0693
G01 X54.8514 Y32.7923
G01 X54.6912 Y33.5108
G01 X54.5119 Y34.2225
G01 X54.3120 Y34.9313
G01 X54.0933 Y35.6344
G01 X53.8543 Y36.3336
G01 X53.5978 Y37.0214
G01 X53.3220 Y37.7041
G01 X53.0273 Y38.3788
G01 X52.7142 Y39.0457
G01 X52.3820 Y39.7060
G01 X52.0328 Y40.3540
G01 X51.6661 Y40.9924
G01 X51.2816 Y41.6211
G01 X50.8803 Y42.2385
G01 X50.4626 Y42.8448
G01 X50.0277 Y43.4393
G01 X49.5774 Y44.0216
G01 X49.1108 Y44.5911
G01 X48.6289 Y45.1485
G01 X48.1318 Y45.6914
G01 X47.6198 Y46.2212
G01 X47.0935 Y46.7362
G01 X46.5536 Y47.2368
G01 X46.0002 Y47.7228
G01 X45.4353 Y48.1912
G01 X44.8562 Y48.6460
G01 X44.2647 Y49.0846
G01 X43.6610 Y49.5068
G01 X43.0466 Y49.9122
G01 X42.4209 Y50.3003
G01 X41.7846 Y50.6715
G01 X41.1386 Y51.0249
G01 X40.4834 Y51.3609
G01 X39.8165 Y51.6793
G01 X39.1460 Y51.9775
G01 X38.4653 Y52.2584
G01 X37.7769 Y52.5201
G01 X37.0814 Y52.7628
G01 X36.3798 Y52.9867
G01 X35.6726 Y53.1912
G01 X34.9571 Y53.3765
G01 X34.2392 Y53.5416
G01 X33.5176 Y53.6875
G01 X32.7920 Y53.8128
G01 X32.0656 Y53.9180
G01 X31.3344 Y54.0037
G01 X30.6007 Y54.0695
G01 X29.8631 Y54.1151
G01 X29.1296 Y54.1400
G01 X28.3933 Y54.1451
G01 X27.6570 Y54.1298
G01 X26.9218 Y54.0947
G01 X26.1875 Y54.0392
G01 X25.4548 Y53.9637
G01 X24.7218 Y53.8675
G01 X23.9947 Y53.7517
G01 X23.2734 Y53.6166
G01 X22.5507 Y53.4605
G01 X21.8359 Y53.2851
G01 X21.1256 Y53.0907
G01 X20.4209 Y52.8765
G01 X19.7224 Y52.6430
G01 X19.0330 Y52.3915
G01 X18.3487 Y52.1203
G01 X17.6690 Y51.8291
G01 X17.0006 Y51.5206
G01 X16.3402 Y51.1942
G01 X15.6896 Y50.8494
G01 X15.0487 Y50.4869
G01 X14.4174 Y50.1070
G01 X13.7975 Y49.7098
G01 X13.1881 Y49.2961
G01 X12.5911 Y48.8653
G01 X12.0052 Y48.4186
G01 X11.4327 Y47.9561
G01 X10.8723 Y47.4782
G01 X10.3257 Y46.9847
G01 X9.7923 Y46.4767
G01 X9.2739 Y45.9541
G01 X8.7709 Y45.4197
G01 X8.2795 Y44.8674
G01 X7.8059 Y44.3040
G01 X7.3470 Y43.7278
G01 X6.9061 Y43.1410
G01 X6.4798 Y42.5404
G01 X6.0688 Y41.9262
G01 X5.6762 Y41.3032
G01 X5.3004 Y40.6698
G01 X4.9431 Y40.0263
G01 X4.6024 Y39.3731
G01 X4.2807 Y38.7107
G01 X3.9769 Y38.0397
G01 X3.6919 Y37.3610
G01 X3.4252 Y36.6746
G01 X3.1784 Y35.9833
G01 X2.9499 Y35.2837
G01 X2.7408 Y34.5775
G01 X2.5504 Y33.8630
G01 X2.3801 Y33.1466
G01 X2.2303 Y32.4283
G01 X2.0992 Y31.7010
G01 X1.9886 Y30.9729
G01 X1.8979 Y30.2422
G01 X1.8276 Y29.5090
G01 X1.7771 Y28.7742
G01 X1.7466 Y28.0383
G01 X1.7369 Y27.3022
G01 X1.7467 Y26.5658
G01 X1.7773 Y25.8300
G01 X1.8278 Y25.0952
G01 X1.8987 Y24.3625
G01 X1.9895 Y23.6313
G01 X2.1002 Y22.9037
G01 X2.2308 Y22.1787
G01 X2.3812 Y21.4582
G01 X2.5516 Y20.7413
G01 X2.7413 Y20.0299
G01 X2.9501 Y19.3264
G01 X3.1785 Y18.6263
G01 X3.4263 Y17.9328
G01 X3.6929 Y17.2464
G01 X3.9779 Y16.5678
G01 X4.2829 Y15.8942
G01 X4.6052 Y15.2319
G01 X4.9454 Y14.5787
G01 X5.3034 Y13.9352
G01 X5.6778 Y13.3043
G01 X6.0703 Y12.6812
G01 X6.4813 Y12.0671
G01 X6.9076 Y11.4664
G01 X7.3491 Y10.8801
G01 X7.8074 Y10.3040
G01 X8.2816 Y9.7405
G01 X8.7729 Y9.1883
G01 X9.2773 Y8.6519
G01 X9.7944 Y8.1312
G01 X10.3278 Y7.6233
G01 X10.8764 Y7.1284
G01 X11.4347 Y6.6519
G01 X12.0078 Y6.1894
G01 X12.5931 Y5.7427
G01 X13.1907 Y5.3123
G01 X13.8023 Y4.8972
G01 X14.4200 Y4.5015
G01 X15.0507 Y4.1216
G01 X15.6922 Y3.7595
G01 X16.3428 Y3.4148
G01 X17.0056 Y3.0867
G01 X17.6741 Y2.7788
G01 X18.3512 Y2.4887
G01 X19.0355 Y2.2175
G01 X19.7249 Y1.9660
G01 X20.4235 Y1.7329
G01 X21.1281 Y1.5187
G01 X21.8411 Y1.3232
G01 X22.5564 Y1.1484
G01 X23.2759 Y0.9929
G01 X23.9973 Y0.8578
G01 X24.7244 Y0.7420
G01 X25.4546 Y0.6466
G01 X26.1872 Y0.5706
G01 X26.9216 Y0.5155
G01 X27.6573 Y0.4797
G01 X28.3937 Y0.4649
G00 Z2.0000
G00 X29.8475 Y1.5557
G01 F60.00
G01 Z0.0000
G01 F300.00
G01 X29.9761 Y1.5644
G01 X30.1021 Y1.5893
G01 X30.2243 Y1.6308
G01 X30.3394 Y1.6875
G01 X30.4463 Y1.7594
G01 X30.5432 Y1.8443
G01 X30.6282 Y1.9412
G01 X30.7001 Y2.0482
G01 X30.7567 Y2.1633
G01 X30.7982 Y2.2855
G01 X30.8231 Y2.4114
G01 X30.8319 Y2.5400
G01 X30.8231 Y2.6686
G01 X30.7982 Y2.7945
G01 X30.7567 Y2.9167
G01 X30.7001 Y3.0318
G01 X30.6281 Y3.1389
G01 X30.5534 Y3.2248
G01 X30.5477 Y3.2328
G01 X30.5276 Y3.2659
G01 X30.5240 Y3.2722
G01 X30.5210 Y3.2788
G01 X30.5184 Y3.2856
G01 X30.5163 Y3.2926
G01 X30.5077 Y3.3384
G01 X30.5065 Y3.3512
G01 X30.5065 Y8.0229
G01 X30.5070 Y8.0306
G01 X30.5081 Y8.0383
G01 X30.5179 Y8.0844
G01 X30.5201 Y8.0916
G01 X30.5239 Y8.1009
G01 X30.5273 Y8.1077
G01 X30.5312 Y8.1141
G01 X30.5559 Y8.1511
G01 X30.5620 Y8.1587
G01 X30.5671 Y8.1640
G01 X30.5745 Y8.1704
G01 X30.5804 Y8.1747
G01 X30.6155 Y8.1985
G01 X30.6264 Y8.2045
G01 X30.6380 Y8.2092
G01 X30.6477 Y8.2119
G01 X30.6911 Y8.2204
G01 X30.7008 Y8.2216
G01 X30.7081 Y8.2219
G01 X44.3947 Y8.2219
G01 X44.4077 Y8.2207
G01 X44.4506 Y8.2126
G01 X44.4599 Y8.2100
G01 X44.4666 Y8.2074
G01 X44.4732 Y8.2043
G01 X44.4795 Y8.2008
G01 X44.5126 Y8.1807
G01 X44.5206 Y8.1750
G01 X44.6064 Y8.1004
G01 X44.7136 Y8.0288
G01 X44.8288 Y7.9716
G01 X44.9508 Y7.9302
G01 X45.0771 Y7.9053
G01 X45.2054 Y7.8970
G01 X45.3342 Y7.9053
G01 X45.4604 Y7.9302
G01 X45.5820 Y7.9716
G01 X45.6978 Y8.0288
G01 X45.8048 Y8.1003
G01 X45.9016 Y8.1851
G01 X45.9864 Y8.2819
G01 X46.0579 Y8.3889
G01 X46.1146 Y8.5041
G01 X46.1561 Y8.6265
G01 X46.1815 Y8.7528
G01 X46.1898 Y8.8809
G01 X46.1815 Y9.0095
G01 X46.1561 Y9.1357
G01 X46.1146 Y9.2576
G01 X46.0578 Y9.3734
G01 X45.9864 Y9.4803
G01 X45.9016 Y9.5771
G01 X45.8048 Y9.6619
G01 X45.6979 Y9.7333
G01 X45.5821 Y9.7900
G01 X45.4602 Y9.8316
G01 X45.3340 Y9.8569
G01 X45.2054 Y9.8652
G01 X45.0773 Y9.8569
G01 X44.9510 Y9.8316
G01 X44.8287 Y9.7900
G01 X44.7134 Y9.7333
G01 X44.6065 Y9.6619
G01 X44.5207 Y9.5868
G01 X44.5126 Y9.5810
G01 X44.4774 Y9.5597
G01 X44.4710 Y9.5563
G01 X44.4643 Y9.5534
G01 X44.4574 Y9.5510
G01 X44.4504 Y9.5490
G01 X44.4070 Y9.5410
G01 X44.3993 Y9.5401
G01 X44.3916 Y9.5398
G01 X30.7047 Y9.5398
G01 X30.6951 Y9.5405
G01 X30.6880 Y9.5416
G01 X30.6489 Y9.5493
G01 X30.6369 Y9.5527
G01 X30.6299 Y9.5555
G01 X30.6210 Y9.5600
G01 X30.5868 Y9.5806
G01 X30.5787 Y9.5861
G01 X30.5729 Y9.5907
G01 X30.4763 Y9.6789
G01 X30.3707 Y9.7527
G01 X30.2561 Y9.8123
G01 X30.1345 Y9.8572
G01 X30.0084 Y9.8858
G01 X29.8799 Y9.8983
G01 X29.7505 Y9.8941
G01 X29.6231 Y9.8734
G01 X29.4991 Y9.8364
G01 X29.3808 Y9.7841
G01 X29.2703 Y9.7171
G01 X29.1692 Y9.6367
G01 X29.0796 Y9.5439
G01 X29.0023 Y9.4403
G01 X28.9385 Y9.3275
G01 X28.8901 Y9.2079
G01 X28.8573 Y9.0828
G01 X28.8411 Y8.9548
G01 X28.8411 Y8.8252
G01 X28.8573 Y8.6972
G01 X28.8901 Y8.5721
G01 X28.9385 Y8.4525
G01 X29.0023 Y8.3397
G01 X29.0796 Y8.2361
G01 X29.1316 Y8.1822
G01 X29.1378 Y8.1752
G01 X29.1432 Y8.1676
G01 X29.1683 Y8.1289
G01 X29.1716 Y8.1225
G01 X29.1744 Y8.1159
G01 X29.1767 Y8.1091
G01 X29.1785 Y8.1022
G01 X29.1871 Y8.0593
G01 X29.1881 Y8.0520
G01 X29.1886 Y8.0421
G01 X29.1884 Y3.3486
G01 X29.1874 Y3.3384
G01 X29.1794 Y3.2950
G01 X29.1774 Y3.2880
G01 X29.1750 Y3.2811
G01 X29.1721 Y3.2744
G01 X29.1687 Y3.2680
G01 X29.1474 Y3.2328
G01 X29.1417 Y3.2248
G01 X29.0670 Y3.1389
G01 X28.9950 Y3.0318
G01 X28.9384 Y2.9167
G01 X28.8969 Y2.7945
G01 X28.8719 Y2.6686
G01 X28.8632 Y2.5400
G01 X28.8719 Y2.4114
G01 X28.8969 Y2.2855
G01 X28.9384 Y2.1633
G01 X28.9950 Y2.0482
G01 X29.0669 Y1.9412
G01 X29.1518 Y1.8443
G01 X29.2487 Y1.7594
G01 X29.3557 Y1.6874
G01 X29.4708 Y1.6308
G01 X29.5930 Y1.5893
G01 X29.7190 Y1.5644
G01 X29.8475 Y1.5557
G00 Z2.0000
G00 X29.2473 Y8.1537
G01 F60.00
G01 Z0.0000
G01 F300.00
G01 X29.2473 Y3.2437
G01 X29.1931 Y3.1944
G01 X29.1353 Y3.1308
G01 X29.1291 Y3.1233
G01 X29.0808 Y3.0582
G01 X29.0754 Y3.0500
G01 X29.0313 Y2.9763
G01 X28.9925 Y2.8942
G01 X28.9634 Y2.8133
G01 X28.9606 Y2.8039
G01 X28.9398 Y2.7206
G01 X28.9271 Y2.6356
G01 X28.9261 Y2.6258
G01 X28.9220 Y2.5400
G01 X28.9265 Y2.4493
G01 X28.9398 Y2.3594
G01 X28.9619 Y2.2713
G01 X28.9925 Y2.1858
G01 X29.0313 Y2.1037
G01 X29.0780 Y2.0258
G01 X29.1321 Y1.9529
G01 X29.1931 Y1.8856
G01 X29.2567 Y1.8278
G01 X29.2643 Y1.8216
G01 X29.3293 Y1.7733
G01 X29.3375 Y1.7678
G01 X29.4113 Y1.7238
G01 X29.4889 Y1.6869
G01 X29.4979 Y1.6832
G01 X29.5789 Y1.6544
G01 X29.6670 Y1.6323
G01 X29.7568 Y1.6190
G01 X29.8426 Y1.6146
G01 X29.8524 Y1.6146
G01 X29.9382 Y1.6190
G01 X30.0281 Y1.6323
G01 X30.1162 Y1.6544
G01 X30.2017 Y1.6849
G01 X30.2838 Y1.7238
G01 X30.3617 Y1.7705
G01 X30.4347 Y1.8246
G01 X30.4984 Y1.8822
G01 X30.5053 Y1.8891
G01 X30.5630 Y1.9529
G01 X30.6142 Y2.0218
G01 X30.6197 Y2.0300
G01 X30.6613 Y2.0995
G01 X30.6660 Y2.1081
G01 X30.7026 Y2.1858
G01 X30.7332 Y2.2713
G01 X30.7552 Y2.3594
G01 X30.7686 Y2.4493
G01 X30.7729 Y2.5351
G01 X30.7729 Y2.5449
G01 X30.7686 Y2.6307
G01 X30.7561 Y2.7157
G01 X30.7542 Y2.7253
G01 X30.7332 Y2.8087
G01 X30.7026 Y2.8942
G01 X30.6637 Y2.9763
G01 X30.6197 Y3.0500
G01 X30.6142 Y3.0582
G01 X30.5660 Y3.1233
G01 X30.5597 Y3.1308
G01 X30.5020 Y3.1944
G01 X30.4478 Y3.2437
G01 X30.4478 Y8.1537
G01 X30.4539 Y8.1588
G01 X30.5193 Y8.2182
G01 X30.5760 Y8.2806
G01 X44.5019 Y8.2806
G01 X44.5511 Y8.2266
G01 X44.6147 Y8.1688
G01 X44.6223 Y8.1625
G01 X44.6873 Y8.1143
G01 X44.6955 Y8.1088
G01 X44.7692 Y8.0648
G01 X44.8469 Y8.0279
G01 X44.8559 Y8.0242
G01 X44.9369 Y7.9953
G01 X45.0250 Y7.9733
G01 X45.1148 Y7.9599
G01 X45.2006 Y7.9556
G01 X45.2104 Y7.9556
G01 X45.2962 Y7.9599
G01 X45.3861 Y7.9733
G01 X45.4742 Y7.9953
G01 X45.5597 Y8.0259
G01 X45.6418 Y8.0648
G01 X45.7197 Y8.1115
G01 X45.7927 Y8.1656
G01 X45.8599 Y8.2266
G01 X45.9209 Y8.2938
G01 X45.9750 Y8.3668
G01 X46.0217 Y8.4447
G01 X46.0606 Y8.5268
G01 X46.0912 Y8.6123
G01 X46.1132 Y8.7004
G01 X46.1266 Y8.7903
G01 X46.1309 Y8.8761
G01 X46.1309 Y8.8859
G01 X46.1266 Y8.9717
G01 X46.1132 Y9.0615
G01 X46.0912 Y9.1496
G01 X46.0606 Y9.2352
G01 X46.0217 Y9.3173
G01 X45.9750 Y9.3952
G01 X45.9209 Y9.4681
G01 X45.8633 Y9.5319
G01 X45.8564 Y9.5388
G01 X45.7927 Y9.5964
G01 X45.7197 Y9.6505
G01 X45.6418 Y9.6972
G01 X45.5642 Y9.7340
G01 X45.5551 Y9.7378
G01 X45.4742 Y9.7666
G01 X45.3909 Y9.7876
G01 X45.3812 Y9.7895
G01 X45.3011 Y9.8014
G01 X45.2913 Y9.8024
G01 X45.2055 Y9.8065
G01 X45.1197 Y9.8024
G01 X45.1099 Y9.8014
G01 X45.0298 Y9.7895
G01 X45.0202 Y9.7876
G01 X44.9369 Y9.7666
G01 X44.8513 Y9.7360
G01 X44.7692 Y9.6972
G01 X44.6955 Y9.6531
G01 X44.6873 Y9.6477
G01 X44.6223 Y9.5994
G01 X44.6147 Y9.5932
G01 X44.5511 Y9.5354
G01 X44.5017 Y9.4811
G01 X30.5906 Y9.4811
G01 X30.5834 Y9.4908
G01 X30.5787 Y9.4964
G01 X30.5193 Y9.5618
G01 X30.4502 Y9.6244
G01 X30.3753 Y9.6799
G01 X30.2996 Y9.7254
G01 X30.2910 Y9.7300
G01 X30.2111 Y9.7677
G01 X30.1280 Y9.7976
G01 X30.1186 Y9.8004
G01 X30.0377 Y9.8207
G01 X30.0280 Y9.8226
G01 X29.9406 Y9.8354
G01 X29.8524 Y9.8399
G01 X29.8426 Y9.8399
G01 X29.7544 Y9.8354
G01 X29.6670 Y9.8226
G01 X29.6574 Y9.8207
G01 X29.5718 Y9.7991
G01 X29.4840 Y9.7677
G01 X29.4041 Y9.7300
G01 X29.3954 Y9.7254
G01 X29.3239 Y9.6825
G01 X29.3157 Y9.6771
G01 X29.2449 Y9.6244
G01 X29.1758 Y9.5618
G01 X29.1132 Y9.4927
G01 X29.0605 Y9.4218
G01 X29.0550 Y9.4136
G01 X29.0121 Y9.3421
G01 X29.0075 Y9.3334
G01 X28.9698 Y9.2535
G01 X28.9400 Y9.1704
G01 X28.9371 Y9.1610
G01 X28.9169 Y9.0801
G01 X28.9149 Y9.0705
G01 X28.9021 Y8.9831
G01 X28.8975 Y8.8900
G01 X28.9017 Y8.8018
G01 X28.9027 Y8.7920
G01 X28.9158 Y8.7047
G01 X28.9384 Y8.6142
G01 X28.9698 Y8.5265
G01 X29.0075 Y8.4466
G01 X29.0121 Y8.4379
G01 X29.0576 Y8.3622
G01 X29.1132 Y8.2873
G01 X29.1724 Y8.2218
G01 X29.1793 Y8.2149
G01 X29.2411 Y8.1588
G01 X29.2473 Y8.1537
G00 Z2.0000
G00 X44.5652 Y11.1459
G01 F60.00
G01 Z0.0000
G01 F300.00
G01 X44.6123 Y11.1518
G01 X44.6450 Y11.1641
G01 X44.6788 Y11.1875
G01 X44.6950 Y11.2038
G01 X44.7184 Y11.2375
G01 X44.7307 Y11.2702
G01 X44.7366 Y11.3173
G01 X44.7366 Y43.2957
G01 X44.7282 Y43.3494
G01 X44.7131 Y43.3829
G01 X44.6977 Y43.4039
G01 X44.6791 Y43.4222
G01 X44.6450 Y43.4459
G01 X44.6123 Y43.4582
G01 X44.5652 Y43.4640
G01 X12.5869 Y43.4640
G01 X12.5331 Y43.4556
G01 X12.4996 Y43.4406
G01 X12.4786 Y43.4252
G01 X12.4603 Y43.4066
G01 X12.4367 Y43.3725
G01 X12.4244 Y43.3398
G01 X12.4185 Y43.2926
G01 X12.4185 Y11.3143
G01 X12.4269 Y11.2606
G01 X12.4420 Y11.2271
G01 X12.4574 Y11.2061
G01 X12.4760 Y11.1878
G01 X12.5101 Y11.1641
G01 X12.5428 Y11.1518
G01 X12.5899 Y11.1459
G01 X44.5652 Y11.1459
G00 Z2.0000
G00 X46.4012 Y11.3806
G01 F60.00
G01 Z0.0000
G01 F300.00
G01 X46.3471 Y11.3314
G01 X46.2861 Y11.2641
G01 X46.2320 Y11.1912
G01 X46.1853 Y11.1133
G01 X46.1465 Y11.0312
G01 X46.1159 Y10.9457
G01 X46.0938 Y10.8576
G01 X46.0805 Y10.7677
G01 X46.0761 Y10.6770
G01 X46.0805 Y10.5863
G01 X46.0938 Y10.4965
G01 X46.1159 Y10.4084
G01 X46.1465 Y10.3228
G01 X46.1853 Y10.2407
G01 X46.2320 Y10.1628
G01 X46.2861 Y10.0899
G01 X46.3471 Y10.0226
G01 X46.4144 Y9.9616
G01 X46.4874 Y9.9075
G01 X46.5653 Y9.8608
G01 X46.6474 Y9.8220
G01 X46.7329 Y9.7914
G01 X46.8210 Y9.7693
G01 X46.9108 Y9.7560
G01 X47.0015 Y9.7515
G01 X47.0923 Y9.7560
G01 X47.1821 Y9.7693
G01 X47.2702 Y9.7914
G01 X47.3557 Y9.8220
G01 X47.4378 Y9.8608
G01 X47.5157 Y9.9075
G01 X47.5887 Y9.9616
G01 X47.6560 Y10.0226
G01 X47.7138 Y10.0862
G01 X47.7200 Y10.0937
G01 X47.7682 Y10.1588
G01 X47.7737 Y10.1670
G01 X47.8178 Y10.2407
G01 X47.8546 Y10.3183
G01 X47.8584 Y10.3274
G01 X47.8872 Y10.4084
G01 X47.9093 Y10.4965
G01 X47.9226 Y10.5863
G01 X47.9270 Y10.6770
G01 X47.9226 Y10.7677
G01 X47.9093 Y10.8576
G01 X47.8872 Y10.9457
G01 X47.8584 Y11.0266
G01 X47.8546 Y11.0357
G01 X47.8178 Y11.1133
G01 X47.7737 Y11.1870
G01 X47.7682 Y11.1952
G01 X47.7200 Y11.2603
G01 X47.7138 Y11.2679
G01 X47.6560 Y11.3314
G01 X47.6017 Y11.3808
G01 X47.6017 Y19.4453
G01 X53.2694 Y25.1130
G01 X53.3425 Y25.1095
G01 X53.4283 Y25.1136
G01 X53.4381 Y25.1146
G01 X53.5183 Y25.1264
G01 X53.5279 Y25.1284
G01 X53.6112 Y25.1494
G01 X53.6967 Y25.1799
G01 X53.7788 Y25.2188
G01 X53.8526 Y25.2628
G01 X53.8607 Y25.2683
G01 X53.9297 Y25.3196
G01 X53.9934 Y25.3772
G01 X54.0003 Y25.3841
G01 X54.0580 Y25.4479
G01 X54.1121 Y25.5208
G01 X54.1563 Y25.5945
G01 X54.1610 Y25.6031
G01 X54.1956 Y25.6763
G01 X54.1993 Y25.6854
G01 X54.2282 Y25.7663
G01 X54.2492 Y25.8497
G01 X54.2511 Y25.8593
G01 X54.2636 Y25.9443
G01 X54.2680 Y26.0350
G01 X54.2636 Y26.1257
G01 X54.2502 Y26.2156
G01 X54.2282 Y26.3037
G01 X54.1993 Y26.3846
G01 X54.1956 Y26.3937
G01 X54.1587 Y26.4713
G01 X54.1147 Y26.5450
G01 X54.1092 Y26.5532
G01 X54.0610 Y26.6183
G01 X54.0547 Y26.6258
G01 X53.9970 Y26.6894
G01 X53.9297 Y26.7504
G01 X53.8567 Y26.8045
G01 X53.7831 Y26.8488
G01 X53.7744 Y26.8534
G01 X53.6967 Y26.8901
G01 X53.6158 Y26.9191
G01 X53.6065 Y26.9220
G01 X53.5279 Y26.9416
G01 X53.5183 Y26.9436
G01 X53.4332 Y26.9560
G01 X53.3425 Y26.9605
G01 X53.2518 Y26.9560
G01 X53.1668 Y26.9436
G01 X53.1572 Y26.9416
G01 X53.0786 Y26.9220
G01 X53.0692 Y26.9191
G01 X52.9884 Y26.8901
G01 X52.9063 Y26.8512
G01 X52.8325 Y26.8072
G01 X52.8243 Y26.8017
G01 X52.7554 Y26.7504
G01 X52.6899 Y26.6911
G01 X52.6847 Y26.6859
G01 X52.6271 Y26.6221
G01 X52.5730 Y26.5492
G01 X52.5263 Y26.4713
G01 X52.4895 Y26.3937
G01 X52.4857 Y26.3846
G01 X52.4569 Y26.3037
G01 X52.4359 Y26.2203
G01 X52.4340 Y26.2107
G01 X52.4221 Y26.1306
G01 X52.4211 Y26.1208
G01 X52.4170 Y26.0350
G01 X52.4205 Y25.9618
G01 X46.5770 Y20.1184
G01 X46.5375 Y20.0747
G01 X46.5052 Y20.0314
G01 X46.4997 Y20.0232
G01 X46.4745 Y19.9811
G01 X46.4699 Y19.9725
G01 X46.4489 Y19.9281
G01 X46.4451 Y19.9190
G01 X46.4270 Y19.8682
G01 X46.4138 Y19.8158
G01 X46.4119 Y19.8062
G01 X46.4041 Y19.7527
G01 X46.4012 Y19.6939
G01 X46.4012 Y11.3806
G00 Z2.0000
G00 X47.0017 Y9.6928
G01 F60.00
G01 Z0.0000
G01 F300.00
G01 X47.1298 Y9.7011
G01 X47.2561 Y9.7264
G01 X47.3784 Y9.7680
G01 X47.4936 Y9.8247
G01 X47.6006 Y9.8961
G01 X47.6974 Y9.9809
G01 X47.7822 Y10.0777
G01 X47.8537 Y10.1847
G01 X47.9109 Y10.3005
G01 X47.9524 Y10.4221
G01 X47.9772 Y10.5484
G01 X47.9855 Y10.6771
G01 X47.9772 Y10.8054
G01 X47.9523 Y10.9317
G01 X47.9109 Y11.0537
G01 X47.8537 Y11.1690
G01 X47.7822 Y11.2760
G01 X47.7088 Y11.3597
G01 X47.7045 Y11.3653
G01 X47.6994 Y11.3731
G01 X47.6799 Y11.4062
G01 X47.6764 Y11.4130
G01 X47.6727 Y11.4223
G01 X47.6693 Y11.4344
G01 X47.6623 Y11.4730
G01 X47.6612 Y11.4806
G01 X47.6607 Y11.4884
G01 X47.6606 Y19.3375
G01 X47.6611 Y19.3472
G01 X47.6625 Y19.3569
G01 X47.6706 Y19.3979
G01 X47.6725 Y19.4049
G01 X47.6748 Y19.4118
G01 X47.6788 Y19.4208
G01 X47.6848 Y19.4313
G01 X47.7081 Y19.4664
G01 X47.7126 Y19.4724
G01 X47.7194 Y19.4799
G01 X53.2349 Y24.9953
G01 X53.2402 Y25.0001
G01 X53.2478 Y25.0057
G01 X53.2798 Y25.0274
G01 X53.2904 Y25.0333
G01 X53.2971 Y25.0363
G01 X53.3063 Y25.0394
G01 X53.3460 Y25.0498
G01 X53.3553 Y25.0515
G01 X53.3624 Y25.0522
G01 X53.4712 Y25.0594
G01 X53.5971 Y25.0843
G01 X53.7193 Y25.1258
G01 X53.8344 Y25.1825
G01 X53.9413 Y25.2544
G01 X54.0382 Y25.3393
G01 X54.1232 Y25.4362
G01 X54.1951 Y25.5432
G01 X54.2517 Y25.6583
G01 X54.2932 Y25.7805
G01 X54.3181 Y25.9064
G01 X54.3269 Y26.0350
G01 X54.3181 Y26.1636
G01 X54.2932 Y26.2895
G01 X54.2517 Y26.4117
G01 X54.1951 Y26.5268
G01 X54.1232 Y26.6338
G01 X54.0382 Y26.7307
G01 X53.9413 Y26.8156
G01 X53.8344 Y26.8875
G01 X53.7193 Y26.9442
G01 X53.5971 Y26.9857
G01 X53.4711 Y27.0106
G01 X53.3425 Y27.0193
G01 X53.2140 Y27.0106
G01 X53.0880 Y26.9857
G01 X52.9658 Y26.9442
G01 X52.8507 Y26.8875
G01 X52.7437 Y26.8156
G01 X52.6468 Y26.7307
G01 X52.5619 Y26.6338
G01 X52.4900 Y26.5268
G01 X52.4334 Y26.4117
G01 X52.3919 Y26.2895
G01 X52.3670 Y26.1637
G01 X52.3593 Y26.0501
G01 X52.3573 Y26.0384
G01 X52.3476 Y26.0011
G01 X52.3455 Y25.9941
G01 X52.3429 Y25.9873
G01 X52.3398 Y25.9807
G01 X52.3362 Y25.9743
G01 X52.3119 Y25.9383
G01 X52.3045 Y25.9291
G01 X46.5204 Y20.1444
G01 X46.4691 Y20.0825
G01 X46.4592 Y20.0684
G01 X46.4171 Y19.9981
G01 X46.4093 Y19.9829
G01 X46.3781 Y19.9076
G01 X46.3729 Y19.8918
G01 X46.3534 Y19.8131
G01 X46.3506 Y19.7958
G01 X46.3427 Y19.7157
G01 X46.3422 Y11.4878
G01 X46.3410 Y11.4748
G01 X46.3329 Y11.4317
G01 X46.3309 Y11.4245
G01 X46.3284 Y11.4175
G01 X46.3253 Y11.4107
G01 X46.3217 Y11.4041
G01 X46.3022 Y11.3711
G01 X46.2955 Y11.3615
G01 X46.2206 Y11.2760
G01 X46.1492 Y11.1691
G01 X46.0925 Y11.0539
G01 X46.0510 Y10.9315
G01 X46.0256 Y10.8052
G01 X46.0173 Y10.6771
G01 X46.0256 Y10.5485
G01 X46.0509 Y10.4223
G01 X46.0925 Y10.3004
G01 X46.1492 Y10.1846
G01 X46.2207 Y10.0777
G01 X46.3055 Y9.9809
G01 X46.4023 Y9.8961
G01 X46.5091 Y9.8247
G01 X46.6249 Y9.7680
G01 X46.7468 Y9.7264
G01 X46.8731 Y9.7011
G01 X47.0017 Y9.6928
G00 Z2.0000
G00 X53.3425 Y27.5907
G01 F60.00
G01 Z0.0000
G01 F300.00
G01 X53.4711 Y27.5994
G01 X53.5971 Y27.6243
G01 X53.7193 Y27.6658
G01 X53.8344 Y27.7225
G01 X53.9413 Y27.7944
G01 X54.0382 Y27.8793
G01 X54.1232 Y27.9762
G01 X54.1951 Y28.0832
G01 X54.2517 Y28.1983
G01 X54.2932 Y28.3205
G01 X54.3181 Y28.4464
G01 X54.3269 Y28.5750
G01 X54.3181 Y28.7036
G01 X54.2932 Y28.8295
G01 X54.2517 Y28.9517
G01 X54.1951 Y29.0668
G01 X54.1232 Y29.1738
G01 X54.0382 Y29.2707
G01 X53.9413 Y29.3556
G01 X53.8344 Y29.4275
G01 X53.7193 Y29.4842
G01 X53.5971 Y29.5257
G01 X53.4712 Y29.5506
G01 X53.3624 Y29.5578
G01 X53.3553 Y29.5585
G01 X53.3460 Y29.5602
G01 X53.3063 Y29.5706
G01 X53.2971 Y29.5737
G01 X53.2904 Y29.5766
G01 X53.2798 Y29.5826
G01 X53.2478 Y29.6042
G01 X53.2402 Y29.6099
G01 X53.2349 Y29.6146
G01 X47.7194 Y35.1301
G01 X47.7126 Y35.1376
G01 X47.7081 Y35.1436
G01 X47.6848 Y35.1787
G01 X47.6799 Y35.1871
G01 X47.6748 Y35.1981
G01 X47.6725 Y35.2051
G01 X47.6706 Y35.2121
G01 X47.6625 Y35.2531
G01 X47.6611 Y35.2627
G01 X47.6606 Y35.2725
G01 X47.6607 Y43.1216
G01 X47.6612 Y43.1294
G01 X47.6623 Y43.1370
G01 X47.6693 Y43.1756
G01 X47.6727 Y43.1877
G01 X47.6754 Y43.1947
G01 X47.6799 Y43.2037
G01 X47.6994 Y43.2369
G01 X47.7045 Y43.2447
G01 X47.7088 Y43.2503
G01 X47.7822 Y43.3340
G01 X47.8537 Y43.4410
G01 X47.9109 Y43.5563
G01 X47.9523 Y43.6783
G01 X47.9772 Y43.8046
G01 X47.9855 Y43.9329
G01 X47.9772 Y44.0616
G01 X47.9524 Y44.1879
G01 X47.9109 Y44.3094
G01 X47.8537 Y44.4253
G01 X47.7822 Y44.5323
G01 X47.6974 Y44.6291
G01 X47.6006 Y44.7139
G01 X47.4936 Y44.7853
G01 X47.3784 Y44.8420
G01 X47.2561 Y44.8836
G01 X47.1298 Y44.9089
G01 X47.0017 Y44.9172
G01 X46.8731 Y44.9089
G01 X46.7468 Y44.8836
G01 X46.6249 Y44.8420
G01 X46.5091 Y44.7853
G01 X46.4023 Y44.7139
G01 X46.3055 Y44.6291
G01 X46.2206 Y44.5323
G01 X46.1492 Y44.4254
G01 X46.0925 Y44.3096
G01 X46.0509 Y44.1877
G01 X46.0256 Y44.0615
G01 X46.0173 Y43.9329
G01 X46.0256 Y43.8048
G01 X46.0509 Y43.6785
G01 X46.0925 Y43.5561
G01 X46.1492 Y43.4409
G01 X46.2206 Y43.3340
G01 X46.2955 Y43.2484
G01 X46.3022 Y43.2389
G01 X46.3217 Y43.2059
G01 X46.3253 Y43.1993
G01 X46.3284 Y43.1925
G01 X46.3309 Y43.1855
G01 X46.3329 Y43.1783
G01 X46.3410 Y43.1352
G01 X46.3422 Y43.1222
G01 X46.3427 Y34.8943
G01 X46.3506 Y34.8141
G01 X46.3534 Y34.7970
G01 X46.3729 Y34.7184
G01 X46.3783 Y34.7021
G01 X46.4093 Y34.6271
G01 X46.4171 Y34.6118
G01 X46.4592 Y34.5416
G01 X46.4690 Y34.5276
G01 X46.5203 Y34.4663
G01 X52.3045 Y28.6809
G01 X52.3119 Y28.6717
G01 X52.3362 Y28.6357
G01 X52.3398 Y28.6293
G01 X52.3429 Y28.6227
G01 X52.3455 Y28.6159
G01 X52.3476 Y28.6089
G01 X52.3573 Y28.5715
G01 X52.3593 Y28.5599
G01 X52.3670 Y28.4463
G01 X52.3919 Y28.3205
G01 X52.4334 Y28.1983
G01 X52.4900 Y28.0832
G01 X52.5619 Y27.9762
G01 X52.6468 Y27.8793
G01 X52.7437 Y27.7944
G01 X52.8507 Y27.7224
G01 X52.9658 Y27.6658
G01 X53.0880 Y27.6243
G01 X53.2140 Y27.5994
G01 X53.3425 Y27.5907
G00 Z2.0000
G00 X46.4012 Y43.2294
G01 F60.00
G01 Z0.0000
G01 F300.00
G01 X46.4012 Y34.9161
G01 X46.4041 Y34.8573
G01 X46.4119 Y34.8039
G01 X46.4138 Y34.7942
G01 X46.4270 Y34.7419
G01 X46.4451 Y34.6910
G01 X46.4489 Y34.6819
G01 X46.4699 Y34.6376
G01 X46.4745 Y34.6289
G01 X46.4997 Y34.5868
G01 X46.5052 Y34.5786
G01 X46.5375 Y34.5353
G01 X46.5770 Y34.4917
G01 X52.4205 Y28.6482
G01 X52.4170 Y28.5750
G01 X52.4211 Y28.4892
G01 X52.4221 Y28.4794
G01 X52.4340 Y28.3993
G01 X52.4359 Y28.3897
G01 X52.4569 Y28.3063
G01 X52.4857 Y28.2254
G01 X52.4895 Y28.2163
G01 X52.5263 Y28.1387
G01 X52.5730 Y28.0608
G01 X52.6271 Y27.9879
G01 X52.6847 Y27.9241
G01 X52.6899 Y27.9189
G01 X52.7554 Y27.8596
G01 X52.8243 Y27.8083
G01 X52.8325 Y27.8028
G01 X52.9063 Y27.7588
G01 X52.9884 Y27.7199
G01 X53.0692 Y27.6909
G01 X53.0786 Y27.6880
G01 X53.1572 Y27.6684
G01 X53.1668 Y27.6664
G01 X53.2518 Y27.6540
G01 X53.3425 Y27.6495
G01 X53.4332 Y27.6540
G01 X53.5183 Y27.6664
G01 X53.5279 Y27.6684
G01 X53.6065 Y27.6880
G01 X53.6158 Y27.6909
G01 X53.6967 Y27.7199
G01 X53.7744 Y27.7566
G01 X53.7831 Y27.7612
G01 X53.8567 Y27.8055
G01 X53.9297 Y27.8596
G01 X53.9970 Y27.9206
G01 X54.0547 Y27.9842
G01 X54.0610 Y27.9917
G01 X54.1092 Y28.0568
G01 X54.1147 Y28.0650
G01 X54.1587 Y28.1387
G01 X54.1956 Y28.2163
G01 X54.1993 Y28.2254
G01 X54.2282 Y28.3063
G01 X54.2502 Y28.3944
G01 X54.2636 Y28.4843
G01 X54.2680 Y28.5750
G01 X54.2636 Y28.6657
G01 X54.2511 Y28.7507
G01 X54.2492 Y28.7603
G01 X54.2282 Y28.8437
G01 X54.1993 Y28.9246
G01 X54.1956 Y28.9337
G01 X54.1610 Y29.0069
G01 X54.1563 Y29.0155
G01 X54.1121 Y29.0892
G01 X54.0580 Y29.1621
G01 X54.0003 Y29.2259
G01 X53.9934 Y29.2328
G01 X53.9297 Y29.2904
G01 X53.8607 Y29.3417
G01 X53.8526 Y29.3472
G01 X53.7788 Y29.3912
G01 X53.6967 Y29.4301
G01 X53.6112 Y29.4606
G01 X53.5279 Y29.4816
G01 X53.5183 Y29.4836
G01 X53.4381 Y29.4954
G01 X53.4283 Y29.4964
G01 X53.3425 Y29.5005
G01 X53.2694 Y29.4970
G01 X47.6017 Y35.1648
G01 X47.6017 Y43.2292
G01 X47.6560 Y43.2786
G01 X47.7138 Y43.3421
G01 X47.7200 Y43.3497
G01 X47.7682 Y43.4148
G01 X47.7737 Y43.4229
G01 X47.8178 Y43.4967
G01 X47.8546 Y43.5743
G01 X47.8584 Y43.5834
G01 X47.8872 Y43.6643
G01 X47.9093 Y43.7524
G01 X47.9226 Y43.8423
G01 X47.9270 Y43.9330
G01 X47.9226 Y44.0237
G01 X47.9093 Y44.1135
G01 X47.8872 Y44.2016
G01 X47.8584 Y44.2826
G01 X47.8546 Y44.2916
G01 X47.8178 Y44.3693
G01 X47.7737 Y44.4430
G01 X47.7682 Y44.4512
G01 X47.7200 Y44.5162
G01 X47.7138 Y44.5238
G01 X47.6560 Y44.5874
G01 X47.5887 Y44.6484
G01 X47.5157 Y44.7025
G01 X47.4378 Y44.7492
G01 X47.3557 Y44.7880
G01 X47.2702 Y44.8186
G01 X47.1821 Y44.8407
G01 X47.0923 Y44.8540
G01 X47.0016 Y44.8585
G01 X46.9108 Y44.8540
G01 X46.8210 Y44.8407
G01 X46.7329 Y44.8186
G01 X46.6474 Y44.7880
G01 X46.5653 Y44.7492
G01 X46.4874 Y44.7025
G01 X46.4144 Y44.6484
G01 X46.3471 Y44.5874
G01 X46.2861 Y44.5201
G01 X46.2320 Y44.4472
G01 X46.1853 Y44.3693
G01 X46.1465 Y44.2872
G01 X46.1159 Y44.2016
G01 X46.0938 Y44.1135
G01 X46.0805 Y44.0237
G01 X46.0761 Y43.9330
G01 X46.0805 Y43.8423
G01 X46.0938 Y43.7524
G01 X46.1159 Y43.6643
G01 X46.1465 Y43.5788
G01 X46.1853 Y43.4967
G01 X46.2320 Y43.4188
G01 X46.2861 Y43.3458
G01 X46.3471 Y43.2786
G01 X46.4012 Y43.2294
G00 Z2.0000
G00 X45.2054 Y44.7448
G01 F60.00
G01 Z0.0000
G01 F300.00
G01 X45.3340 Y44.7531
G01 X45.4602 Y44.7784
G01 X45.5821 Y44.8200
G01 X45.6979 Y44.8767
G01 X45.8048 Y44.9481
G01 X45.9016 Y45.0329
G01 X45.9864 Y45.1297
G01 X46.0578 Y45.2366
G01 X46.1146 Y45.3524
G01 X46.1561 Y45.4743
G01 X46.1815 Y45.6005
G01 X46.1898 Y45.7291
G01 X46.1815 Y45.8572
G01 X46.1561 Y45.9835
G01 X46.1146 Y46.1059
G01 X46.0579 Y46.2211
G01 X45.9864 Y46.3280
G01 X45.9016 Y46.4248
G01 X45.8048 Y46.5097
G01 X45.6978 Y46.5812
G01 X45.5820 Y46.6384
G01 X45.4604 Y46.6798
G01 X45.3342 Y46.7047
G01 X45.2054 Y46.7130
G01 X45.0771 Y46.7047
G01 X44.9508 Y46.6798
G01 X44.8288 Y46.6384
G01 X44.7136 Y46.5812
G01 X44.6065 Y46.5097
G01 X44.5228 Y46.4363
G01 X44.5173 Y46.4320
G01 X44.5094 Y46.4268
G01 X44.4763 Y46.4073
G01 X44.4673 Y46.4029
G01 X44.4602 Y46.4002
G01 X44.4481 Y46.3968
G01 X44.4096 Y46.3897
G01 X44.4019 Y46.3886
G01 X44.3942 Y46.3881
G01 X36.5450 Y46.3881
G01 X36.5377 Y46.3884
G01 X36.5280 Y46.3895
G01 X36.4847 Y46.3981
G01 X36.4730 Y46.4015
G01 X36.4639 Y46.4052
G01 X36.4533 Y46.4110
G01 X36.4161 Y46.4356
G01 X36.4101 Y46.4401
G01 X36.4027 Y46.4468
G01 X30.8872 Y51.9624
G01 X30.8810 Y51.9695
G01 X30.8768 Y51.9753
G01 X30.8551 Y52.0073
G01 X30.8492 Y52.0179
G01 X30.8463 Y52.0246
G01 X30.8431 Y52.0338
G01 X30.8328 Y52.0734
G01 X30.8310 Y52.0828
G01 X30.8303 Y52.0898
G01 X30.8231 Y52.1987
G01 X30.7982 Y52.3245
G01 X30.7567 Y52.4467
G01 X30.7001 Y52.5618
G01 X30.6282 Y52.6688
G01 X30.5432 Y52.7657
G01 X30.4463 Y52.8506
G01 X30.3394 Y52.9225
G01 X30.2243 Y52.9792
G01 X30.1021 Y53.0207
G01 X29.9761 Y53.0456
G01 X29.8475 Y53.0543
G01 X29.7190 Y53.0456
G01 X29.5930 Y53.0207
G01 X29.4708 Y52.9792
G01 X29.3557 Y52.9225
G01 X29.2487 Y52.8506
G01 X29.1518 Y52.7657
G01 X29.0669 Y52.6688
G01 X28.9950 Y52.5618
G01 X28.9384 Y52.4467
G01 X28.8969 Y52.3245
G01 X28.8719 Y52.1986
G01 X28.8632 Y52.0700
G01 X28.8719 Y51.9414
G01 X28.8969 Y51.8155
G01 X28.9384 Y51.6933
G01 X28.9950 Y51.5782
G01 X29.0669 Y51.4712
G01 X29.1518 Y51.3743
G01 X29.2487 Y51.2894
G01 X29.3557 Y51.2174
G01 X29.4708 Y51.1608
G01 X29.5930 Y51.1193
G01 X29.7189 Y51.0944
G01 X29.8324 Y51.0868
G01 X29.8441 Y51.0848
G01 X29.8814 Y51.0751
G01 X29.8884 Y51.0730
G01 X29.8952 Y51.0704
G01 X29.9018 Y51.0673
G01 X29.9082 Y51.0637
G01 X29.9442 Y51.0394
G01 X29.9534 Y51.0320
G01 X35.7388 Y45.2478
G01 X35.8002 Y45.1965
G01 X35.8141 Y45.1867
G01 X35.8844 Y45.1445
G01 X35.8996 Y45.1367
G01 X35.9746 Y45.1057
G01 X35.9909 Y45.1004
G01 X36.0695 Y45.0809
G01 X36.0867 Y45.0780
G01 X36.1668 Y45.0702
G01 X44.3973 Y45.0695
G01 X44.4077 Y45.0684
G01 X44.4508 Y45.0604
G01 X44.4580 Y45.0584
G01 X44.4650 Y45.0558
G01 X44.4719 Y45.0528
G01 X44.4785 Y45.0492
G01 X44.5115 Y45.0297
G01 X44.5210 Y45.0230
G01 X44.6065 Y44.9481
G01 X44.7134 Y44.8767
G01 X44.8287 Y44.8200
G01 X44.9510 Y44.7784
G01 X45.0773 Y44.7531
G01 X45.2054 Y44.7448
G00 Z2.0000
G00 X29.9207 Y51.1480
G01 F60.00
G01 Z0.0000
G01 F300.00
G01 X35.7642 Y45.3045
G01 X35.8079 Y45.2649
G01 X35.8512 Y45.2326
G01 X35.8593 Y45.2272
G01 X35.9014 Y45.2020
G01 X35.9101 Y45.1973
G01 X35.9590 Y45.1744
G01 X36.0098 Y45.1560
G01 X36.0192 Y45.1532
G01 X36.0668 Y45.1413
G01 X36.0764 Y45.1394
G01 X36.1298 Y45.1316
G01 X36.1887 Y45.1287
G01 X44.5019 Y45.1287
G01 X44.5511 Y45.0746
G01 X44.6147 Y45.0168
G01 X44.6223 Y45.0106
G01 X44.6873 Y44.9623
G01 X44.6955 Y44.9569
G01 X44.7692 Y44.9128
G01 X44.8469 Y44.8759
G01 X44.8559 Y44.8722
G01 X44.9369 Y44.8434
G01 X45.0250 Y44.8213
G01 X45.1148 Y44.8080
G01 X45.2006 Y44.8036
G01 X45.2080 Y44.8035
G01 X45.2962 Y44.8080
G01 X45.3812 Y44.8205
G01 X45.3909 Y44.8224
G01 X45.4742 Y44.8434
G01 X45.5597 Y44.8740
G01 X45.6374 Y44.9106
G01 X45.6461 Y44.9152
G01 X45.7156 Y44.9569
G01 X45.7237 Y44.9623
G01 X45.7927 Y45.0136
G01 X45.8599 Y45.0746
G01 X45.9209 Y45.1419
G01 X45.9722 Y45.2108
G01 X45.9777 Y45.2190
G01 X46.0193 Y45.2885
G01 X46.0239 Y45.2971
G01 X46.0606 Y45.3748
G01 X46.0896 Y45.4557
G01 X46.0925 Y45.4651
G01 X46.1132 Y45.5485
G01 X46.1266 Y45.6383
G01 X46.1310 Y45.7290
G01 X46.1269 Y45.8148
G01 X46.1260 Y45.8246
G01 X46.1141 Y45.9047
G01 X46.1122 Y45.9144
G01 X46.0912 Y45.9977
G01 X46.0623 Y46.0786
G01 X46.0586 Y46.0877
G01 X46.0217 Y46.1653
G01 X45.9750 Y46.2432
G01 X45.9209 Y46.3161
G01 X45.8599 Y46.3834
G01 X45.7927 Y46.4444
G01 X45.7237 Y46.4957
G01 X45.7156 Y46.5012
G01 X45.6418 Y46.5452
G01 X45.5642 Y46.5821
G01 X45.5551 Y46.5858
G01 X45.4788 Y46.6131
G01 X45.4694 Y46.6160
G01 X45.3861 Y46.6367
G01 X45.2962 Y46.6501
G01 X45.2104 Y46.6544
G01 X45.2006 Y46.6544
G01 X45.1148 Y46.6501
G01 X45.0298 Y46.6376
G01 X45.0202 Y46.6357
G01 X44.9369 Y46.6147
G01 X44.8513 Y46.5841
G01 X44.7692 Y46.5452
G01 X44.6955 Y46.5012
G01 X44.6873 Y46.4957
G01 X44.6223 Y46.4475
G01 X44.6147 Y46.4412
G01 X44.5511 Y46.3834
G01 X44.5017 Y46.3292
G01 X36.4373 Y46.3292
G01 X30.7696 Y51.9969
G01 X30.7730 Y52.0700
G01 X30.7689 Y52.1558
G01 X30.7680 Y52.1656
G01 X30.7561 Y52.2457
G01 X30.7542 Y52.2553
G01 X30.7332 Y52.3387
G01 X30.7043 Y52.4196
G01 X30.7006 Y52.4287
G01 X30.6637 Y52.5063
G01 X30.6171 Y52.5842
G01 X30.5630 Y52.6571
G01 X30.5020 Y52.7244
G01 X30.4347 Y52.7854
G01 X30.3617 Y52.8395
G01 X30.2838 Y52.8862
G01 X30.2062 Y52.9231
G01 X30.1971 Y52.9268
G01 X30.1162 Y52.9556
G01 X30.0329 Y52.9766
G01 X30.0233 Y52.9786
G01 X29.9431 Y52.9904
G01 X29.9333 Y52.9914
G01 X29.8475 Y52.9955
G01 X29.7568 Y52.9910
G01 X29.6670 Y52.9777
G01 X29.5789 Y52.9556
G01 X29.4934 Y52.9251
G01 X29.4113 Y52.8862
G01 X29.3333 Y52.8395
G01 X29.2604 Y52.7854
G01 X29.1931 Y52.7244
G01 X29.1321 Y52.6571
G01 X29.0780 Y52.5842
G01 X29.0313 Y52.5063
G01 X28.9925 Y52.4242
G01 X28.9619 Y52.3387
G01 X28.9398 Y52.2506
G01 X28.9265 Y52.1607
G01 X28.9220 Y52.0700
G01 X28.9265 Y51.9793
G01 X28.9398 Y51.8894
G01 X28.9619 Y51.8013
G01 X28.9925 Y51.7158
G01 X29.0313 Y51.6337
G01 X29.0780 Y51.5558
G01 X29.1321 Y51.4829
G01 X29.1931 Y51.4156
G01 X29.2604 Y51.3546
G01 X29.3333 Y51.3005
G01 X29.4113 Y51.2538
G01 X29.4934 Y51.2149
G01 X29.5789 Y51.1844
G01 X29.6670 Y51.1623
G01 X29.7568 Y51.1490
G01 X29.8475 Y51.1445
G01 X29.9207 Y51.1480
G00 Z2.0000
G00 X3.8857 Y29.4970
G01 F60.00
G01 Z0.0000
G01 F300.00
G01 X3.8125 Y29.5005
G01 X3.7218 Y29.4960
G01 X3.6320 Y29.4827
G01 X3.5439 Y29.4606
G01 X3.4584 Y29.4301
G01 X3.3763 Y29.3912
G01 X3.2983 Y29.3445
G01 X3.2254 Y29.2904
G01 X3.1581 Y29.2294
G01 X3.0971 Y29.1621
G01 X3.0430 Y29.0892
G01 X2.9963 Y29.0113
G01 X2.9575 Y28.9292
G01 X2.9269 Y28.8437
G01 X2.9048 Y28.7556
G01 X2.8915 Y28.6657
G01 X2.8870 Y28.5750
G01 X2.8915 Y28.4843
G01 X2.9048 Y28.3944
G01 X2.9269 Y28.3063
G01 X2.9575 Y28.2208
G01 X2.9963 Y28.1387
G01 X3.0430 Y28.0608
G01 X3.0971 Y27.9879
G01 X3.1581 Y27.9206
G01 X3.2254 Y27.8596
G01 X3.2983 Y27.8055
G01 X3.3763 Y27.7588
G01 X3.4584 Y27.7199
G01 X3.5439 Y27.6894
G01 X3.6320 Y27.6673
G01 X3.7218 Y27.6540
G01 X3.8125 Y27.6495
G01 X3.8983 Y27.6536
G01 X3.9081 Y27.6546
G01 X3.9883 Y27.6664
G01 X3.9979 Y27.6684
G01 X4.0812 Y27.6894
G01 X4.1621 Y27.7182
G01 X4.1712 Y27.7219
G01 X4.2488 Y27.7588
G01 X4.3267 Y27.8055
G01 X4.3997 Y27.8596
G01 X4.4670 Y27.9206
G01 X4.5280 Y27.9879
G01 X4.5821 Y28.0608
G01 X4.6287 Y28.1387
G01 X4.6656 Y28.2163
G01 X4.6693 Y28.2254
G01 X4.6982 Y28.3063
G01 X4.7192 Y28.3897
G01 X4.7211 Y28.3993
G01 X4.7330 Y28.4794
G01 X4.7339 Y28.4892
G01 X4.7380 Y28.5750
G01 X4.7346 Y28.6481
G01 X10.5779 Y34.4914
G01 X10.6174 Y34.5351
G01 X10.6525 Y34.5824
G01 X10.6828 Y34.6329
G01 X10.7070 Y34.6839
G01 X10.7097 Y34.6908
G01 X10.7278 Y34.7416
G01 X10.7421 Y34.7988
G01 X10.7508 Y34.8570
G01 X10.7537 Y34.9159
G01 X10.7537 Y43.2292
G01 X10.8079 Y43.2786
G01 X10.8657 Y43.3421
G01 X10.8720 Y43.3497
G01 X10.9202 Y43.4148
G01 X10.9257 Y43.4229
G01 X10.9697 Y43.4967
G01 X11.0066 Y43.5743
G01 X11.0103 Y43.5834
G01 X11.0392 Y43.6643
G01 X11.0612 Y43.7524
G01 X11.0746 Y43.8423
G01 X11.0789 Y43.9281
G01 X11.0790 Y43.9354
G01 X11.0746 Y44.0237
G01 X11.0621 Y44.1087
G01 X11.0602 Y44.1183
G01 X11.0392 Y44.2016
G01 X11.0103 Y44.2826
G01 X11.0066 Y44.2916
G01 X10.9697 Y44.3693
G01 X10.9230 Y44.4472
G01 X10.8720 Y44.5162
G01 X10.8657 Y44.5238
G01 X10.8079 Y44.5874
G01 X10.7407 Y44.6484
G01 X10.6717 Y44.6997
G01 X10.6636 Y44.7051
G01 X10.5898 Y44.7492
G01 X10.5099 Y44.7871
G01 X10.5031 Y44.7898
G01 X10.4222 Y44.8186
G01 X10.3389 Y44.8396
G01 X10.3292 Y44.8415
G01 X10.2491 Y44.8534
G01 X10.2393 Y44.8544
G01 X10.1535 Y44.8585
G01 X10.0677 Y44.8544
G01 X10.0579 Y44.8534
G01 X9.9730 Y44.8407
G01 X9.8849 Y44.8186
G01 X9.7993 Y44.7880
G01 X9.7216 Y44.7514
G01 X9.7130 Y44.7468
G01 X9.6435 Y44.7051
G01 X9.6353 Y44.6997
G01 X9.5664 Y44.6484
G01 X9.5026 Y44.5908
G01 X9.4957 Y44.5839
G01 X9.4381 Y44.5201
G01 X9.3840 Y44.4472
G01 X9.3373 Y44.3693
G01 X9.3005 Y44.2916
G01 X9.2967 Y44.2826
G01 X9.2679 Y44.2016
G01 X9.2469 Y44.1183
G01 X9.2450 Y44.1087
G01 X9.2325 Y44.0237
G01 X9.2281 Y43.9379
G01 X9.2281 Y43.9281
G01 X9.2325 Y43.8423
G01 X9.2450 Y43.7573
G01 X9.2469 Y43.7476
G01 X9.2679 Y43.6643
G01 X9.2985 Y43.5788
G01 X9.3373 Y43.4967
G01 X9.3814 Y43.4229
G01 X9.3868 Y43.4148
G01 X9.4351 Y43.3497
G01 X9.4413 Y43.3421
G01 X9.4991 Y43.2786
G01 X9.5532 Y43.2294
G01 X9.5532 Y35.1645
G01 X3.8857 Y29.4970
G00 Z2.0000
G00 X3.8125 Y27.5907
G01 F60.00
G01 Z0.0000
G01 F300.00
G01 X3.9411 Y27.5994
G01 X4.0671 Y27.6243
G01 X4.1893 Y27.6658
G01 X4.3044 Y27.7225
G01 X4.4113 Y27.7944
G01 X4.5082 Y27.8793
G01 X4.5932 Y27.9762
G01 X4.6651 Y28.0832
G01 X4.7217 Y28.1983
G01 X4.7632 Y28.3205
G01 X4.7881 Y28.4463
G01 X4.7957 Y28.5599
G01 X4.7978 Y28.5715
G01 X4.8075 Y28.6089
G01 X4.8096 Y28.6159
G01 X4.8122 Y28.6227
G01 X4.8153 Y28.6293
G01 X4.8188 Y28.6357
G01 X4.8431 Y28.6717
G01 X4.8506 Y28.6809
G01 X10.6340 Y34.4650
G01 X10.6971 Y34.5440
G01 X10.7381 Y34.6116
G01 X10.7458 Y34.6266
G01 X10.7768 Y34.7016
G01 X10.7821 Y34.7178
G01 X10.8016 Y34.7969
G01 X10.8045 Y34.8139
G01 X10.8118 Y34.8940
G01 X10.8125 Y43.1242
G01 X10.8135 Y43.1345
G01 X10.8216 Y43.1779
G01 X10.8235 Y43.1849
G01 X10.8259 Y43.1918
G01 X10.8288 Y43.1984
G01 X10.8322 Y43.2049
G01 X10.8536 Y43.2401
G01 X10.8594 Y43.2482
G01 X10.9344 Y43.3340
G01 X11.0059 Y43.4409
G01 X11.0626 Y43.5561
G01 X11.1041 Y43.6785
G01 X11.1295 Y43.8048
G01 X11.1378 Y43.9329
G01 X11.1295 Y44.0615
G01 X11.1041 Y44.1877
G01 X11.0626 Y44.3096
G01 X11.0058 Y44.4254
G01 X10.9344 Y44.5323
G01 X10.8496 Y44.6291
G01 X10.7528 Y44.7139
G01 X10.6459 Y44.7853
G01 X10.5301 Y44.8420
G01 X10.4082 Y44.8836
G01 X10.2820 Y44.9089
G01 X10.1534 Y44.9172
G01 X10.0253 Y44.9089
G01 X9.8990 Y44.8836
G01 X9.7767 Y44.8420
G01 X9.6614 Y44.7853
G01 X9.5545 Y44.7139
G01 X9.4577 Y44.6291
G01 X9.3729 Y44.5323
G01 X9.3014 Y44.4253
G01 X9.2442 Y44.3094
G01 X9.2027 Y44.1879
G01 X9.1778 Y44.0616
G01 X9.1695 Y43.9329
G01 X9.1778 Y43.8046
G01 X9.2027 Y43.6783
G01 X9.2442 Y43.5563
G01 X9.3013 Y43.4410
G01 X9.3729 Y43.3338
G01 X9.4476 Y43.2480
G01 X9.4533 Y43.2400
G01 X9.4733 Y43.2069
G01 X9.4769 Y43.2006
G01 X9.4799 Y43.1941
G01 X9.4825 Y43.1873
G01 X9.4852 Y43.1781
G01 X9.4932 Y43.1352
G01 X9.4944 Y43.1222
G01 X9.4944 Y35.2725
G01 X9.4940 Y35.2629
G01 X9.4926 Y35.2534
G01 X9.4845 Y35.2118
G01 X9.4826 Y35.2045
G01 X9.4801 Y35.1973
G01 X9.4760 Y35.1881
G01 X9.4696 Y35.1773
G01 X9.4459 Y35.1423
G01 X9.4400 Y35.1348
G01 X9.4352 Y35.1296
G01 X3.9202 Y29.6146
G01 X3.9148 Y29.6099
G01 X3.9073 Y29.6042
G01 X3.8753 Y29.5826
G01 X3.8647 Y29.5766
G01 X3.8557 Y29.5728
G01 X3.8488 Y29.5706
G01 X3.8091 Y29.5602
G01 X3.7998 Y29.5585
G01 X3.7927 Y29.5578
G01 X3.6839 Y29.5506
G01 X3.5580 Y29.5257
G01 X3.4358 Y29.4842
G01 X3.3207 Y29.4275
G01 X3.2137 Y29.3556
G01 X3.1168 Y29.2707
G01 X3.0319 Y29.1738
G01 X2.9600 Y29.0668
G01 X2.9034 Y28.9517
G01 X2.8619 Y28.8295
G01 X2.8369 Y28.7036
G01 X2.8282 Y28.5750
G01 X2.8369 Y28.4464
G01 X2.8619 Y28.3205
G01 X2.9034 Y28.1983
G01 X2.9600 Y28.0832
G01 X3.0319 Y27.9762
G01 X3.1168 Y27.8793
G01 X3.2137 Y27.7944
G01 X3.3207 Y27.7224
G01 X3.4358 Y27.6658
G01 X3.5580 Y27.6243
G01 X3.6840 Y27.5994
G01 X3.8125 Y27.5907
G00 Z2.0000
G00 X3.8857 Y25.1130
G01 F60.00
G01 Z0.0000
G01 F300.00
G01 X9.5532 Y19.4455
G01 X9.5532 Y11.5076
G01 X9.4991 Y11.4584
G01 X9.4413 Y11.3949
G01 X9.4351 Y11.3873
G01 X9.3868 Y11.3222
G01 X9.3814 Y11.3140
G01 X9.3373 Y11.2403
G01 X9.2985 Y11.1582
G01 X9.2694 Y11.0773
G01 X9.2666 Y11.0679
G01 X9.2458 Y10.9846
G01 X9.2331 Y10.8996
G01 X9.2321 Y10.8898
G01 X9.2280 Y10.8040
G01 X9.2325 Y10.7133
G01 X9.2450 Y10.6283
G01 X9.2469 Y10.6187
G01 X9.2679 Y10.5354
G01 X9.2967 Y10.4544
G01 X9.3005 Y10.4453
G01 X9.3373 Y10.3677
G01 X9.3840 Y10.2898
G01 X9.4381 Y10.2169
G01 X9.4957 Y10.1531
G01 X9.5026 Y10.1462
G01 X9.5664 Y10.0886
G01 X9.6353 Y10.0373
G01 X9.6435 Y10.0319
G01 X9.7130 Y9.9902
G01 X9.7216 Y9.9856
G01 X9.7993 Y9.9490
G01 X9.8849 Y9.9184
G01 X9.9730 Y9.8963
G01 X10.0579 Y9.8836
G01 X10.0677 Y9.8826
G01 X10.1535 Y9.8785
G01 X10.2393 Y9.8826
G01 X10.2491 Y9.8836
G01 X10.3292 Y9.8955
G01 X10.3389 Y9.8974
G01 X10.4222 Y9.9184
G01 X10.5031 Y9.9472
G01 X10.5099 Y9.9499
G01 X10.5898 Y9.9878
G01 X10.6636 Y10.0319
G01 X10.6717 Y10.0373
G01 X10.7407 Y10.0886
G01 X10.8079 Y10.1496
G01 X10.8657 Y10.2132
G01 X10.8720 Y10.2207
G01 X10.9230 Y10.2898
G01 X10.9697 Y10.3677
G01 X11.0066 Y10.4453
G01 X11.0103 Y10.4544
G01 X11.0392 Y10.5354
G01 X11.0602 Y10.6187
G01 X11.0621 Y10.6283
G01 X11.0746 Y10.7133
G01 X11.0790 Y10.8016
G01 X11.0789 Y10.8089
G01 X11.0746 Y10.8947
G01 X11.0612 Y10.9846
G01 X11.0392 Y11.0727
G01 X11.0103 Y11.1536
G01 X11.0066 Y11.1627
G01 X10.9697 Y11.2403
G01 X10.9257 Y11.3140
G01 X10.9202 Y11.3222
G01 X10.8720 Y11.3873
G01 X10.8657 Y11.3949
G01 X10.8079 Y11.4584
G01 X10.7537 Y11.5078
G01 X10.7537 Y19.6942
G01 X10.7508 Y19.7530
G01 X10.7421 Y19.8113
G01 X10.7278 Y19.8684
G01 X10.7097 Y19.9193
G01 X10.7070 Y19.9261
G01 X10.6828 Y19.9771
G01 X10.6525 Y20.0276
G01 X10.6174 Y20.0750
G01 X10.5779 Y20.1186
G01 X4.7346 Y25.9619
G01 X4.7380 Y26.0350
G01 X4.7339 Y26.1208
G01 X4.7330 Y26.1306
G01 X4.7211 Y26.2107
G01 X4.7192 Y26.2203
G01 X4.6982 Y26.3037
G01 X4.6693 Y26.3846
G01 X4.6656 Y26.3937
G01 X4.6287 Y26.4713
G01 X4.5821 Y26.5492
G01 X4.5280 Y26.6221
G01 X4.4670 Y26.6894
G01 X4.3997 Y26.7504
G01 X4.3267 Y26.8045
G01 X4.2488 Y26.8512
G01 X4.1712 Y26.8881
G01 X4.1621 Y26.8918
G01 X4.0812 Y26.9206
G01 X3.9979 Y26.9416
G01 X3.9883 Y26.9436
G01 X3.9081 Y26.9554
G01 X3.8983 Y26.9564
G01 X3.8125 Y26.9605
G01 X3.7218 Y26.9560
G01 X3.6320 Y26.9427
G01 X3.5439 Y26.9206
G01 X3.4584 Y26.8901
G01 X3.3763 Y26.8512
G01 X3.2983 Y26.8045
G01 X3.2254 Y26.7504
G01 X3.1581 Y26.6894
G01 X3.0971 Y26.6221
G01 X3.0430 Y26.5492
G01 X2.9963 Y26.4713
G01 X2.9575 Y26.3892
G01 X2.9269 Y26.3037
G01 X2.9048 Y26.2156
G01 X2.8915 Y26.1257
G01 X2.8870 Y26.0350
G01 X2.8915 Y25.9443
G01 X2.9048 Y25.8544
G01 X2.9269 Y25.7663
G01 X2.9575 Y25.6808
G01 X2.9963 Y25.5987
G01 X3.0430 Y25.5208
G01 X3.0971 Y25.4479
G01 X3.1581 Y25.3806
G01 X3.2254 Y25.3196
G01 X3.2983 Y25.2655
G01 X3.3763 Y25.2188
G01 X3.4584 Y25.1799
G01 X3.5439 Y25.1494
G01 X3.6320 Y25.1273
G01 X3.7218 Y25.1140
G01 X3.8125 Y25.1095
G01 X3.8857 Y25.1130
G00 Z2.0000
M05
G00 Z2.0000
G00 Z15.00


