(G-CODE GENERATED BY FLATCAM v8.994 - www.flatcam.org - Version Date: 2020/11/7)

(Name: Gerber_TopLayer.GTL_iso_combined_1_cnc)
(Type: G-code from Geometry)
(Units: MM)

(Created on Friday, 28 March 2025 at 15:39)

(This preprocessor is the default preprocessor used by FlatCAM.)
(It is made to work with MACH3 compatible motion controllers.)

(TOOL DIAMETER: 2.0 mm)
(Feedrate_XY: 350.0 mm/min)
(Feedrate_Z: 60.0 mm/min)
(Feedrate rapids 1500.0 mm/min)

(Z_Cut: -0.5 mm)
(Z_Move: 2.0 mm)
(Z Start: None mm)
(Z End: 15.0 mm)
(X,Y End: None mm)
(Steps per circle: 64)
(Preprocessor Geometry: default)

(X range:    0.8370 ...   56.3156  mm)
(Y range:   -0.4351 ...   55.0451  mm)

(Spindle Speed: 24000.0 RPM)
G21
G90
G94

G01 F350.00

M5
G00 Z15.0000
G00 X0.0000 Y0.0000
T1
M6    
(MSG, Change to Tool Dia = 2.0000)
M0
G00 Z15.0000

M03 S24000.0
G01 F350.00
G00 X28.3756 Y-0.4349
G01 F60.00
G01 Z-0.5000
G01 F350.00
G01 X28.4026 Y-0.4351
G01 X29.1361 Y-0.4300
G01 X29.1632 Y-0.4295
G01 X29.8962 Y-0.4046
G01 X29.9246 Y-0.4032
G01 X30.6571 Y-0.3575
G01 X30.6835 Y-0.3555
G01 X31.4140 Y-0.2905
G01 X31.4416 Y-0.2876
G01 X32.1706 Y-0.2023
G01 X32.1983 Y-0.1986
G01 X32.9243 Y-0.0930
G01 X32.9506 Y-0.0888
G01 X33.6734 Y0.0362
G01 X33.7011 Y0.0414
G01 X34.4204 Y0.1867
G01 X34.4468 Y0.1924
G01 X35.1616 Y0.3570
G01 X35.1885 Y0.3636
G01 X35.8987 Y0.5480
G01 X35.9249 Y0.5552
G01 X36.6300 Y0.7589
G01 X36.6558 Y0.7667
G01 X37.3548 Y0.9892
G01 X37.3818 Y0.9982
G01 X38.0742 Y1.2405
G01 X38.0991 Y1.2496
G01 X38.7849 Y1.5102
G01 X38.8112 Y1.5206
G01 X39.4894 Y1.8005
G01 X39.5142 Y1.8112
G01 X40.1848 Y2.1094
G01 X40.2098 Y2.1209
G01 X40.8717 Y2.4374
G01 X40.8961 Y2.4495
G01 X41.5489 Y2.7838
G01 X41.5730 Y2.7965
G01 X42.2166 Y3.1486
G01 X42.2409 Y3.1623
G01 X42.8744 Y3.5321
G01 X42.8978 Y3.5462
G01 X43.5211 Y3.9333
G01 X43.5439 Y3.9479
G01 X44.1566 Y4.3518
G01 X44.1796 Y4.3674
G01 X44.7806 Y4.7880
G01 X44.8028 Y4.8041
G01 X45.3926 Y5.2415
G01 X45.4141 Y5.2578
G01 X45.9912 Y5.7105
G01 X46.0131 Y5.7281
G01 X46.5775 Y6.1970
G01 X46.5980 Y6.2145
G01 X47.1491 Y6.6981
G01 X47.1695 Y6.7165
G01 X47.7075 Y7.2154
G01 X47.7274 Y7.2343
G01 X48.2516 Y7.7479
G01 X48.2710 Y7.7674
G01 X48.7810 Y8.2952
G01 X48.8001 Y8.3155
G01 X49.2949 Y8.8571
G01 X49.3128 Y8.8772
G01 X49.7929 Y9.4320
G01 X49.8103 Y9.4526
G01 X50.2751 Y10.0201
G01 X50.2926 Y10.0420
G01 X50.7417 Y10.6226
G01 X50.7580 Y10.6444
G01 X51.1908 Y11.2368
G01 X51.2066 Y11.2590
G01 X51.6232 Y11.8630
G01 X51.6388 Y11.8863
G01 X52.0381 Y12.5015
G01 X52.0522 Y12.5239
G01 X52.4353 Y13.1498
G01 X52.4497 Y13.1741
G01 X52.8149 Y13.8106
G01 X52.8282 Y13.8344
G01 X53.1756 Y14.4801
G01 X53.1881 Y14.5040
G01 X53.5183 Y15.1593
G01 X53.5305 Y15.1844
G01 X53.8424 Y15.8489
G01 X53.8538 Y15.8740
G01 X54.1469 Y16.5461
G01 X54.1575 Y16.5713
G01 X54.4323 Y17.2515
G01 X54.4420 Y17.2766
G01 X54.6986 Y17.9644
G01 X54.7079 Y17.9904
G01 X54.9451 Y18.6843
G01 X54.9537 Y18.7108
G01 X55.1717 Y19.4113
G01 X55.1795 Y19.4378
G01 X55.3781 Y20.1444
G01 X55.3851 Y20.1705
G01 X55.5644 Y20.8817
G01 X55.5708 Y20.9088
G01 X55.7304 Y21.6251
G01 X55.7358 Y21.6513
G01 X55.8760 Y22.3711
G01 X55.8809 Y22.3982
G01 X56.0013 Y23.1221
G01 X56.0055 Y23.1498
G01 X56.1056 Y23.8768
G01 X56.1089 Y23.9037
G01 X56.1892 Y24.6327
G01 X56.1918 Y24.6598
G01 X56.2523 Y25.3913
G01 X56.2542 Y25.4190
G01 X56.2943 Y26.1515
G01 X56.2954 Y26.1792
G01 X56.3152 Y26.9127
G01 X56.3156 Y26.9397
G01 X56.3156 Y27.6733
G01 X56.3152 Y27.7003
G01 X56.2954 Y28.4339
G01 X56.2943 Y28.4622
G01 X56.2536 Y29.1948
G01 X56.2518 Y29.2211
G01 X56.1919 Y29.9521
G01 X56.1891 Y29.9805
G01 X56.1084 Y30.7099
G01 X56.1051 Y30.7364
G01 X56.0050 Y31.4628
G01 X56.0008 Y31.4904
G01 X55.8804 Y32.2143
G01 X55.8755 Y32.2413
G01 X55.7353 Y32.9616
G01 X55.7298 Y32.9881
G01 X55.5703 Y33.7039
G01 X55.5639 Y33.7307
G01 X55.3846 Y34.4424
G01 X55.3774 Y34.4695
G01 X55.1783 Y35.1756
G01 X55.1706 Y35.2012
G01 X54.9527 Y35.9018
G01 X54.9441 Y35.9282
G01 X54.7069 Y36.6221
G01 X54.6976 Y36.6481
G01 X54.4410 Y37.3359
G01 X54.4313 Y37.3611
G01 X54.1564 Y38.0413
G01 X54.1456 Y38.0670
G01 X53.8520 Y38.7391
G01 X53.8409 Y38.7637
G01 X53.5289 Y39.4282
G01 X53.5170 Y39.4526
G01 X53.1873 Y40.1080
G01 X53.1743 Y40.1330
G01 X52.8263 Y40.7786
G01 X52.8132 Y40.8022
G01 X52.4480 Y41.4382
G01 X52.4339 Y41.4619
G01 X52.0509 Y42.0883
G01 X52.0362 Y42.1115
G01 X51.6364 Y42.7267
G01 X51.6215 Y42.7490
G01 X51.2054 Y43.3531
G01 X51.1890 Y43.3762
G01 X50.7557 Y43.9685
G01 X50.7397 Y43.9898
G01 X50.2911 Y44.5699
G01 X50.2736 Y44.5919
G01 X49.8088 Y45.1594
G01 X49.7917 Y45.1797
G01 X49.3116 Y45.7350
G01 X49.2927 Y45.7562
G01 X48.7974 Y46.2972
G01 X48.7790 Y46.3168
G01 X48.2689 Y46.8447
G01 X48.2493 Y46.8644
G01 X47.7250 Y47.3775
G01 X47.7055 Y47.3961
G01 X47.1675 Y47.8950
G01 X47.1475 Y47.9130
G01 X46.5963 Y48.3972
G01 X46.5747 Y48.4156
G01 X46.0098 Y48.8840
G01 X45.9891 Y48.9007
G01 X45.4120 Y49.3538
G01 X45.3900 Y49.3707
G01 X44.8007 Y49.8075
G01 X44.7782 Y49.8237
G01 X44.1768 Y50.2443
G01 X44.1544 Y50.2595
G01 X43.5422 Y50.6634
G01 X43.5186 Y50.6785
G01 X42.8953 Y51.0651
G01 X42.8721 Y51.0791
G01 X42.2381 Y51.4489
G01 X42.2141 Y51.4624
G01 X41.5705 Y51.8145
G01 X41.5469 Y51.8270
G01 X40.8941 Y52.1617
G01 X40.8686 Y52.1744
G01 X40.2067 Y52.4904
G01 X40.1822 Y52.5016
G01 X39.5117 Y52.7998
G01 X39.4868 Y52.8105
G01 X38.8087 Y53.0904
G01 X38.7824 Y53.1008
G01 X38.0966 Y53.3614
G01 X38.0708 Y53.3708
G01 X37.3779 Y53.6126
G01 X37.3524 Y53.6211
G01 X36.6534 Y53.8441
G01 X36.6272 Y53.8521
G01 X35.9226 Y54.0558
G01 X35.8955 Y54.0632
G01 X35.1853 Y54.2471
G01 X35.1589 Y54.2536
G01 X34.4436 Y54.4182
G01 X34.4175 Y54.4238
G01 X33.6987 Y54.5691
G01 X33.6709 Y54.5743
G01 X32.9480 Y54.6993
G01 X32.9209 Y54.7036
G01 X32.1945 Y54.8087
G01 X32.1676 Y54.8122
G01 X31.4391 Y54.8976
G01 X31.4121 Y54.9004
G01 X30.6810 Y54.9659
G01 X30.6534 Y54.9680
G01 X29.9214 Y55.0132
G01 X29.8936 Y55.0146
G01 X29.1601 Y55.0394
G01 X29.1331 Y55.0400
G01 X28.3995 Y55.0451
G01 X28.3718 Y55.0449
G01 X27.6383 Y55.0296
G01 X27.6113 Y55.0287
G01 X26.8787 Y54.9937
G01 X26.8511 Y54.9920
G01 X26.1195 Y54.9366
G01 X26.0926 Y54.9342
G01 X25.3626 Y54.8590
G01 X25.3349 Y54.8557
G01 X24.6074 Y54.7602
G01 X24.5803 Y54.7563
G01 X23.8559 Y54.6410
G01 X23.8290 Y54.6363
G01 X23.1077 Y54.5012
G01 X23.0807 Y54.4958
G01 X22.3634 Y54.3408
G01 X22.3362 Y54.3346
G01 X21.6240 Y54.1598
G01 X21.5985 Y54.1532
G01 X20.8908 Y53.9596
G01 X20.8639 Y53.9519
G01 X20.1618 Y53.7385
G01 X20.1355 Y53.7301
G01 X19.4396 Y53.4974
G01 X19.4139 Y53.4885
G01 X18.7246 Y53.2370
G01 X18.6987 Y53.2272
G01 X18.0170 Y52.9569
G01 X17.9917 Y52.9465
G01 X17.3171 Y52.6575
G01 X17.2919 Y52.6462
G01 X16.6259 Y52.3389
G01 X16.6019 Y52.3274
G01 X15.9440 Y52.0023
G01 X15.9189 Y51.9895
G01 X15.2707 Y51.6461
G01 X15.2465 Y51.6328
G01 X14.6080 Y51.2716
G01 X14.5847 Y51.2580
G01 X13.9558 Y50.8796
G01 X13.9320 Y50.8648
G01 X13.3142 Y50.4690
G01 X13.2921 Y50.4545
G01 X12.6851 Y50.0425
G01 X12.6614 Y50.0260
G01 X12.0666 Y49.5967
G01 X12.0454 Y49.5810
G01 X11.4617 Y49.1360
G01 X11.4397 Y49.1187
G01 X10.8692 Y48.6580
G01 X10.8488 Y48.6410
G01 X10.2905 Y48.1650
G01 X10.2691 Y48.1462
G01 X9.7245 Y47.6545
G01 X9.7051 Y47.6365
G01 X9.1737 Y47.1305
G01 X9.1534 Y47.1106
G01 X8.6368 Y46.5899
G01 X8.6185 Y46.5709
G01 X8.1155 Y46.0365
G01 X8.0967 Y46.0159
G01 X7.6090 Y45.4678
G01 X7.5907 Y45.4466
G01 X7.1187 Y44.8852
G01 X7.1019 Y44.8647
G01 X6.6447 Y44.2907
G01 X6.6275 Y44.2685
G01 X6.1866 Y43.6817
G01 X6.1705 Y43.6597
G01 X5.7458 Y43.0613
G01 X5.7302 Y43.0386
G01 X5.3223 Y42.4290
G01 X5.3074 Y42.4060
G01 X4.9162 Y41.7853
G01 X4.9023 Y41.7625
G01 X4.5279 Y41.1315
G01 X4.5137 Y41.1068
G01 X4.1575 Y40.4657
G01 X4.1450 Y40.4425
G01 X3.8057 Y39.7917
G01 X3.7929 Y39.7663
G01 X3.4723 Y39.1064
G01 X3.4609 Y39.0820
G01 X3.1581 Y38.4135
G01 X3.1471 Y38.3882
G01 X2.8631 Y37.7120
G01 X2.8530 Y37.6870
G01 X2.5873 Y37.0032
G01 X2.5777 Y36.9773
G01 X2.3308 Y36.2859
G01 X2.3219 Y36.2600
G01 X2.0943 Y35.5630
G01 X2.0861 Y35.5365
G01 X1.8778 Y34.8329
G01 X1.8704 Y34.8066
G01 X1.6814 Y34.0974
G01 X1.6748 Y34.0712
G01 X1.5051 Y33.3574
G01 X1.4991 Y33.3304
G01 X1.3492 Y32.6121
G01 X1.3440 Y32.5852
G01 X1.2140 Y31.8633
G01 X1.2095 Y31.8362
G01 X1.0992 Y31.1108
G01 X1.0955 Y31.0838
G01 X1.0051 Y30.3559
G01 X1.0020 Y30.3281
G01 X0.9319 Y29.5976
G01 X0.9297 Y29.5707
G01 X0.8794 Y28.8386
G01 X0.8779 Y28.8116
G01 X0.8474 Y28.0786
G01 X0.8467 Y28.0502
G01 X0.8370 Y27.3166
G01 X0.8370 Y27.2903
G01 X0.8467 Y26.5568
G01 X0.8474 Y26.5284
G01 X0.8779 Y25.7953
G01 X0.8794 Y25.7683
G01 X0.9297 Y25.0363
G01 X0.9320 Y25.0086
G01 X1.0026 Y24.2786
G01 X1.0056 Y24.2517
G01 X1.0960 Y23.5232
G01 X1.0997 Y23.4960
G01 X1.2100 Y22.7711
G01 X1.2144 Y22.7443
G01 X1.3445 Y22.0219
G01 X1.3498 Y21.9947
G01 X1.4996 Y21.2769
G01 X1.5056 Y21.2502
G01 X1.6753 Y20.5359
G01 X1.6820 Y20.5094
G01 X1.8709 Y19.8007
G01 X1.8785 Y19.7739
G01 X2.0873 Y19.0703
G01 X2.0953 Y19.0446
G01 X2.3229 Y18.3471
G01 X2.3319 Y18.3208
G01 X2.5787 Y17.6299
G01 X2.5883 Y17.6042
G01 X2.8540 Y16.9205
G01 X2.8641 Y16.8954
G01 X3.1481 Y16.2193
G01 X3.1592 Y16.1940
G01 X3.4619 Y15.5254
G01 X3.4736 Y15.5005
G01 X3.7947 Y14.8406
G01 X3.8069 Y14.8163
G01 X4.1458 Y14.1655
G01 X4.1589 Y14.1412
G01 X4.5155 Y13.5001
G01 X4.5294 Y13.4759
G01 X4.9038 Y12.8450
G01 X4.9177 Y12.8222
G01 X5.3089 Y12.2014
G01 X5.3238 Y12.1784
G01 X5.7318 Y11.5688
G01 X5.7473 Y11.5462
G01 X6.1720 Y10.9478
G01 X6.1887 Y10.9250
G01 X6.6302 Y10.3387
G01 X6.6464 Y10.3177
G01 X7.1031 Y9.7437
G01 X7.1206 Y9.7223
G01 X7.5930 Y9.1610
G01 X7.6110 Y9.1402
G01 X8.0987 Y8.5921
G01 X8.1172 Y8.5718
G01 X8.6196 Y8.0374
G01 X8.6387 Y8.0177
G01 X9.1558 Y7.4970
G01 X9.1758 Y7.4775
G01 X9.7071 Y6.9715
G01 X9.7269 Y6.9532
G01 X10.2715 Y6.4619
G01 X10.2921 Y6.4438
G01 X10.8504 Y5.9673
G01 X10.8716 Y5.9497
G01 X11.4426 Y5.4890
G01 X11.4640 Y5.4722
G01 X12.0471 Y5.0272
G01 X12.0694 Y5.0107
G01 X12.6648 Y4.5819
G01 X12.6876 Y4.5660
G01 X13.2946 Y4.1540
G01 X13.3168 Y4.1394
G01 X13.9345 Y3.7437
G01 X13.9580 Y3.7291
G01 X14.5864 Y3.3506
G01 X14.6108 Y3.3364
G01 X15.2499 Y2.9757
G01 X15.2732 Y2.9629
G01 X15.9215 Y2.6195
G01 X15.9460 Y2.6069
G01 X16.6039 Y2.2813
G01 X16.6290 Y2.2693
G01 X17.2950 Y1.9625
G01 X17.3196 Y1.9515
G01 X17.9942 Y1.6625
G01 X18.0196 Y1.6520
G01 X18.7013 Y1.3818
G01 X18.7271 Y1.3720
G01 X19.4165 Y1.1205
G01 X19.4427 Y1.1113
G01 X20.1387 Y0.8792
G01 X20.1643 Y0.8710
G01 X20.8664 Y0.6576
G01 X20.8927 Y0.6500
G01 X21.6003 Y0.4560
G01 X21.6273 Y0.4490
G01 X22.3401 Y0.2747
G01 X22.3663 Y0.2687
G01 X23.0830 Y0.1138
G01 X23.1102 Y0.1083
G01 X23.8316 Y-0.0269
G01 X23.8585 Y-0.0315
G01 X24.5829 Y-0.1468
G01 X24.6106 Y-0.1508
G01 X25.3381 Y-0.2458
G01 X25.3644 Y-0.2489
G01 X26.0944 Y-0.3246
G01 X26.1228 Y-0.3271
G01 X26.8543 Y-0.3820
G01 X26.8806 Y-0.3836
G01 X27.6137 Y-0.4192
G01 X27.6420 Y-0.4202
G01 X28.3756 Y-0.4349
G00 Z2.0000
G00 X13.3185 Y42.5640
G01 F60.00
G01 Z-0.5000
G01 F350.00
G01 X13.3185 Y12.0459
G01 X43.8366 Y12.0459
G01 X43.8366 Y42.5640
G01 X13.3185 Y42.5640
G00 Z2.0000
M05
G00 Z2.0000
G00 Z15.00


