(G-CODE GENERATED BY FLATCAM v8.994 - www.flatcam.org - Version Date: 2020/11/7)

(Name: Drill_PTH_Through.DRL_cnc)
(Type: G-code from Geometry)
(Units: MM)

(Created on Friday, 28 March 2025 at 14:37)

(This preprocessor is used with a motion controller loaded with GRBL firmware.)
(It is configured to be compatible with almost any version of GRBL firmware.)


(TOOLS DIAMETER: )
(Tool: 1 -> Dia: 0.901)
(Tool: 2 -> Dia: 1.101)

(FEEDRATE Z: )
(Tool: 1 -> Feedrate: 250.0)
(Tool: 2 -> Feedrate: 250.0)

(FEEDRATE RAPIDS: )
(Tool: 1 -> Feedrate Rapids: 1500)
(Tool: 2 -> Feedrate Rapids: 1500)

(Z_CUT: )
(Tool: 1 -> Z_Cut: -2.0)
(Tool: 2 -> Z_Cut: -2.0)

(Tools Offset: )
(Tool: 2 -> Offset Z: 0.0)
(Tool: 1 -> Offset Z: 0.0)

(Z_MOVE: )
(Tool: 1 -> Z_Move: 2)
(Tool: 2 -> Z_Move: 2)

(Z Toolchange: 15 mm)
(X,Y Toolchange: 0.0000, 0.0000 mm)
(Z Start: None mm)
(Z End: 0.5 mm)
(X,Y End: None mm)
(Steps per circle: 64)
(Steps per circle: 64)
(Preprocessor Excellon: grbl_11)

(X range:    3.3595 ...   53.7905  mm)
(Y range:    2.0895 ...   52.5205  mm)

(Spindle Speed: 24000 RPM)
G21
G90
G17
G94


G01 F250.00

M5             
G00 Z15.0000
G00 X0.0000 Y0.0000                
T1
M6
(MSG, Change to Tool Dia = 0.9010 ||| Total drills for tool T1 = 18)
M0
G00 Z15.0000

G01 F250.00
M03 S24000
G00 X45.2030 Y8.8810
G01 Z-2.0000
G01 Z0
G00 Z2.0000
G00 X45.2030 Y8.8810
G01 Z-2.0000
G01 Z0
G00 Z2.0000
G00 X46.9990 Y10.6770
G01 Z-2.0000
G01 Z0
G00 Z2.0000
G00 X53.3400 Y26.0350
G01 Z-2.0000
G01 Z0
G00 Z2.0000
G00 X53.3400 Y28.5750
G01 Z-2.0000
G01 Z0
G00 Z2.0000
G00 X46.9990 Y43.9330
G01 Z-2.0000
G01 Z0
G00 Z2.0000
G00 X45.2030 Y45.7290
G01 Z-2.0000
G01 Z0
G00 Z2.0000
G00 X29.8450 Y52.0700
G01 Z-2.0000
G01 Z0
G00 Z2.0000
G00 X27.3050 Y52.0700
G01 Z-2.0000
G01 Z0
G00 Z2.0000
G00 X11.9470 Y45.7290
G01 Z-2.0000
G01 Z0
G00 Z2.0000
G00 X10.1510 Y43.9330
G01 Z-2.0000
G01 Z0
G00 Z2.0000
G00 X3.8100 Y28.5750
G01 Z-2.0000
G01 Z0
G00 Z2.0000
G00 X3.8100 Y26.0350
G01 Z-2.0000
G01 Z0
G00 Z2.0000
G00 X10.1510 Y10.8040
G01 Z-2.0000
G01 Z0
G00 Z2.0000
G00 X11.9470 Y9.0080
G01 Z-2.0000
G01 Z0
G00 Z2.0000
G00 X27.3050 Y8.8900
G01 Z-2.0000
G01 Z0
G00 Z2.0000
G00 X29.8450 Y8.8900
G01 Z-2.0000
G01 Z0
G00 Z2.0000
G00 X29.8450 Y2.5400
G01 Z-2.0000
G01 Z0
G00 Z2.0000
G00 X27.3050 Y2.5400
G01 Z-2.0000
G01 Z0
G00 Z2.0000
M05
G00 Z0.50


